;FLAVOR:Marlin
;TIME:4353
;Filament used: 3.4335m
;Layer height: 0.2
;MINX:72.927
;MINY:59.62
;MINZ:0.16
;MAXX:223.05
;MAXY:224.894
;MAXZ:7.96
;Generated with Cura_SteamEngine 4.6.1
M140 S60
M105
M190 S60
M104 S210
M105
M109 S210
M82 ;absolute extrusion mode
M201 X500.00 Y500.00 Z100.00 E5000.00 ;Setup machine max acceleration
M203 X500.00 Y500.00 Z10.00 E50.00 ;Setup machine max feedrate
M204 P500.00 R1000.00 T500.00 ;Setup Print/Retract/Travel acceleration
M205 X8.00 Y8.00 Z0.40 E5.00 ;Setup Jerk
M220 S100 ;Reset Feedrate
M221 S100 ;Reset Flowrate

G28 ;Home

G92 E0 ;Reset Extruder
G1 Z2.0 F3000 ;Move Z Axis up
G1 X10.1 Y20 Z0.28 F5000.0 ;Move to start position
G1 X10.1 Y200.0 Z0.28 F1500.0 E15 ;Draw the first line
G1 X10.4 Y200.0 Z0.28 F5000.0 ;Move to side a little
G1 X10.4 Y20 Z0.28 F1500.0 E30 ;Draw the second line
G92 E0 ;Reset Extruder
G1 Z2.0 F3000 ;Move Z Axis up

G92 E0
G92 E0
G1 F2700 E-5
;LAYER_COUNT:40
;LAYER:0
M107
G0 F6000 X88.961 Y60.314 Z0.16
;TYPE:SKIRT
G1 F2700 E0
G1 F1200 X89.376 Y60.356 E0.00888
G1 X90.268 Y60.486 E0.02807
G1 X90.749 Y60.591 E0.03855
G1 X91.264 Y60.716 E0.04983
G1 X92.412 Y61.067 E0.07538
G1 X93.03 Y61.297 E0.08942
G1 X93.347 Y61.421 E0.09666
G1 X95.47 Y62.294 E0.14553
G1 X97.867 Y63.214 E0.20018
G1 X100.262 Y64.054 E0.25421
G1 X102.657 Y64.82 E0.30773
G1 X105.111 Y65.53 E0.36211
G1 X107.573 Y66.167 E0.41624
G1 X110.066 Y66.737 E0.47068
G1 X112.545 Y67.233 E0.52449
G1 X115.06 Y67.658 E0.57879
G1 X117.576 Y68.012 E0.63287
G1 X120.059 Y68.292 E0.68606
G1 X122.62 Y68.506 E0.74077
G1 X125.183 Y68.648 E0.79541
G1 X127.684 Y68.715 E0.84867
G1 X130.22 Y68.711 E0.90265
G1 X132.791 Y68.635 E0.9574
G1 X135.333 Y68.487 E1.0116
G1 X137.816 Y68.273 E1.06465
G1 X140.399 Y67.976 E1.12
G1 X142.869 Y67.621 E1.17311
G1 X145.391 Y67.185 E1.2276
G1 X147.844 Y66.69 E1.28086
G1 X150.36 Y66.107 E1.33584
G1 X152.808 Y65.466 E1.38971
G1 X155.267 Y64.748 E1.44423
G1 X157.659 Y63.976 E1.49774
G1 X161.072 Y62.75 E1.57493
G1 X161.98 Y62.471 E1.59515
G1 X162.323 Y62.383 E1.60269
G1 X163.614 Y62.139 E1.63066
G1 X163.949 Y62.098 E1.63784
G1 X164.847 Y62.029 E1.65701
G1 X165.656 Y62.034 E1.67424
G1 X166.364 Y62.067 E1.68932
G1 X167.262 Y62.149 E1.70852
G1 X168.112 Y62.302 E1.7269
G1 X168.353 Y62.356 E1.73216
G1 X169.211 Y62.588 E1.75108
G1 X169.45 Y62.664 E1.75642
G1 X170.152 Y62.916 E1.77229
G1 X170.364 Y63.001 E1.77716
G1 X171.271 Y63.417 E1.7984
G1 X171.544 Y63.559 E1.80495
G1 X172.325 Y64.01 E1.82414
G1 X172.758 Y64.303 E1.83527
G1 X173.177 Y64.602 E1.84623
G1 X174.156 Y65.397 E1.87308
G1 X174.307 Y65.536 E1.87744
G1 X175.14 Y66.399 E1.90298
G1 X175.332 Y66.623 E1.90926
G1 X175.787 Y67.194 E1.9248
G1 X176.017 Y67.505 E1.93303
G1 X176.632 Y68.441 E1.95687
G1 X176.743 Y68.632 E1.96157
G1 X177.24 Y69.603 E1.98479
G1 X177.342 Y69.832 E1.99013
G1 X177.777 Y70.994 E2.01654
G1 X177.985 Y71.674 E2.03168
G1 X178.073 Y71.979 E2.03844
G1 X178.706 Y74.307 E2.08979
G1 X179.441 Y76.74 E2.14389
G1 X180.253 Y79.171 E2.19845
G1 X181.115 Y81.533 E2.25197
G1 X182.06 Y83.909 E2.3064
G1 X183.06 Y86.23 E2.3602
G1 X184.126 Y88.522 E2.41401
G1 X185.278 Y90.829 E2.4689
G1 X186.472 Y93.059 E2.52274
G1 X187.728 Y95.251 E2.57652
G1 X189.046 Y97.409 E2.63034
G1 X190.441 Y99.556 E2.68485
G1 X191.885 Y101.644 E2.73888
G1 X193.401 Y103.709 E2.79342
G1 X194.928 Y105.671 E2.84634
G1 X196.559 Y107.65 E2.90093
G1 X198.257 Y109.592 E2.95584
G1 X199.969 Y111.446 E3.00956
G1 X201.725 Y113.24 E3.06299
G1 X203.57 Y115.022 E3.11759
G1 X205.444 Y116.732 E3.1716
G1 X207.352 Y118.378 E3.22524
G1 X209.332 Y119.989 E3.27957
G1 X211.376 Y121.558 E3.33442
G1 X213.419 Y123.036 E3.3881
G1 X215.615 Y124.531 E3.44465
G1 X216.593 Y125.18 E3.46963
G1 X216.955 Y125.433 E3.47903
G1 X217.172 Y125.591 E3.48475
G1 X217.963 Y126.229 E3.50638
G1 X218.189 Y126.431 E3.51283
G1 X218.934 Y127.17 E3.53517
G1 X219.145 Y127.402 E3.54184
G1 X219.722 Y128.095 E3.56104
G1 X220.056 Y128.562 E3.57326
G1 X220.347 Y128.994 E3.58435
G1 X220.816 Y129.763 E3.60352
G1 X221.035 Y130.182 E3.61358
G1 X221.132 Y130.379 E3.61826
G1 X221.422 Y131.023 E3.63329
G1 X221.516 Y131.253 E3.63858
G1 X221.824 Y132.115 E3.65807
G1 X221.89 Y132.33 E3.66285
G1 X222.111 Y133.181 E3.68157
G1 X222.179 Y133.498 E3.68847
G1 X222.329 Y134.387 E3.70766
G1 X222.387 Y135.018 E3.72115
G1 X222.412 Y135.433 E3.73
G1 X222.408 Y136.712 E3.75723
G1 X222.381 Y137.122 E3.76597
G1 X222.282 Y138.017 E3.78514
G1 X222.179 Y138.575 E3.79722
G1 X222.09 Y138.992 E3.8063
G1 X221.839 Y139.941 E3.82719
G1 X221.755 Y140.206 E3.83311
G1 X221.445 Y141.052 E3.85229
G1 X221.234 Y141.524 E3.86329
G1 X221.008 Y141.996 E3.87443
G1 X220.744 Y142.511 E3.88675
G1 X219.525 Y144.92 E3.94422
G1 X218.445 Y147.213 E3.99818
G1 X217.439 Y149.517 E4.05169
G1 X216.481 Y151.892 E4.1062
G1 X215.591 Y154.291 E4.16067
G1 X214.781 Y156.68 E4.21437
G1 X214.034 Y159.104 E4.26836
G1 X213.359 Y161.542 E4.32221
G1 X212.738 Y164.053 E4.37727
G1 X212.206 Y166.51 E4.43078
G1 X211.742 Y168.982 E4.48432
G1 X211.341 Y171.511 E4.53883
G1 X211.013 Y174.036 E4.59303
G1 X210.759 Y176.554 E4.6469
G1 X210.574 Y179.116 E4.70158
G1 X210.463 Y181.622 E4.75497
G1 X210.422 Y184.192 E4.80969
G1 X210.434 Y185.164 E4.83038
G1 X210.433 Y186.591 E4.86075
G1 X210.421 Y187.011 E4.8697
G1 X210.378 Y187.693 E4.88425
G1 X210.343 Y188.057 E4.89203
G1 X210.172 Y189.181 E4.91623
G1 X210.129 Y189.385 E4.92067
G1 X209.872 Y190.36 E4.94213
G1 X209.781 Y190.647 E4.94854
G1 X209.414 Y191.626 E4.9708
G1 X209.291 Y191.909 E4.97736
G1 X208.82 Y192.855 E4.99986
G1 X208.676 Y193.11 E5.00609
G1 X207.95 Y194.219 E5.03431
G1 X206.996 Y195.484 E5.06803
G1 X206.55 Y196.051 E5.08339
G1 X205.372 Y197.498 E5.12311
G1 X204.91 Y198.042 E5.1383
G1 X203.632 Y199.504 E5.17964
G1 X203.151 Y200.032 E5.19484
G1 X201.892 Y201.373 E5.23399
G1 X201.374 Y201.905 E5.2498
G1 X200.059 Y203.212 E5.28927
G1 X199.528 Y203.722 E5.30494
G1 X198.1 Y205.045 E5.34638
G1 X197.624 Y205.469 E5.35994
G1 X196.17 Y206.725 E5.40084
G1 X195.606 Y207.195 E5.41647
G1 X194.158 Y208.36 E5.45603
G1 X193.584 Y208.804 E5.47148
G1 X192.084 Y209.927 E5.51137
G1 X191.524 Y210.332 E5.52608
G1 X189.88 Y211.473 E5.56867
G1 X189.378 Y211.809 E5.58153
G1 X187.711 Y212.885 E5.62377
G1 X187.194 Y213.204 E5.6367
G1 X185.441 Y214.249 E5.68014
G1 X184.924 Y214.543 E5.6928
G1 X183.255 Y215.464 E5.73338
G1 X182.631 Y215.792 E5.74839
G1 X180.9 Y216.667 E5.78967
G1 X180.292 Y216.96 E5.80404
G1 X178.533 Y217.774 E5.8453
G1 X177.935 Y218.035 E5.85919
G1 X176.132 Y218.795 E5.90084
G1 X175.538 Y219.032 E5.91445
G1 X173.695 Y219.734 E5.95643
G1 X173.045 Y219.966 E5.97112
G1 X171.304 Y220.559 E6.01027
G1 X170.575 Y220.793 E6.02657
G1 X168.802 Y221.329 E6.066
G1 X168.091 Y221.53 E6.08172
G1 X166.229 Y222.022 E6.12272
G1 X165.611 Y222.172 E6.13626
G1 X163.72 Y222.603 E6.17754
G1 X163.038 Y222.746 E6.19238
G1 X161.144 Y223.107 E6.23342
G1 X160.513 Y223.215 E6.24704
G1 X158.578 Y223.516 E6.28873
G1 X157.887 Y223.61 E6.30357
G1 X155.999 Y223.836 E6.34405
G1 X155.35 Y223.901 E6.35793
G1 X153.368 Y224.069 E6.40027
G1 X152.748 Y224.109 E6.4135
G1 X150.746 Y224.208 E6.45617
G1 X150.106 Y224.227 E6.4698
G1 X148.226 Y224.254 E6.50982
G1 X147.501 Y224.251 E6.52525
G1 X145.575 Y224.211 E6.56626
G1 X144.893 Y224.184 E6.58079
G1 X143.016 Y224.08 E6.6208
G1 X142.32 Y224.028 E6.63566
G1 X140.376 Y223.852 E6.67721
G1 X139.704 Y223.779 E6.6916
G1 X137.783 Y223.537 E6.73281
G1 X137.115 Y223.439 E6.74719
G1 X135.267 Y223.141 E6.78703
G1 X134.523 Y223.006 E6.80313
G1 X132.694 Y222.645 E6.84281
G1 X131.964 Y222.486 E6.85871
G1 X130.157 Y222.063 E6.89822
G1 X129.522 Y221.901 E6.91217
G1 X127.565 Y221.371 E6.95533
G1 X126.989 Y221.203 E6.9681
G1 X125.077 Y220.612 E7.0107
G1 X124.508 Y220.424 E7.02345
G1 X122.638 Y219.774 E7.0656
G1 X121.994 Y219.537 E7.0802
G1 X120.262 Y218.865 E7.11975
G1 X119.606 Y218.598 E7.13483
G1 X117.783 Y217.816 E7.17705
G1 X117.216 Y217.56 E7.19029
G1 X115.46 Y216.736 E7.23158
G1 X114.817 Y216.418 E7.24685
G1 X113.143 Y215.558 E7.28691
G1 X112.53 Y215.228 E7.30173
G1 X110.847 Y214.288 E7.34277
G1 X110.289 Y213.963 E7.35651
G1 X108.595 Y212.939 E7.39865
G1 X108.027 Y212.58 E7.41295
G1 X106.469 Y211.561 E7.45258
G1 X105.85 Y211.141 E7.4685
G1 X104.319 Y210.061 E7.50838
G1 X103.743 Y209.639 E7.52358
G1 X102.199 Y208.467 E7.56485
G1 X101.684 Y208.06 E7.57882
G1 X100.197 Y206.848 E7.61965
G1 X99.651 Y206.387 E7.63487
G1 X98.233 Y205.146 E7.67498
G1 X97.699 Y204.66 E7.69035
G1 X96.33 Y203.377 E7.73029
G1 X95.806 Y202.865 E7.74588
G1 X94.488 Y201.539 E7.78568
G1 X93.96 Y200.988 E7.80192
G1 X92.719 Y199.65 E7.84077
G1 X92.208 Y199.077 E7.85711
G1 X90.984 Y197.659 E7.89698
G1 X90.549 Y197.136 E7.91147
G1 X89.297 Y195.575 E7.95406
G1 X88.755 Y194.875 E7.97291
G1 X88.48 Y194.51 E7.98263
G1 X88.269 Y194.218 E7.9903
G1 X87.969 Y193.789 E8.00145
G1 X87.449 Y192.964 E8.0222
G1 X87.327 Y192.748 E8.02748
G1 X86.858 Y191.808 E8.04985
G1 X86.642 Y191.312 E8.06136
G1 X86.194 Y190.066 E8.08955
G1 X86.042 Y189.538 E8.10124
G1 X85.831 Y188.661 E8.12044
G1 X85.745 Y188.15 E8.13147
G1 X85.674 Y187.648 E8.14227
G1 X85.576 Y186.413 E8.16864
G1 X85.567 Y185.927 E8.17899
G1 X85.594 Y184.976 E8.19924
G1 X85.777 Y182.549 E8.25105
G1 X85.914 Y179.999 E8.3054
G1 X85.981 Y177.421 E8.3603
G1 X85.974 Y174.885 E8.41428
G1 X85.896 Y172.35 E8.46827
G1 X85.747 Y169.819 E8.52224
G1 X85.523 Y167.27 E8.57671
G1 X85.233 Y164.776 E8.63015
G1 X84.863 Y162.223 E8.68507
G1 X84.436 Y159.771 E8.73805
G1 X83.921 Y157.234 E8.79315
G1 X83.354 Y154.798 E8.84639
G1 X82.709 Y152.343 E8.90042
G1 X81.985 Y149.877 E8.95513
G1 X81.197 Y147.448 E9.00949
G1 X80.36 Y145.094 E9.06267
G1 X79.42 Y142.673 E9.11795
G1 X78.575 Y140.646 E9.1647
G1 X78.194 Y139.564 E9.18912
G1 X78.047 Y139.057 E9.20035
G1 X77.835 Y138.181 E9.21954
G1 X77.744 Y137.643 E9.23115
G1 X77.671 Y137.124 E9.24231
G1 X77.577 Y136.03 E9.26568
G1 X77.565 Y135.65 E9.27378
G1 X77.574 Y134.791 E9.29206
G1 X77.589 Y134.508 E9.2981
G1 X77.659 Y133.74 E9.31451
G1 X77.701 Y133.416 E9.32147
G1 X77.851 Y132.553 E9.34011
G1 X78.265 Y130.684 E9.38086
G1 X78.767 Y128.237 E9.43403
G1 X79.212 Y125.715 E9.48855
G1 X79.579 Y123.218 E9.54227
G1 X79.88 Y120.668 E9.59693
G1 X80.105 Y118.161 E9.65051
G1 X80.26 Y115.634 E9.7044
G1 X80.345 Y113.065 E9.75911
G1 X80.355 Y110.53 E9.81308
G1 X80.295 Y107.992 E9.86712
G1 X80.164 Y105.459 E9.92111
G1 X79.959 Y102.925 E9.97522
G1 X79.686 Y100.414 E10.02899
G1 X79.338 Y97.886 E10.08331
G1 X78.917 Y95.36 E10.13782
G1 X78.435 Y92.899 E10.1912
G1 X77.879 Y90.437 E10.24493
G1 X77.239 Y87.922 E10.30017
G1 X76.551 Y85.514 E10.35348
G1 X75.787 Y83.103 E10.40732
G1 X74.625 Y79.813 E10.48159
G1 X74.45 Y79.344 E10.49224
G1 X74.205 Y78.602 E10.50888
G1 X74.046 Y78.052 E10.52106
G1 X73.834 Y77.175 E10.54027
G1 X73.745 Y76.648 E10.55165
G1 X73.673 Y76.137 E10.56263
G1 X73.576 Y74.909 E10.58885
G1 X73.567 Y74.428 E10.59909
G1 X73.59 Y73.527 E10.61828
G1 X73.642 Y72.987 E10.62983
G1 X73.726 Y72.31 E10.64435
G1 X73.877 Y71.421 E10.66354
G1 X74.108 Y70.542 E10.68289
G1 X74.281 Y69.986 E10.69528
G1 X74.614 Y69.072 E10.71599
G1 X74.745 Y68.76 E10.72319
G1 X75.149 Y67.911 E10.74321
G1 X75.38 Y67.478 E10.75365
G1 X75.984 Y66.486 E10.77838
G1 X76.176 Y66.208 E10.78557
G1 X76.721 Y65.49 E10.80476
G1 X77.071 Y65.09 E10.81607
G1 X77.516 Y64.608 E10.83003
G1 X78.343 Y63.809 E10.85451
G1 X78.584 Y63.601 E10.86129
G1 X79.291 Y63.043 E10.88046
G1 X79.711 Y62.741 E10.89147
G1 X80.465 Y62.248 E10.91065
G1 X81.052 Y61.926 E10.9249
G1 X81.441 Y61.729 E10.93418
G1 X82.189 Y61.388 E10.95168
G1 X82.659 Y61.196 E10.96249
G1 X83.823 Y60.8 E10.98866
G1 X84.145 Y60.712 E10.99577
G1 X85.336 Y60.462 E11.02167
G1 X85.924 Y60.375 E11.03432
G1 X86.938 Y60.277 E11.05601
G1 X87.217 Y60.264 E11.06195
G1 X88.058 Y60.26 E11.07986
G1 X88.306 Y60.269 E11.08514
G1 X88.961 Y60.314 E11.09911
G0 F6000 X88.993 Y59.995
G1 F1200 X89.408 Y60.037 E11.10799
G1 X90.314 Y60.169 E11.12748
G1 X90.825 Y60.28 E11.13861
G1 X91.34 Y60.405 E11.14989
G1 X92.523 Y60.767 E11.17623
G1 X93.141 Y60.997 E11.19027
G1 X93.469 Y61.125 E11.19776
G1 X95.595 Y61.999 E11.24669
G1 X97.976 Y62.913 E11.30098
G1 X100.354 Y63.747 E11.35462
G1 X102.775 Y64.521 E11.40873
G1 X105.178 Y65.217 E11.46198
G1 X107.655 Y65.857 E11.51644
G1 X110.123 Y66.422 E11.57033
G1 X112.631 Y66.923 E11.62477
G1 X115.082 Y67.338 E11.67769
G1 X117.622 Y67.696 E11.73229
G1 X120.121 Y67.976 E11.78582
G1 X122.629 Y68.187 E11.83939
G1 X125.174 Y68.327 E11.89365
G1 X127.693 Y68.395 E11.94729
G1 X130.246 Y68.391 E12.00163
G1 X132.761 Y68.316 E12.05519
G1 X135.286 Y68.17 E12.10903
G1 X137.822 Y67.951 E12.16321
G1 X140.317 Y67.664 E12.21667
G1 X142.845 Y67.3 E12.27104
G1 X145.309 Y66.875 E12.32427
G1 X147.812 Y66.37 E12.37862
G1 X150.276 Y65.799 E12.43246
G1 X152.716 Y65.16 E12.48615
G1 X155.139 Y64.453 E12.53988
G1 X157.571 Y63.667 E12.59428
G1 X160.963 Y62.449 E12.671
G1 X161.901 Y62.161 E12.69189
G1 X162.244 Y62.073 E12.69943
G1 X163.575 Y61.822 E12.72826
G1 X163.91 Y61.781 E12.73544
G1 X164.823 Y61.709 E12.75494
G1 X165.671 Y61.714 E12.77299
G1 X166.379 Y61.747 E12.78808
G1 X167.291 Y61.83 E12.80757
G1 X168.182 Y61.99 E12.82684
G1 X168.423 Y62.044 E12.8321
G1 X169.308 Y62.283 E12.85161
G1 X169.547 Y62.359 E12.85695
G1 X170.271 Y62.619 E12.87332
G1 X170.483 Y62.704 E12.87818
G1 X171.419 Y63.134 E12.90011
G1 X171.692 Y63.276 E12.90666
G1 X172.485 Y63.733 E12.92614
G1 X172.944 Y64.042 E12.93792
G1 X173.363 Y64.341 E12.94888
G1 X174.373 Y65.161 E12.97657
G1 X174.524 Y65.3 E12.98094
G1 X175.383 Y66.191 E13.00729
G1 X175.575 Y66.415 E13.01357
G1 X176.044 Y67.003 E13.02958
G1 X176.274 Y67.314 E13.03781
G1 X176.909 Y68.28 E13.06242
G1 X177.02 Y68.471 E13.06712
G1 X177.532 Y69.473 E13.09107
G1 X177.634 Y69.702 E13.09641
G1 X178.083 Y70.901 E13.12366
G1 X178.382 Y71.895 E13.14576
G1 X179.02 Y74.242 E13.19753
G1 X179.747 Y76.648 E13.25103
G1 X180.542 Y79.029 E13.30447
G1 X181.426 Y81.448 E13.35929
G1 X182.347 Y83.764 E13.41234
G1 X183.351 Y86.095 E13.46637
G1 X184.424 Y88.403 E13.52055
G1 X185.561 Y90.678 E13.57468
G1 X186.746 Y92.892 E13.62814
G1 X188.007 Y95.095 E13.68217
G1 X189.311 Y97.228 E13.73539
G1 X190.702 Y99.369 E13.78974
G1 X192.151 Y101.465 E13.84398
G1 X193.651 Y103.509 E13.89795
G1 X195.198 Y105.497 E13.95157
G1 X196.821 Y107.465 E14.00587
G1 X198.471 Y109.353 E14.05924
G1 X200.19 Y111.213 E14.11315
G1 X201.967 Y113.03 E14.16725
G1 X203.763 Y114.765 E14.22041
G1 X205.66 Y116.496 E14.27507
G1 X207.576 Y118.147 E14.32891
G1 X209.559 Y119.762 E14.38335
G1 X211.532 Y121.277 E14.4363
G1 X213.594 Y122.768 E14.49047
G1 X215.835 Y124.294 E14.54818
G1 X216.77 Y124.914 E14.57206
G1 X217.144 Y125.174 E14.58176
G1 X217.361 Y125.332 E14.58747
G1 X218.176 Y125.99 E14.60977
G1 X218.402 Y126.192 E14.61622
G1 X219.171 Y126.955 E14.63928
G1 X219.382 Y127.187 E14.64595
G1 X219.968 Y127.89 E14.66544
G1 X220.321 Y128.383 E14.67834
G1 X220.612 Y128.815 E14.68943
G1 X221.09 Y129.596 E14.70892
G1 X221.322 Y130.041 E14.7196
G1 X221.419 Y130.238 E14.72428
G1 X221.718 Y130.902 E14.73978
G1 X221.812 Y131.132 E14.74507
G1 X222.13 Y132.022 E14.76519
G1 X222.196 Y132.237 E14.76997
G1 X222.424 Y133.114 E14.78926
G1 X222.492 Y133.431 E14.79616
G1 X222.645 Y134.334 E14.81566
G1 X222.706 Y134.999 E14.82987
G1 X222.731 Y135.414 E14.83872
G1 X222.727 Y136.733 E14.8668
G1 X222.7 Y137.143 E14.87555
G1 X222.6 Y138.053 E14.89503
G1 X222.492 Y138.641 E14.90776
G1 X222.403 Y139.058 E14.91684
G1 X222.144 Y140.038 E14.93841
G1 X222.06 Y140.303 E14.94433
G1 X221.746 Y141.162 E14.9638
G1 X221.522 Y141.662 E14.97546
G1 X221.296 Y142.134 E14.9866
G1 X221.122 Y142.482 E14.99488
G1 X220.974 Y142.764 E15.00166
G1 X219.822 Y145.041 E15.05598
G1 X218.749 Y147.319 E15.10958
G1 X217.73 Y149.652 E15.16378
G1 X216.774 Y152.023 E15.21819
G1 X215.894 Y154.393 E15.27201
G1 X215.087 Y156.775 E15.32554
G1 X214.345 Y159.182 E15.37916
G1 X213.668 Y161.626 E15.43314
G1 X213.049 Y164.128 E15.48801
G1 X212.522 Y166.567 E15.54112
G1 X212.054 Y169.055 E15.59501
G1 X211.657 Y171.562 E15.64904
G1 X211.33 Y174.078 E15.70305
G1 X211.078 Y176.574 E15.75645
G1 X210.894 Y179.117 E15.81072
