;FLAVOR:Marlin
;TIME:2213
;Filament used: 2.32066m
;Layer height: 0.2
;MINX:74.581
;MINY:60.621
;MINZ:0.16
;MAXX:217.411
;MAXY:204.394
;MAXZ:7.96
;Generated with Cura_SteamEngine 4.6.1
M140 S60
M105
M190 S60
M104 S210
M105
M109 S210
M82 ;absolute extrusion mode
M201 X500.00 Y500.00 Z100.00 E5000.00 ;Setup machine max acceleration
M203 X500.00 Y500.00 Z10.00 E50.00 ;Setup machine max feedrate
M204 P500.00 R1000.00 T500.00 ;Setup Print/Retract/Travel acceleration
M205 X8.00 Y8.00 Z0.40 E5.00 ;Setup Jerk
M220 S100 ;Reset Feedrate
M221 S100 ;Reset Flowrate

G28 ;Home

G92 E0 ;Reset Extruder
G1 Z2.0 F3000 ;Move Z Axis up
G1 X10.1 Y20 Z0.28 F5000.0 ;Move to start position
G1 X10.1 Y200.0 Z0.28 F1500.0 E15 ;Draw the first line
G1 X10.4 Y200.0 Z0.28 F5000.0 ;Move to side a little
G1 X10.4 Y20 Z0.28 F1500.0 E30 ;Draw the second line
G92 E0 ;Reset Extruder
G1 Z2.0 F3000 ;Move Z Axis up

G92 E0
G92 E0
G1 F2700 E-5
;LAYER_COUNT:40
;LAYER:0
M107
G0 F6000 X89.136 Y61.399 Z0.16
;TYPE:SKIRT
G1 F2700 E0
G1 F1200 X89.634 Y61.483 E0.01075
G1 X90.515 Y61.672 E0.02993
G1 X91.447 Y61.964 E0.05072
G1 X91.673 Y62.047 E0.05585
G1 X92.88 Y62.582 E0.08395
G1 X93.117 Y62.706 E0.08964
G1 X94.269 Y63.409 E0.11837
G1 X95.421 Y64.223 E0.1484
G1 X96.752 Y65.152 E0.18295
G1 X98.899 Y66.575 E0.23778
G1 X101.024 Y67.899 E0.29107
G1 X103.23 Y69.187 E0.34545
G1 X105.478 Y70.419 E0.40001
G1 X107.719 Y71.563 E0.45357
G1 X110.016 Y72.656 E0.50772
G1 X112.348 Y73.685 E0.56198
G1 X114.677 Y74.636 E0.61553
G1 X117.071 Y75.535 E0.66996
G1 X119.487 Y76.365 E0.72434
G1 X121.919 Y77.125 E0.77858
G1 X124.341 Y77.806 E0.83214
G1 X126.823 Y78.43 E0.88661
G1 X129.284 Y78.974 E0.94026
G1 X131.815 Y79.459 E0.99512
G1 X134.301 Y79.863 E1.04873
G1 X136.812 Y80.199 E1.10266
G1 X139.326 Y80.464 E1.15647
G1 X141.898 Y80.66 E1.21138
G1 X144.408 Y80.781 E1.26487
G1 X146.943 Y80.831 E1.31884
G1 X149.514 Y80.809 E1.37357
G1 X152.024 Y80.717 E1.42703
G1 X154.571 Y80.552 E1.48136
G1 X157.114 Y80.313 E1.53573
G1 X159.61 Y80.008 E1.58926
G1 X162.163 Y79.622 E1.64422
G1 X164.62 Y79.18 E1.69736
G1 X167.097 Y78.661 E1.75123
G1 X169.592 Y78.065 E1.80584
G1 X172.054 Y77.402 E1.86011
G1 X174.481 Y76.674 E1.91405
G1 X176.899 Y75.874 E1.96826
G1 X179.289 Y75.008 E2.02238
G1 X181.65 Y74.074 E2.07642
G1 X183.982 Y73.076 E2.13042
G1 X186.286 Y72.012 E2.18444
G1 X188.562 Y70.882 E2.23853
G1 X190.825 Y69.677 E2.2931
G1 X192.997 Y68.44 E2.34631
G1 X195.18 Y67.113 E2.40069
G1 X197.351 Y65.709 E2.45573
G1 X198.781 Y64.736 E2.49254
G1 X199.59 Y64.174 E2.51351
G1 X200.353 Y63.693 E2.53271
G1 X201.004 Y63.352 E2.54836
G1 X201.23 Y63.244 E2.55369
G1 X202.06 Y62.892 E2.57288
G1 X202.918 Y62.615 E2.59207
G1 X203.796 Y62.414 E2.61124
G1 X204.678 Y62.294 E2.63019
G1 X204.949 Y62.269 E2.63598
G1 X205.849 Y62.226 E2.65516
G1 X206.75 Y62.263 E2.67436
G1 X207.67 Y62.385 E2.69411
G1 X207.877 Y62.422 E2.69859
G1 X208.756 Y62.619 E2.71776
G1 X209.614 Y62.894 E2.73694
G1 X210.269 Y63.163 E2.75202
G1 X210.413 Y63.228 E2.75538
G1 X211.217 Y63.635 E2.77456
G1 X211.982 Y64.111 E2.79374
G1 X212.76 Y64.702 E2.81454
G1 X212.964 Y64.873 E2.8202
G1 X213.628 Y65.482 E2.83938
G1 X214.236 Y66.147 E2.85856
G1 X214.782 Y66.864 E2.87775
G1 X215.372 Y67.822 E2.9017
G1 X215.516 Y68.088 E2.90814
G1 X215.909 Y68.899 E2.92732
G1 X216.229 Y69.742 E2.94651
G1 X216.474 Y70.609 E2.96569
G1 X216.64 Y71.495 E2.98488
G1 X216.705 Y72.072 E2.99724
G1 X216.735 Y72.428 E3.00484
G1 X216.771 Y73.328 E3.02402
G1 X216.727 Y74.229 E3.04322
G1 X216.603 Y75.122 E3.06241
G1 X216.326 Y76.254 E3.08722
G1 X216.244 Y76.522 E3.09318
G1 X215.862 Y77.564 E3.11681
G1 X214.754 Y80.14 E3.1765
G1 X213.788 Y82.573 E3.23222
G1 X212.951 Y84.883 E3.28452
G1 X212.152 Y87.29 E3.33851
G1 X211.407 Y89.769 E3.39361
G1 X210.751 Y92.196 E3.44712
G1 X210.157 Y94.672 E3.50132
G1 X209.629 Y97.174 E3.55576
G1 X209.185 Y99.64 E3.60909
G1 X208.801 Y102.168 E3.66352
G1 X208.488 Y104.702 E3.71787
G1 X208.251 Y107.219 E3.77169
G1 X208.084 Y109.748 E3.82564
G1 X207.989 Y112.284 E3.87966
G1 X207.964 Y114.857 E3.93443
G1 X208.012 Y117.362 E3.98776
G1 X208.132 Y119.917 E4.04221
G1 X208.325 Y122.461 E4.09652
G1 X208.585 Y124.958 E4.14996
G1 X208.925 Y127.514 E4.20485
G1 X209.325 Y129.989 E4.25821
G1 X209.802 Y132.49 E4.31241
G1 X210.441 Y135.369 E4.37519
G1 X210.564 Y136.024 E4.38937
G1 X210.604 Y136.284 E4.39497
G1 X210.701 Y137.18 E4.41416
G1 X210.719 Y138.081 E4.43334
G1 X210.606 Y139.358 E4.46063
G1 X210.569 Y139.601 E4.46586
G1 X210.394 Y140.486 E4.48506
G1 X210.141 Y141.351 E4.50425
G1 X209.813 Y142.19 E4.52342
G1 X209.522 Y142.792 E4.53766
G1 X209.394 Y143.036 E4.54352
G1 X208.94 Y143.815 E4.56272
G1 X208.554 Y144.376 E4.57721
G1 X208.374 Y144.623 E4.58372
G1 X207.114 Y146.283 E4.62808
G1 X206.729 Y146.771 E4.64131
G1 X205.51 Y148.268 E4.6824
G1 X205.106 Y148.745 E4.69571
G1 X203.892 Y150.136 E4.73501
G1 X202.259 Y152.062 E4.78876
G1 X200.65 Y154.072 E4.84357
G1 X199.13 Y156.085 E4.89726
G1 X197.665 Y158.142 E4.95102
G1 X196.245 Y160.262 E5.00533
G1 X194.883 Y162.426 E5.05976
G1 X193.6 Y164.598 E5.11346
G1 X192.366 Y166.828 E5.16771
G1 X191.195 Y169.092 E5.22197
G1 X190.094 Y171.378 E5.27598
G1 X189.053 Y173.707 E5.33028
G1 X188.174 Y175.82 E5.379
G1 X187.863 Y176.598 E5.39683
G1 X187.492 Y177.42 E5.41603
G1 X186.902 Y178.433 E5.44098
G1 X186.718 Y178.711 E5.44808
G1 X186.348 Y179.234 E5.46172
G1 X185.331 Y180.578 E5.49759
G1 X185.111 Y180.859 E5.50519
G1 X183.977 Y182.253 E5.54344
G1 X183.747 Y182.525 E5.55102
G1 X182.642 Y183.79 E5.58678
G1 X182.408 Y184.049 E5.59421
G1 X181.165 Y185.377 E5.63293
G1 X180.91 Y185.639 E5.64071
G1 X179.698 Y186.844 E5.67709
G1 X179.453 Y187.08 E5.68433
G1 X178.186 Y188.258 E5.72116
G1 X177.915 Y188.501 E5.7289
G1 X176.566 Y189.668 E5.76687
G1 X176.294 Y189.895 E5.77442
G1 X174.97 Y190.962 E5.81061
G1 X174.697 Y191.174 E5.81797
G1 X173.294 Y192.228 E5.85532
G1 X173.007 Y192.437 E5.86288
G1 X171.577 Y193.435 E5.9
G1 X171.274 Y193.638 E5.90776
G1 X169.814 Y194.581 E5.94476
G1 X169.522 Y194.762 E5.95207
G1 X168.026 Y195.658 E5.98919
G1 X167.714 Y195.838 E5.99686
G1 X166.166 Y196.692 E6.03449
G1 X165.851 Y196.859 E6.04208
G1 X164.306 Y197.642 E6.07895
G1 X163.981 Y197.799 E6.08664
G1 X162.378 Y198.541 E6.12424
G1 X162.059 Y198.682 E6.13166
G1 X160.452 Y199.36 E6.16879
G1 X160.128 Y199.49 E6.17622
G1 X158.523 Y200.103 E6.21279
G1 X158.181 Y200.227 E6.22053
G1 X156.506 Y200.799 E6.25821
G1 X156.17 Y200.907 E6.26572
G1 X154.494 Y201.415 E6.303
G1 X154.162 Y201.51 E6.31035
G1 X152.491 Y201.955 E6.34716
G1 X152.145 Y202.04 E6.35475
G1 X150.443 Y202.43 E6.39192
G1 X150.083 Y202.506 E6.39975
G1 X148.379 Y202.832 E6.43668
G1 X148.039 Y202.891 E6.44402
G1 X146.318 Y203.16 E6.4811
G1 X145.96 Y203.21 E6.4888
G1 X144.203 Y203.421 E6.52647
G1 X143.856 Y203.456 E6.53389
G1 X142.11 Y203.605 E6.57119
G1 X141.756 Y203.629 E6.57874
G1 X140.066 Y203.714 E6.61476
G1 X139.716 Y203.726 E6.62222
G1 X137.934 Y203.754 E6.66015
G1 X137.571 Y203.753 E6.66788
G1 X135.816 Y203.718 E6.70525
G1 X135.467 Y203.705 E6.71268
G1 X133.758 Y203.612 E6.74911
G1 X133.406 Y203.587 E6.75663
G1 X131.637 Y203.429 E6.79443
G1 X131.279 Y203.39 E6.8021
G1 X129.586 Y203.178 E6.83842
G1 X129.237 Y203.128 E6.84592
G1 X127.5 Y202.849 E6.88337
G1 X127.157 Y202.788 E6.89079
G1 X125.427 Y202.449 E6.92831
G1 X125.077 Y202.374 E6.93593
G1 X123.402 Y201.984 E6.97254
G1 X123.056 Y201.897 E6.98013
G1 X121.346 Y201.435 E7.01784
G1 X121.006 Y201.337 E7.02537
G1 X119.343 Y200.825 E7.06241
G1 X119.002 Y200.713 E7.07005
G1 X117.348 Y200.139 E7.10732
G1 X117.015 Y200.018 E7.11486
G1 X115.419 Y199.401 E7.15128
G1 X115.098 Y199.27 E7.15866
G1 X113.482 Y198.581 E7.19606
G1 X113.15 Y198.432 E7.2038
G1 X111.565 Y197.688 E7.24108
G1 X111.254 Y197.536 E7.24844
G1 X109.667 Y196.724 E7.28639
G1 X109.35 Y196.554 E7.29405
G1 X107.871 Y195.73 E7.33009
G1 X107.557 Y195.548 E7.33781
G1 X106.018 Y194.617 E7.3761
G1 X105.725 Y194.433 E7.38347
G1 X104.292 Y193.498 E7.41989
G1 X104.001 Y193.301 E7.42737
G1 X102.587 Y192.307 E7.46416
G1 X102.304 Y192.101 E7.47161
G1 X100.908 Y191.046 E7.50886
G1 X100.62 Y190.82 E7.51665
G1 X99.249 Y189.704 E7.55428
G1 X98.984 Y189.48 E7.56167
G1 X97.659 Y188.324 E7.5991
G1 X97.388 Y188.079 E7.60687
G1 X96.132 Y186.901 E7.64353
G1 X95.88 Y186.657 E7.651
G1 X94.643 Y185.414 E7.68832
G1 X94.401 Y185.162 E7.69576
G1 X93.251 Y183.924 E7.73173
G1 X93.029 Y183.677 E7.7388
G1 X92.441 Y182.995 E7.75797
G1 X91.946 Y182.394 E7.77454
G1 X90.906 Y181.093 E7.81
G1 X90.132 Y180.156 E7.83587
G1 X89.749 Y179.662 E7.84917
G1 X89.624 Y179.49 E7.8537
G1 X88.952 Y178.434 E7.88034
G1 X88.785 Y178.132 E7.88769
G1 X88.27 Y177.055 E7.9131
G1 X88.181 Y176.837 E7.91811
G1 X87.877 Y175.988 E7.93731
G1 X87.706 Y175.362 E7.95112
G1 X87.644 Y175.103 E7.95679
G1 X87.473 Y174.218 E7.97598
G1 X87.4 Y173.582 E7.9896
G1 X87.374 Y173.27 E7.99627
G1 X87.339 Y172.369 E8.01546
G1 X87.362 Y171.748 E8.02869
G1 X87.379 Y171.494 E8.03411
G1 X87.541 Y170.243 E8.06096
G1 X87.661 Y169.632 E8.07421
G1 X88.224 Y166.989 E8.13174
G1 X88.676 Y164.522 E8.18513
G1 X89.069 Y161.976 E8.23996
G1 X89.382 Y159.483 E8.29345
G1 X89.632 Y156.908 E8.34852
G1 X89.802 Y154.416 E8.40169
G1 X89.905 Y151.847 E8.45641
G1 X89.935 Y149.343 E8.50972
G1 X89.892 Y146.771 E8.56448
G1 X89.778 Y144.232 E8.61858
G1 X89.592 Y141.688 E8.67287
G1 X89.453 Y140.235 E8.70395
G1 X89.341 Y139.149 E8.72718
G1 X89.291 Y138.373 E8.74374
G1 X89.283 Y138.064 E8.75032
G1 X89.321 Y136.886 E8.77541
G1 X89.369 Y136.373 E8.78637
G1 X89.588 Y134.266 E8.83147
G1 X89.782 Y131.717 E8.88588
G1 X89.902 Y129.161 E8.94035
G1 X89.95 Y126.657 E8.99366
G1 X89.925 Y124.084 E9.04843
G1 X89.83 Y121.548 E9.10245
G1 X89.663 Y119.019 E9.1564
G1 X89.426 Y116.502 E9.21022
G1 X89.114 Y113.972 E9.26448
G1 X88.728 Y111.434 E9.31913
G1 X88.283 Y108.973 E9.37236
G1 X87.756 Y106.468 E9.42685
G1 X87.17 Y104.025 E9.48033
G1 X86.494 Y101.524 E9.53548
G1 X85.768 Y99.108 E9.58918
G1 X84.975 Y96.718 E9.64278
G1 X84.099 Y94.308 E9.69737
G1 X83.157 Y91.931 E9.75179
G1 X82.173 Y89.64 E9.80487
G1 X81.086 Y87.291 E9.85996
G1 X79.97 Y85.049 E9.91327
G1 X78.782 Y82.823 E9.96698
G1 X76.854 Y79.492 E10.04891
G1 X76.533 Y78.892 E10.06339
G1 X76.402 Y78.626 E10.06971
G1 X76.04 Y77.8 E10.0889
G1 X75.696 Y76.74 E10.11263
G1 X75.59 Y76.34 E10.12143
G1 X75.398 Y75.459 E10.14063
G1 X75.306 Y74.79 E10.155
G1 X75.274 Y74.483 E10.16157
G1 X75.22 Y73.584 E10.18074
G1 X75.242 Y72.749 E10.19852
G1 X75.259 Y72.496 E10.20392
G1 X75.423 Y71.237 E10.23095
G1 X75.48 Y70.944 E10.2373
G1 X75.691 Y70.068 E10.25648
G1 X76.076 Y68.974 E10.28117
G1 X76.287 Y68.468 E10.29284
G1 X76.67 Y67.652 E10.31203
G1 X77.276 Y66.645 E10.33704
G1 X77.412 Y66.446 E10.34218
G1 X78.241 Y65.39 E10.37075
G1 X78.382 Y65.233 E10.37525
G1 X79.08 Y64.528 E10.39636
G1 X79.293 Y64.333 E10.40251
G1 X79.985 Y63.755 E10.4217
G1 X80.484 Y63.397 E10.43478
G1 X80.652 Y63.284 E10.43909
G1 X81.557 Y62.741 E10.46155
G1 X81.734 Y62.647 E10.46582
G1 X82.848 Y62.139 E10.49188
G1 X83.196 Y62.005 E10.49982
G1 X84.051 Y61.718 E10.51902
G1 X84.927 Y61.509 E10.53819
G1 X85.684 Y61.393 E10.55449
G1 X86.283 Y61.324 E10.56732
G1 X87.182 Y61.26 E10.58651
G1 X88.084 Y61.277 E10.60571
G1 X89.136 Y61.399 E10.62826
G1 F2700 E5.62826
G0 F6000 X200.866 Y63.063
G1 F2700 E10.62826
G1 F1200 X201.092 Y62.955 E10.63359
G1 X201.935 Y62.597 E10.65308
G1 X202.805 Y62.314 E10.67256
G1 X203.697 Y62.107 E10.69205
G1 X204.648 Y61.975 E10.71249
G1 X204.919 Y61.95 E10.71828
G1 X205.834 Y61.906 E10.73778
G1 X206.748 Y61.942 E10.75725
G1 X207.726 Y62.07 E10.77825
G1 X207.933 Y62.107 E10.78272
G1 X208.826 Y62.307 E10.8022
G1 X209.699 Y62.584 E10.8217
G1 X210.401 Y62.871 E10.83784
G1 X210.545 Y62.936 E10.8412
G1 X211.362 Y63.349 E10.86069
G1 X212.14 Y63.831 E10.88017
G1 X212.965 Y64.456 E10.9022
G1 X213.169 Y64.627 E10.90787
G1 X213.845 Y65.246 E10.92738
G1 X214.463 Y65.92 E10.94685
G1 X215.021 Y66.646 E10.96634
G1 X215.653 Y67.67 E10.99195
G1 X215.797 Y67.936 E10.99839
G1 X216.197 Y68.759 E11.01787
G1 X216.524 Y69.614 E11.03736
G1 X216.775 Y70.495 E11.05686
G1 X216.948 Y71.393 E11.07632
G1 X217.024 Y72.045 E11.09029
G1 X217.054 Y72.401 E11.0979
G1 X217.091 Y73.316 E11.11739
G1 X217.048 Y74.23 E11.13687
G1 X216.925 Y75.137 E11.15635
G1 X216.632 Y76.347 E11.18285
G1 X216.55 Y76.615 E11.18882
G1 X216.156 Y77.69 E11.21319
G1 X215.046 Y80.271 E11.273
G1 X214.094 Y82.67 E11.32794
G1 X213.256 Y84.98 E11.38025
G1 X212.449 Y87.414 E11.43483
G1 X211.718 Y89.843 E11.48883
G1 X211.061 Y92.277 E11.54249
G1 X210.469 Y94.744 E11.5965
G1 X209.945 Y97.228 E11.65054
G1 X209.498 Y99.71 E11.70422
G1 X209.117 Y102.215 E11.75815
G1 X208.81 Y104.703 E11.81152
G1 X208.567 Y107.273 E11.86647
G1 X208.404 Y109.746 E11.91922
G1 X208.309 Y112.299 E11.9736
G1 X208.284 Y114.854 E12.02799
G1 X208.332 Y117.376 E12.08169
G1 X208.45 Y119.879 E12.13503
G1 X208.642 Y122.404 E12.18893
G1 X208.907 Y124.953 E12.24348
G1 X209.239 Y127.456 E12.29723
G1 X209.643 Y129.948 E12.35097
G1 X210.116 Y132.43 E12.40475
G1 X210.753 Y135.3 E12.46733
G1 X210.88 Y135.975 E12.48195
G1 X210.92 Y136.235 E12.48755
G1 X211.02 Y137.145 E12.50704
G1 X211.039 Y138.061 E12.52654
G1 X210.923 Y139.407 E12.5553
G1 X210.886 Y139.65 E12.56053
G1 X210.708 Y140.548 E12.58002
G1 X210.454 Y141.427 E12.59949
G1 X210.123 Y142.28 E12.61897
G1 X209.806 Y142.94 E12.63456
G1 X209.678 Y143.184 E12.64042
G1 X209.217 Y143.976 E12.65993
G1 X208.938 Y144.389 E12.67054
G1 X208.629 Y144.816 E12.68176
G1 X207.366 Y146.481 E12.72624
G1 X206.977 Y146.973 E12.73959
G1 X205.754 Y148.474 E12.78081
G1 X205.347 Y148.955 E12.79422
G1 X204.163 Y150.312 E12.83256
G1 X202.492 Y152.281 E12.88753
G1 X200.929 Y154.234 E12.94077
G1 X199.386 Y156.278 E12.99529
G1 X197.92 Y158.337 E13.04909
G1 X196.51 Y160.441 E13.10301
G1 X195.151 Y162.6 E13.15731
G1 X193.884 Y164.746 E13.21036
G1 X192.643 Y166.986 E13.26487
G1 X191.481 Y169.235 E13.31875
G1 X190.388 Y171.505 E13.37238
G1 X189.355 Y173.816 E13.42627
G1 X188.449 Y175.994 E13.47648
G1 X188.16 Y176.717 E13.49306
G1 X187.784 Y177.551 E13.51253
G1 X187.169 Y178.609 E13.53858
G1 X186.985 Y178.887 E13.54568
G1 X186.603 Y179.427 E13.55976
G1 X185.586 Y180.771 E13.59563
G1 X185.359 Y181.06 E13.60345
G1 X184.225 Y182.454 E13.64171
G1 X183.988 Y182.735 E13.64953
G1 X182.883 Y184 E13.68529
G1 X182.641 Y184.268 E13.69297
G1 X181.398 Y185.596 E13.73169
G1 X181.136 Y185.866 E13.7397
G1 X179.924 Y187.071 E13.77608
G1 X179.671 Y187.314 E13.78355
G1 X178.404 Y188.492 E13.82037
G1 X178.125 Y188.743 E13.82836
G1 X176.776 Y189.91 E13.86633
G1 X176.495 Y190.144 E13.87411
G1 X175.171 Y191.211 E13.91031
G1 X174.89 Y191.43 E13.91789
G1 X173.487 Y192.484 E13.95525
G1 X173.19 Y192.699 E13.96305
G1 X171.76 Y193.697 E14.00017
G1 X171.448 Y193.906 E14.00817
G1 X169.988 Y194.849 E14.04516
G1 X169.687 Y195.037 E14.05272
G1 X168.191 Y195.933 E14.08984
G1 X167.868 Y196.118 E14.09776
G1 X166.32 Y196.972 E14.13539
G1 X165.996 Y197.144 E14.1432
G1 X164.451 Y197.927 E14.18007
G1 X164.115 Y198.09 E14.18802
G1 X162.512 Y198.832 E14.22562
G1 X162.184 Y198.977 E14.23326
G1 X160.577 Y199.655 E14.27038
G1 X160.242 Y199.789 E14.27806
G1 X158.637 Y200.402 E14.31464
G1 X158.285 Y200.53 E14.32261
G1 X156.61 Y201.102 E14.36028
G1 X156.263 Y201.213 E14.36804
G1 X154.587 Y201.721 E14.40532
G1 X154.244 Y201.819 E14.41291
G1 X152.573 Y202.264 E14.44972
G1 X152.217 Y202.352 E14.45753
G1 X150.515 Y202.742 E14.4947
G1 X150.143 Y202.82 E14.50279
G1 X148.439 Y203.146 E14.53972
G1 X148.088 Y203.207 E14.5473
G1 X146.367 Y203.476 E14.58438
G1 X145.999 Y203.527 E14.59229
G1 X144.242 Y203.738 E14.62996
G1 X143.883 Y203.775 E14.63764
G1 X142.137 Y203.924 E14.67494
G1 X141.772 Y203.949 E14.68273
G1 X140.082 Y204.034 E14.71875
G1 X139.721 Y204.046 E14.72644
G1 X137.939 Y204.074 E14.76437
G1 X137.565 Y204.073 E14.77234
G1 X135.81 Y204.038 E14.8097
G1 X135.45 Y204.025 E14.81737
G1 X133.741 Y203.932 E14.8538
G1 X133.378 Y203.905 E14.86155
G1 X131.609 Y203.747 E14.89935
G1 X131.239 Y203.708 E14.90727
G1 X129.546 Y203.496 E14.94359
G1 X129.186 Y203.444 E14.95134
G1 X127.449 Y203.165 E14.98879
