;FLAVOR:Marlin
;TIME:4781
;Filament used: 3.92848m
;Layer height: 0.2
;MINX:94.1
;MINY:104.1
;MINZ:0.16
;MAXX:205.9
;MAXY:195.9
;MAXZ:4.96
;Generated with Cura_SteamEngine 4.6.1
M140 S50
M105
M190 S50
M104 S200
M105
M109 S200
M82 ;absolute extrusion mode
M201 X500.00 Y500.00 Z100.00 E5000.00 ;Setup machine max acceleration
M203 X500.00 Y500.00 Z10.00 E50.00 ;Setup machine max feedrate
M204 P500.00 R1000.00 T500.00 ;Setup Print/Retract/Travel acceleration
M205 X8.00 Y8.00 Z0.40 E5.00 ;Setup Jerk
M220 S100 ;Reset Feedrate
M221 S100 ;Reset Flowrate

G28 ;Home

G92 E0 ;Reset Extruder
G1 Z2.0 F3000 ;Move Z Axis up
G1 X10.1 Y20 Z0.28 F5000.0 ;Move to start position
G1 X10.1 Y200.0 Z0.28 F1500.0 E15 ;Draw the first line
G1 X10.4 Y200.0 Z0.28 F5000.0 ;Move to side a little
G1 X10.4 Y20 Z0.28 F1500.0 E30 ;Draw the second line
G92 E0 ;Reset Extruder
G1 Z2.0 F3000 ;Move Z Axis up

G92 E0
G92 E0
G1 F2700 E-5
;LAYER_COUNT:25
;LAYER:0
M107
G0 F6000 X145.128 Y104.831 Z0.16
;TYPE:SKIRT
G1 F2700 E0
G1 F1200 X146.029 Y104.884 E0.02161
G1 X146.921 Y105.017 E0.04321
G1 X147.798 Y105.228 E0.06481
G1 X148.653 Y105.516 E0.08642
G1 X149.338 Y105.81 E0.10427
G1 X150.352 Y106.292 E0.13115
G1 X199.057 Y130.535 E1.43401
G1 X199.631 Y130.83 E1.44946
G1 X200.415 Y131.277 E1.47107
G1 X201.155 Y131.792 E1.49266
G1 X201.848 Y132.371 E1.51429
G1 X202.486 Y133.009 E1.5359
G1 X203.065 Y133.701 E1.5575
G1 X203.581 Y134.441 E1.57911
G1 X204.029 Y135.224 E1.60071
G1 X204.406 Y136.044 E1.62232
G1 X204.709 Y136.894 E1.64393
G1 X204.935 Y137.767 E1.66553
G1 X205.084 Y138.657 E1.68714
G1 X205.155 Y139.623 E1.71033
G1 X205.18 Y140.741 E1.73711
G1 X205.179 Y184.404 E2.78272
G1 X205.169 Y185.131 E2.80013
G1 X205.117 Y186.032 E2.82175
G1 X204.985 Y186.924 E2.84334
G1 X204.774 Y187.802 E2.86496
G1 X204.487 Y188.657 E2.88656
G1 X204.125 Y189.483 E2.90816
G1 X203.692 Y190.274 E2.92975
G1 X203.19 Y191.024 E2.95137
G1 X202.623 Y191.726 E2.97298
G1 X201.997 Y192.376 E2.99459
G1 X201.316 Y192.967 E3.01618
G1 X200.584 Y193.496 E3.03781
G1 X199.809 Y193.958 E3.05941
G1 X198.997 Y194.349 E3.081
G1 X198.152 Y194.667 E3.10262
G1 X197.283 Y194.909 E3.12422
G1 X196.396 Y195.073 E3.14582
G1 X195.276 Y195.167 E3.17274
G1 X194.67 Y195.18 E3.18725
G1 X170.562 Y195.179 E3.76457
G1 X169.861 Y195.169 E3.78136
G1 X168.96 Y195.116 E3.80298
G1 X168.068 Y194.984 E3.82457
G1 X167.19 Y194.773 E3.84619
G1 X166.335 Y194.485 E3.8678
G1 X165.509 Y194.123 E3.8894
G1 X164.718 Y193.689 E3.911
G1 X163.969 Y193.187 E3.93259
G1 X163.267 Y192.62 E3.9542
G1 X162.618 Y191.993 E3.97581
G1 X162.027 Y191.311 E3.99742
G1 X161.424 Y190.465 E4.0223
G1 X160.961 Y189.74 E4.0429
G1 X159.517 Y187.538 E4.10596
G1 X158.063 Y185.456 E4.16678
G1 X156.567 Y183.434 E4.22701
G1 X154.978 Y181.41 E4.28863
G1 X153.357 Y179.464 E4.34928
G1 X151.687 Y177.569 E4.40977
G1 X149.937 Y175.693 E4.47121
G1 X148.173 Y173.905 E4.53136
G1 X146.337 Y172.148 E4.59221
G1 X144.433 Y170.425 E4.6537
G1 X142.524 Y168.795 E4.71382
G1 X140.538 Y167.191 E4.77495
G1 X138.516 Y165.654 E4.83577
G1 X136.419 Y164.149 E4.89759
G1 X134.348 Y162.75 E4.95744
G1 X132.206 Y161.391 E5.01818
G1 X130.023 Y160.09 E5.07904
G1 X127.787 Y158.842 E5.14036
G1 X125.559 Y157.68 E5.20054
G1 X123.252 Y156.559 E5.26196
G1 X120.955 Y155.521 E5.32232
G1 X118.578 Y154.527 E5.38402
G1 X116.227 Y153.623 E5.44434
G1 X113.844 Y152.783 E5.50485
G1 X111.414 Y152.001 E5.56598
G1 X108.97 Y151.291 E5.62693
G1 X106.521 Y150.654 E5.68753
G1 X104.003 Y150.074 E5.7494
G1 X102.855 Y149.825 E5.77754
G1 X101.983 Y149.595 E5.79913
G1 X101.134 Y149.289 E5.82074
G1 X100.316 Y148.909 E5.84234
G1 X99.534 Y148.458 E5.86396
G1 X98.796 Y147.939 E5.88557
G1 X98.106 Y147.357 E5.90718
G1 X97.471 Y146.717 E5.92877
G1 X96.895 Y146.023 E5.95037
G1 X96.382 Y145.28 E5.97199
G1 X95.938 Y144.495 E5.99359
G1 X95.564 Y143.674 E6.01519
G1 X95.265 Y142.823 E6.0368
G1 X95.042 Y141.948 E6.05842
G1 X94.898 Y141.058 E6.08001
G1 X94.833 Y140.151 E6.10178
G1 X94.82 Y139.543 E6.11635
G1 X94.821 Y115.55 E6.69092
G1 X94.831 Y114.861 E6.70742
G1 X94.884 Y113.961 E6.72901
G1 X95.017 Y113.068 E6.75063
G1 X95.228 Y112.191 E6.77223
G1 X95.516 Y111.336 E6.79383
G1 X95.878 Y110.51 E6.81543
G1 X96.312 Y109.719 E6.83704
G1 X96.815 Y108.97 E6.85864
G1 X97.382 Y108.268 E6.88025
G1 X98.009 Y107.619 E6.90186
G1 X98.691 Y107.028 E6.92347
G1 X99.422 Y106.5 E6.94507
G1 X100.197 Y106.038 E6.96667
G1 X101.01 Y105.648 E6.98827
G1 X101.855 Y105.33 E7.00989
G1 X102.724 Y105.089 E7.03148
G1 X103.612 Y104.925 E7.05311
G1 X104.724 Y104.833 E7.07983
G1 X105.33 Y104.82 E7.09435
G1 X144.441 Y104.821 E8.03095
G1 X145.128 Y104.831 E8.0474
G0 F6000 X145.133 Y104.471
G1 F1200 X146.05 Y104.524 E8.0694
G1 X146.958 Y104.657 E8.09137
G1 X147.852 Y104.869 E8.11338
G1 X148.723 Y105.157 E8.13535
G1 X149.492 Y105.485 E8.15537
G1 X150.512 Y105.97 E8.18241
G1 X199.222 Y130.215 E9.48539
G1 X199.796 Y130.51 E9.50085
G1 X200.593 Y130.964 E9.52281
G1 X201.348 Y131.487 E9.54481
G1 X202.055 Y132.073 E9.5668
G1 X202.708 Y132.718 E9.58878
G1 X203.302 Y133.418 E9.61076
G1 X203.833 Y134.167 E9.63275
G1 X204.297 Y134.959 E9.65473
G1 X204.69 Y135.789 E9.67672
G1 X205.009 Y136.65 E9.69871
G1 X205.253 Y137.535 E9.7207
G1 X205.418 Y138.438 E9.74268
G1 X205.515 Y139.614 E9.77094
G1 X205.54 Y140.741 E9.79793
G1 X205.539 Y184.409 E10.84366
G1 X205.529 Y185.136 E10.86107
G1 X205.476 Y186.052 E10.88305
G1 X205.344 Y186.961 E10.90504
G1 X205.134 Y187.855 E10.92703
G1 X204.846 Y188.726 E10.949
G1 X204.483 Y189.57 E10.971
G1 X204.049 Y190.379 E10.99299
G1 X203.546 Y191.146 E11.01495
G1 X202.978 Y191.868 E11.03695
G1 X202.349 Y192.537 E11.05894
G1 X201.665 Y193.148 E11.08091
G1 X200.929 Y193.698 E11.10291
G1 X200.149 Y194.182 E11.12489
G1 X199.33 Y194.596 E11.14687
G1 X198.478 Y194.937 E11.16884
G1 X197.599 Y195.203 E11.19084
G1 X196.7 Y195.391 E11.21283
G1 X195.789 Y195.501 E11.23481
G1 X195.286 Y195.527 E11.24687
G1 X194.67 Y195.54 E11.26162
G1 X170.557 Y195.539 E11.83906
G1 X169.856 Y195.529 E11.85585
G1 X168.939 Y195.476 E11.87785
G1 X168.031 Y195.343 E11.89982
G1 X167.137 Y195.132 E11.92182
G1 X166.266 Y194.844 E11.94379
G1 X165.422 Y194.481 E11.96579
G1 X164.614 Y194.046 E11.98777
G1 X163.846 Y193.543 E12.00975
G1 X163.125 Y192.974 E12.03175
G1 X162.457 Y192.345 E12.05372
G1 X161.845 Y191.66 E12.07572
G1 X161.12 Y190.659 E12.10532
G1 X160.644 Y189.913 E12.12651
G1 X159.22 Y187.743 E12.18866
G1 X157.783 Y185.685 E12.24877
G1 X156.252 Y183.616 E12.31041
G1 X154.706 Y181.646 E12.37038
G1 X153.081 Y179.695 E12.43118
G1 X151.425 Y177.816 E12.49116
G1 X149.673 Y175.937 E12.55268
G1 X147.922 Y174.163 E12.61237
G1 X146.084 Y172.403 E12.67331
G1 X144.212 Y170.71 E12.73376
G1 X142.281 Y169.06 E12.79458
G1 X140.31 Y167.469 E12.85524
G1 X138.288 Y165.932 E12.91606
G1 X136.264 Y164.48 E12.97571
G1 X134.128 Y163.038 E13.03743
G1 X132.003 Y161.689 E13.09771
G1 X129.838 Y160.399 E13.15806
G1 X127.643 Y159.174 E13.21825
G1 X125.382 Y157.995 E13.27932
G1 X123.094 Y156.882 E13.34025
G1 X120.814 Y155.852 E13.40016
G1 X118.444 Y154.861 E13.46168
G1 X116.092 Y153.957 E13.52202
G1 X113.75 Y153.13 E13.5815
G1 X111.307 Y152.345 E13.64295
G1 X108.892 Y151.643 E13.70317
G1 X106.412 Y150.998 E13.76454
G1 X103.861 Y150.41 E13.82723
G1 X102.779 Y150.176 E13.85374
G1 X101.891 Y149.943 E13.87573
G1 X101.027 Y149.634 E13.8977
G1 X100.193 Y149.25 E13.91969
G1 X99.395 Y148.796 E13.94167
G1 X98.64 Y148.273 E13.96367
G1 X97.934 Y147.687 E13.98564
G1 X97.281 Y147.042 E14.00762
G1 X96.686 Y146.342 E14.02962
G1 X96.155 Y145.593 E14.05161
G1 X95.691 Y144.801 E14.07359
G1 X95.298 Y143.972 E14.09556
G1 X94.978 Y143.111 E14.11755
G1 X94.735 Y142.226 E14.13953
G1 X94.569 Y141.323 E14.16152
G1 X94.473 Y140.161 E14.18944
G1 X94.46 Y139.543 E14.20424
G1 X94.461 Y115.545 E14.77893
G1 X94.471 Y114.856 E14.79543
G1 X94.524 Y113.94 E14.8174
G1 X94.657 Y113.031 E14.8394
G1 X94.869 Y112.138 E14.86138
G1 X95.157 Y111.266 E14.88338
G1 X95.52 Y110.423 E14.90535
G1 X95.955 Y109.615 E14.92733
G1 X96.459 Y108.847 E14.94933
G1 X97.027 Y108.126 E14.97131
G1 X97.657 Y107.458 E14.9933
G1 X98.342 Y106.847 E15.01528
G1 X99.077 Y106.297 E15.03726
G1 X99.858 Y105.814 E15.05925
G1 X100.677 Y105.401 E15.08122
G1 X101.53 Y105.06 E15.10322
G1 X102.409 Y104.795 E15.1252
G1 X103.308 Y104.607 E15.1472
G1 X104.219 Y104.499 E15.16917
G1 X104.714 Y104.473 E15.18104
G1 X105.33 Y104.46 E15.19579
G1 X144.446 Y104.461 E16.13251
G1 X145.133 Y104.471 E16.14897
G0 F6000 X145.139 Y104.111
G1 F1200 X146.071 Y104.165 E16.17132
G1 X146.995 Y104.298 E16.19368
G1 X147.904 Y104.51 E16.21603
G1 X148.792 Y104.798 E16.23839
G1 X149.646 Y105.159 E16.26059
G1 X150.673 Y105.648 E16.28783
G1 X199.386 Y129.894 E17.59088
G1 X199.96 Y130.189 E17.60634
G1 X200.772 Y130.651 E17.62871
G1 X201.541 Y131.181 E17.65108
G1 X202.261 Y131.774 E17.67341
G1 X202.928 Y132.427 E17.69577
G1 X203.537 Y133.135 E17.71813
G1 X204.083 Y133.892 E17.74048
G1 X204.563 Y134.693 E17.76285
G1 X204.972 Y135.533 E17.78522
G1 X205.308 Y136.404 E17.80757
G1 X205.567 Y137.301 E17.82993
G1 X205.75 Y138.216 E17.85228
G1 X205.874 Y139.604 E17.88565
G1 X205.9 Y140.741 E17.91289
G1 X205.899 Y184.414 E18.95874
G1 X205.889 Y185.141 E18.97615
G1 X205.836 Y186.073 E18.9985
G1 X205.704 Y186.997 E19.02085
G1 X205.493 Y187.907 E19.04322
G1 X205.205 Y188.795 E19.06558
G1 X204.842 Y189.655 E19.08793
G1 X204.407 Y190.481 E19.11029
G1 X203.902 Y191.266 E19.13264
G1 X203.333 Y192.006 E19.155
G1 X202.702 Y192.694 E19.17735
G1 X202.014 Y193.326 E19.19972
G1 X201.275 Y193.896 E19.22207
G1 X200.49 Y194.402 E19.24444
G1 X199.665 Y194.838 E19.26679
G1 X198.805 Y195.202 E19.28915
G1 X197.917 Y195.491 E19.31151
G1 X197.008 Y195.703 E19.33386
G1 X196.084 Y195.836 E19.35622
G1 X195.296 Y195.887 E19.37513
G1 X194.67 Y195.9 E19.39012
G1 X170.552 Y195.899 E19.96768
G1 X169.851 Y195.889 E19.98447
G1 X168.918 Y195.836 E20.00685
G1 X167.994 Y195.703 E20.02921
G1 X167.085 Y195.491 E20.05156
G1 X166.197 Y195.203 E20.07392
G1 X165.337 Y194.839 E20.09628
G1 X164.511 Y194.404 E20.11863
G1 X163.726 Y193.899 E20.14099
G1 X162.987 Y193.329 E20.16334
G1 X162.299 Y192.698 E20.18569
G1 X161.668 Y192.01 E20.20805
G1 X161.097 Y191.271 E20.23041
G1 X160.817 Y190.852 E20.24248
G1 X160.363 Y190.141 E20.26268
G1 X158.923 Y187.947 E20.32553
G1 X157.487 Y185.889 E20.38562
G1 X155.968 Y183.836 E20.44678
G1 X154.434 Y181.882 E20.50627
G1 X152.805 Y179.926 E20.56723
G1 X151.146 Y178.045 E20.62729
G1 X149.442 Y176.217 E20.68714
G1 X147.653 Y174.404 E20.74813
G1 X145.848 Y172.675 E20.80799
G1 X143.957 Y170.965 E20.86904
G1 X142.055 Y169.341 E20.92893
G1 X140.087 Y167.752 E20.98951
G1 X138.094 Y166.236 E21.04947
G1 X136.028 Y164.755 E21.11035
G1 X133.95 Y163.351 E21.1704
G1 X131.842 Y162.013 E21.23019
G1 X129.653 Y160.708 E21.29122
G1 X127.453 Y159.481 E21.35155
G1 X125.219 Y158.316 E21.41188
G1 X122.935 Y157.205 E21.4727
G1 X120.66 Y156.178 E21.53248
G1 X118.322 Y155.199 E21.59318
G1 X115.989 Y154.303 E21.65303
G1 X113.59 Y153.457 E21.71394
G1 X111.209 Y152.691 E21.77384
G1 X108.795 Y151.989 E21.83404
G1 X106.353 Y151.354 E21.89447
G1 X103.774 Y150.76 E21.95784
G1 X102.703 Y150.528 E21.98409
G1 X101.8 Y150.292 E22.00644
G1 X100.92 Y149.979 E22.0288
G1 X100.07 Y149.592 E22.05117
G1 X99.257 Y149.134 E22.07352
G1 X98.486 Y148.608 E22.09587
G1 X97.763 Y148.017 E22.11823
G1 X97.092 Y147.367 E22.1406
G1 X96.48 Y146.663 E22.16294
G1 X95.931 Y145.908 E22.18529
G1 X95.448 Y145.109 E22.20765
G1 X95.035 Y144.271 E22.23002
G1 X94.695 Y143.402 E22.25237
G1 X94.431 Y142.506 E22.27474
G1 X94.245 Y141.592 E22.29708
G1 X94.138 Y140.664 E22.31945
G1 X94.113 Y140.17 E22.33129
G1 X94.1 Y139.543 E22.34631
G1 X94.101 Y115.54 E22.92112
G1 X94.111 Y114.851 E22.93762
G1 X94.165 Y113.919 E22.95997
G1 X94.298 Y112.995 E22.98233
G1 X94.509 Y112.085 E23.0047
G1 X94.798 Y111.198 E23.02704
G1 X95.162 Y110.338 E23.0494
G1 X95.598 Y109.512 E23.07177
G1 X96.102 Y108.727 E23.09411
G1 X96.673 Y107.988 E23.11647
G1 X97.304 Y107.3 E23.13883
G1 X97.992 Y106.669 E23.16119
G1 X98.732 Y106.099 E23.18356
G1 X99.517 Y105.594 E23.20591
G1 X100.343 Y105.159 E23.22826
G1 X101.203 Y104.796 E23.25062
G1 X102.091 Y104.507 E23.27298
G1 X103 Y104.296 E23.29533
G1 X103.924 Y104.163 E23.31768
G1 X104.704 Y104.113 E23.3364
G1 X105.33 Y104.1 E23.35139
G1 X144.452 Y104.101 E24.28826
G1 X145.139 Y104.111 E24.30471
G1 F2700 E19.30471
;MESH:bottom.stl
G0 F6000 X144.87 Y114.335
G0 X144.87 Y115.559
G0 X112.675 Y122.519
;TYPE:WALL-INNER
G1 F2700 E24.30471
G1 F1200 X113.305 Y122.257 E24.32105
G1 X113.844 Y121.844 E24.33731
G1 X114.257 Y121.305 E24.35358
G1 X114.519 Y120.675 E24.36992
G1 X114.608 Y120 E24.38622
G1 X114.519 Y119.325 E24.40252
G1 X114.257 Y118.695 E24.41886
G1 X113.844 Y118.156 E24.43512
G1 X113.305 Y117.743 E24.45139
G1 X112.675 Y117.481 E24.46772
G1 X112 Y117.392 E24.48403
G1 X111.325 Y117.481 E24.50033
G1 X110.695 Y117.743 E24.51667
G1 X110.156 Y118.156 E24.53293
G1 X109.743 Y118.695 E24.5492
G1 X109.481 Y119.325 E24.56553
G1 X109.392 Y120 E24.58184
G1 X109.481 Y120.675 E24.59814
G1 X109.743 Y121.305 E24.61448
G1 X110.156 Y121.844 E24.63074
G1 X110.695 Y122.257 E24.647
G1 X111.325 Y122.519 E24.66334
G1 X112 Y122.608 E24.67965
G1 X112.675 Y122.519 E24.69595
G0 F6000 X112.581 Y122.168
G1 F1200 X113.123 Y121.943 E24.71001
G1 X113.587 Y121.587 E24.72401
G1 X113.943 Y121.123 E24.73802
G1 X114.168 Y120.581 E24.75207
G1 X114.245 Y120 E24.76611
G1 X114.168 Y119.419 E24.78014
G1 X113.943 Y118.877 E24.79419
G1 X113.587 Y118.413 E24.8082
G1 X113.123 Y118.057 E24.8222
G1 X112.581 Y117.832 E24.83626
G1 X112 Y117.755 E24.85029
G1 X111.419 Y117.832 E24.86433
G1 X110.877 Y118.057 E24.87838
G1 X110.413 Y118.413 E24.89239
G1 X110.057 Y118.877 E24.90639
G1 X109.832 Y119.419 E24.92044
G1 X109.755 Y120 E24.93448
G1 X109.832 Y120.581 E24.94851
G1 X110.057 Y121.123 E24.96257
G1 X110.413 Y121.587 E24.97657
G1 X110.877 Y121.943 E24.99058
G1 X111.419 Y122.168 E25.00463
G1 X112 Y122.245 E25.01867
G1 X112.581 Y122.168 E25.0327
G0 F6000 X112.487 Y121.817
;TYPE:WALL-OUTER
G1 F1200 X112.941 Y121.629 E25.04447
G1 X113.33 Y121.33 E25.05622
G1 X113.629 Y120.941 E25.06797
G1 X113.817 Y120.487 E25.07974
G1 X113.882 Y120 E25.0915
G1 X113.817 Y119.513 E25.10327
G1 X113.629 Y119.059 E25.11503
G1 X113.33 Y118.67 E25.12678
G1 X112.941 Y118.371 E25.13853
G1 X112.487 Y118.183 E25.1503
G1 X112 Y118.118 E25.16207
G1 X111.513 Y118.183 E25.17383
G1 X111.059 Y118.371 E25.1856
G1 X110.67 Y118.67 E25.19735
G1 X110.371 Y119.059 E25.2091
G1 X110.183 Y119.513 E25.22087
G1 X110.118 Y120 E25.23263
G1 X110.183 Y120.487 E25.2444
G1 X110.371 Y120.941 E25.25616
G1 X110.67 Y121.33 E25.26791
G1 X111.059 Y121.629 E25.27966
G1 X111.513 Y121.817 E25.29143
G1 X112 Y121.882 E25.3032
G1 X112.487 Y121.817 E25.31496
G0 F6000 X112.589 Y122.199
G0 X112.606 Y122.264
G0 X114.206 Y129.409
G0 X114.285 Y130
G0 X114.206 Y130.591
G0 X113.977 Y131.143
G0 X113.773 Y131.409
G0 X112.675 Y132.519
;TYPE:WALL-INNER
G1 F1200 X113.305 Y132.257 E25.3313
G1 X113.844 Y131.844 E25.34756
G1 X114.257 Y131.305 E25.36382
G1 X114.519 Y130.675 E25.38016
G1 X114.608 Y130 E25.39647
G1 X114.519 Y129.325 E25.41277
G1 X114.257 Y128.695 E25.42911
G1 X113.844 Y128.156 E25.44537
G1 X113.305 Y127.743 E25.46163
G1 X112.675 Y127.481 E25.47797
G1 X112 Y127.392 E25.49428
G1 X111.325 Y127.481 E25.51058
G1 X110.695 Y127.743 E25.52692
G1 X110.156 Y128.156 E25.54318
G1 X109.743 Y128.695 E25.55944
G1 X109.481 Y129.325 E25.57578
G1 X109.392 Y130 E25.59209
G1 X109.481 Y130.675 E25.60839
G1 X109.743 Y131.305 E25.62473
G1 X110.156 Y131.844 E25.64099
G1 X110.695 Y132.257 E25.65725
G1 X111.325 Y132.519 E25.67359
G1 X112 Y132.608 E25.6899
G1 X112.675 Y132.519 E25.7062
G0 F6000 X112.581 Y132.168
G1 F1200 X113.123 Y131.943 E25.72025
G1 X113.587 Y131.587 E25.73426
G1 X113.943 Y131.123 E25.74826
G1 X114.168 Y130.581 E25.76232
G1 X114.245 Y130 E25.77635
G1 X114.168 Y129.419 E25.79039
G1 X113.943 Y128.877 E25.80444
G1 X113.587 Y128.413 E25.81845
G1 X113.123 Y128.057 E25.83245
G1 X112.581 Y127.832 E25.84651
G1 X112 Y127.755 E25.86054
G1 X111.419 Y127.832 E25.87458
G1 X110.877 Y128.057 E25.88863
