;FLAVOR:Marlin
;TIME:4132
;Filament used: 1.50131m
;Layer height: 0.12
;MINX:98.315
;MINY:113.237
;MINZ:0.12
;MAXX:172.804
;MAXY:186.77
;MAXZ:3.96
;Generated with Cura_SteamEngine 4.6.1
M140 S50
M105
M190 S50
M104 S220
M105
M109 S220
M82 ;absolute extrusion mode
M201 X500.00 Y500.00 Z100.00 E5000.00 ;Setup machine max acceleration
M203 X500.00 Y500.00 Z10.00 E50.00 ;Setup machine max feedrate
M204 P500.00 R1000.00 T500.00 ;Setup Print/Retract/Travel acceleration
M205 X8.00 Y8.00 Z0.40 E5.00 ;Setup Jerk
M220 S100 ;Reset Feedrate
M221 S100 ;Reset Flowrate

G28 ;Home

G92 E0 ;Reset Extruder
G1 Z2.0 F3000 ;Move Z Axis up
G1 X10.1 Y20 Z0.28 F5000.0 ;Move to start position
G1 X10.1 Y200.0 Z0.28 F1500.0 E15 ;Draw the first line
G1 X10.4 Y200.0 Z0.28 F5000.0 ;Move to side a little
G1 X10.4 Y20 Z0.28 F1500.0 E30 ;Draw the second line
G92 E0 ;Reset Extruder
G1 Z2.0 F3000 ;Move Z Axis up

G92 E0
G92 E0
G1 F2700 E-5
;LAYER_COUNT:33
;LAYER:0
M107
G0 F6000 X160.417 Y113.886 Z0.12
;TYPE:SKIRT
G1 F2700 E0
G1 F1200 X161.445 Y113.952 E0.01973
G1 X161.827 Y113.996 E0.0271
G1 X162.717 Y114.138 E0.04437
G1 X163.746 Y114.408 E0.06475
G1 X163.969 Y114.479 E0.06923
G1 X164.815 Y114.79 E0.0865
G1 X165.454 Y115.084 E0.09998
G1 X165.766 Y115.241 E0.10667
G1 X166.552 Y115.682 E0.12393
G1 X167.619 Y116.442 E0.14903
G1 X167.776 Y116.57 E0.15291
G1 X168.76 Y117.487 E0.17868
G1 X168.947 Y117.686 E0.18391
G1 X169.534 Y118.37 E0.20118
G1 X169.942 Y118.928 E0.21442
G1 X170.089 Y119.144 E0.21943
G1 X170.563 Y119.911 E0.2367
G1 X170.87 Y120.502 E0.24946
G1 X171.237 Y121.326 E0.26674
G1 X171.53 Y122.178 E0.284
G1 X171.666 Y122.689 E0.29413
G1 X171.764 Y123.1 E0.30223
G1 X171.934 Y123.986 E0.31951
G1 X172.038 Y125.229 E0.34341
G1 X172.068 Y126.639 E0.37042
G1 X172.076 Y132.738 E0.48727
G1 X172.088 Y134.959 E0.52982
G1 X172.092 Y137.427 E0.5771
G1 X172.087 Y137.855 E0.5853
G1 X172.099 Y139.955 E0.62553
G1 X172.099 Y142.8 E0.68004
G1 X172.111 Y144.957 E0.72136
G1 X172.115 Y147.427 E0.76868
G1 X172.11 Y147.855 E0.77688
G1 X172.122 Y149.955 E0.81711
G1 X172.122 Y152.8 E0.87162
G1 X172.134 Y154.957 E0.91294
G1 X172.134 Y157.8 E0.96741
G1 X172.146 Y159.957 E1.00873
G1 X172.146 Y162.715 E1.06157
G1 X172.161 Y165.08 E1.10688
G1 X172.158 Y165.531 E1.11552
G1 X172.164 Y168.735 E1.1769
G1 X172.161 Y173.818 E1.27428
G1 X172.152 Y174.506 E1.28746
G1 X172.065 Y175.706 E1.31051
G1 X172.018 Y176.061 E1.31737
G1 X171.86 Y176.949 E1.33465
G1 X171.575 Y177.971 E1.35498
G1 X171.477 Y178.262 E1.36086
G1 X171.151 Y179.102 E1.37812
G1 X170.832 Y179.764 E1.3922
G1 X170.71 Y179.995 E1.3972
G1 X170.254 Y180.772 E1.41446
G1 X169.664 Y181.592 E1.43382
G1 X169.517 Y181.776 E1.43833
G1 X168.924 Y182.454 E1.45558
G1 X168.508 Y182.864 E1.46677
G1 X168.33 Y183.03 E1.47144
G1 X167.645 Y183.615 E1.48869
G1 X166.606 Y184.325 E1.5128
G1 X166.202 Y184.566 E1.52182
G1 X165.408 Y184.993 E1.53909
G1 X164.58 Y185.348 E1.55635
G1 X163.389 Y185.715 E1.58022
G1 X162.972 Y185.816 E1.58844
G1 X162.087 Y185.99 E1.60572
G1 X160.808 Y186.099 E1.63031
G1 X159.431 Y186.128 E1.6567
G1 X157.547 Y186.13 E1.69279
G1 X140.119 Y186.121 E2.02667
G1 X139.571 Y186.113 E2.03717
G1 X138.959 Y186.086 E2.04891
G1 X138.639 Y186.062 E2.05506
G1 X138.016 Y185.995 E2.06706
G1 X137.281 Y185.894 E2.08128
G1 X134.621 Y185.566 E2.13262
G1 X132.124 Y185.33 E2.18067
G1 X129.252 Y185.143 E2.23581
G1 X128.556 Y185.109 E2.24916
G1 X125.832 Y185.011 E2.30138
G1 X123.808 Y184.991 E2.34016
G1 X119.622 Y184.997 E2.42035
G1 X115.814 Y184.992 E2.4933
G1 X113.226 Y185.025 E2.54289
G1 X110.729 Y185.13 E2.59077
G1 X110.176 Y185.141 E2.60136
G1 X109.275 Y185.109 E2.61864
G1 X108.381 Y184.997 E2.6359
G1 X107.819 Y184.886 E2.64687
G1 X107.574 Y184.83 E2.65169
G1 X106.705 Y184.59 E2.66896
G1 X105.654 Y184.183 E2.69055
G1 X105.446 Y184.089 E2.69492
G1 X104.642 Y183.682 E2.71219
G1 X103.877 Y183.205 E2.72946
G1 X103.455 Y182.899 E2.73944
G1 X103.293 Y182.775 E2.74335
G1 X102.602 Y182.196 E2.76062
G1 X101.888 Y181.472 E2.7801
G1 X101.747 Y181.314 E2.78416
G1 X101.177 Y180.615 E2.80144
G1 X100.671 Y179.869 E2.81871
G1 X100.332 Y179.272 E2.83186
G1 X100.196 Y179.013 E2.83747
G1 X99.812 Y178.198 E2.85473
G1 X99.503 Y177.351 E2.872
G1 X99.357 Y176.842 E2.88214
G1 X99.282 Y176.553 E2.88786
G1 X99.094 Y175.672 E2.90512
G1 X98.986 Y174.777 E2.92239
G1 X98.965 Y173.582 E2.94529
G1 X99.046 Y171.733 E2.98075
G1 X99.1 Y169.757 E3.01862
G1 X99.12 Y168.518 E3.04236
G1 X99.135 Y168.107 E3.05024
G1 X99.324 Y164.765 E3.11436
G1 X99.426 Y163.794 E3.13307
G1 X99.58 Y162.793 E3.15247
G1 X99.931 Y160.275 E3.20118
G1 X100.21 Y157.749 E3.24986
G1 X100.42 Y155.196 E3.29894
G1 X100.554 Y152.703 E3.34677
G1 X100.621 Y150.126 E3.39615
G1 X100.613 Y147.594 E3.44466
G1 X100.535 Y145.062 E3.49319
G1 X100.383 Y142.516 E3.54206
G1 X100.163 Y140.003 E3.59038
G1 X99.862 Y137.423 E3.64015
G1 X99.62 Y135.702 E3.67344
G1 X99.425 Y134.41 E3.69847
G1 X99.319 Y133.297 E3.71989
G1 X99.274 Y132.137 E3.74213
G1 X99.248 Y131.081 E3.76237
G1 X99.111 Y128.511 E3.81167
G1 X98.995 Y127.04 E3.83994
G1 X98.972 Y126.672 E3.84701
G1 X98.956 Y125.771 E3.86427
G1 X99.019 Y124.871 E3.88156
G1 X99.165 Y123.968 E3.89908
G1 X99.211 Y123.747 E3.9034
G1 X99.434 Y122.873 E3.92068
G1 X99.799 Y121.864 E3.94124
G1 X99.897 Y121.632 E3.94607
G1 X100.284 Y120.818 E3.96333
G1 X100.742 Y120.041 E3.98061
G1 X101.043 Y119.604 E3.99078
G1 X101.185 Y119.409 E3.9954
G1 X101.747 Y118.705 E4.01266
G1 X102.529 Y117.904 E4.0341
G1 X102.711 Y117.737 E4.03883
G1 X103.401 Y117.158 E4.05609
G1 X104.141 Y116.642 E4.07337
G1 X104.922 Y116.193 E4.09063
G1 X105.348 Y115.986 E4.09971
G1 X105.647 Y115.849 E4.10601
G1 X106.482 Y115.511 E4.12326
G1 X107.347 Y115.246 E4.1406
G1 X107.553 Y115.193 E4.14467
G1 X108.435 Y115.008 E4.16194
G1 X109.33 Y114.901 E4.17921
G1 X110.274 Y114.875 E4.1973
G1 X110.861 Y114.889 E4.20855
G1 X112.946 Y114.982 E4.24853
G1 X115.528 Y115.025 E4.298
G1 X116.119 Y115.021 E4.30932
G1 X120.372 Y115.012 E4.3908
G1 X123.788 Y115.015 E4.45625
G1 X126.483 Y114.978 E4.50788
G1 X129.599 Y114.836 E4.56764
G1 X130.287 Y114.795 E4.58084
G1 X130.948 Y114.762 E4.59352
G1 X133.531 Y114.562 E4.64316
G1 X136.041 Y114.296 E4.69151
G1 X137.778 Y114.065 E4.72508
G1 X138.104 Y114.027 E4.73137
G1 X138.601 Y113.982 E4.74093
G1 X139.094 Y113.949 E4.75039
G1 X139.553 Y113.928 E4.7592
G1 X140.013 Y113.92 E4.76801
G1 X142.194 Y113.912 E4.80979
G1 X159.739 Y113.877 E5.14592
G1 X160.417 Y113.886 E5.15891
G0 F6000 X160.421 Y113.566
G1 F1200 X161.481 Y113.634 E5.17926
G1 X161.863 Y113.678 E5.18663
G1 X162.767 Y113.822 E5.20416
G1 X163.843 Y114.103 E5.22547
G1 X164.066 Y114.174 E5.22995
G1 X164.926 Y114.489 E5.2475
G1 X165.598 Y114.798 E5.26167
G1 X165.91 Y114.955 E5.26836
G1 X166.709 Y115.402 E5.2859
G1 X167.821 Y116.194 E5.31205
G1 X167.978 Y116.322 E5.31593
G1 X168.662 Y116.931 E5.33348
G1 X168.993 Y117.268 E5.34253
G1 X169.18 Y117.467 E5.34776
G1 X169.777 Y118.161 E5.3653
G1 X170.207 Y118.748 E5.37924
G1 X170.354 Y118.964 E5.38424
G1 X170.835 Y119.742 E5.40177
G1 X171.064 Y120.173 E5.41112
G1 X171.157 Y120.359 E5.4151
G1 X171.53 Y121.195 E5.43264
G1 X171.829 Y122.06 E5.45017
G1 X171.977 Y122.615 E5.46118
G1 X172.075 Y123.026 E5.46927
G1 X172.248 Y123.925 E5.48681
G1 X172.358 Y125.222 E5.51175
G1 X172.388 Y126.638 E5.53888
G1 X172.396 Y132.74 E5.65578
G1 X172.408 Y134.957 E5.69826
G1 X172.412 Y137.43 E5.74563
G1 X172.407 Y137.857 E5.75381
G1 X172.419 Y139.954 E5.79399
G1 X172.419 Y142.801 E5.84853
G1 X172.431 Y144.955 E5.8898
G1 X172.435 Y147.43 E5.93721
G1 X172.43 Y147.857 E5.94539
G1 X172.442 Y149.954 E5.98557
G1 X172.442 Y152.801 E6.04011
G1 X172.454 Y154.955 E6.08138
G1 X172.454 Y157.801 E6.1359
G1 X172.466 Y159.955 E6.17717
G1 X172.466 Y162.716 E6.23006
G1 X172.481 Y165.082 E6.27539
G1 X172.478 Y165.533 E6.28403
G1 X172.484 Y168.735 E6.34537
G1 X172.481 Y173.822 E6.44283
G1 X172.472 Y174.51 E6.45601
G1 X172.382 Y175.748 E6.47979
G1 X172.335 Y176.103 E6.48665
G1 X172.176 Y177.005 E6.5042
G1 X171.878 Y178.073 E6.52544
G1 X171.78 Y178.364 E6.53132
G1 X171.45 Y179.218 E6.54886
G1 X171.115 Y179.913 E6.56364
G1 X170.993 Y180.144 E6.56865
G1 X170.531 Y180.934 E6.58618
G1 X169.914 Y181.791 E6.60641
G1 X169.767 Y181.975 E6.61092
G1 X169.165 Y182.665 E6.62847
G1 X168.727 Y183.098 E6.64027
G1 X168.549 Y183.264 E6.64493
G1 X167.853 Y183.859 E6.66247
G1 X166.77 Y184.6 E6.68761
G1 X166.366 Y184.841 E6.69662
G1 X165.56 Y185.275 E6.71416
G1 X164.719 Y185.638 E6.73171
G1 X163.464 Y186.026 E6.75688
G1 X163.047 Y186.127 E6.7651
G1 X162.149 Y186.304 E6.78263
G1 X160.815 Y186.419 E6.80828
G1 X159.431 Y186.448 E6.8348
G1 X157.547 Y186.45 E6.8709
G1 X140.114 Y186.441 E7.20487
G1 X139.566 Y186.433 E7.21537
G1 X138.935 Y186.405 E7.22747
G1 X138.615 Y186.381 E7.23362
G1 X137.973 Y186.312 E7.24599
G1 X137.203 Y186.206 E7.26088
G1 X134.625 Y185.889 E7.31064
G1 X132.071 Y185.647 E7.35979
G1 X129.28 Y185.466 E7.41337
G1 X128.456 Y185.425 E7.42918
G1 X125.856 Y185.332 E7.47902
G1 X123.805 Y185.311 E7.51832
G1 X119.622 Y185.317 E7.59845
G1 X115.817 Y185.312 E7.67135
G1 X113.242 Y185.345 E7.72068
G1 X110.742 Y185.45 E7.76862
G1 X110.179 Y185.461 E7.77941
G1 X109.264 Y185.429 E7.79695
G1 X108.355 Y185.318 E7.81449
G1 X107.748 Y185.198 E7.82635
G1 X107.503 Y185.142 E7.83116
G1 X106.62 Y184.899 E7.84871
G1 X105.522 Y184.475 E7.87126
G1 X105.314 Y184.381 E7.87563
G1 X104.497 Y183.968 E7.89317
G1 X103.719 Y183.485 E7.91071
G1 X103.26 Y183.153 E7.92156
G1 X103.098 Y183.029 E7.92547
G1 X102.396 Y182.441 E7.94302
G1 X101.649 Y181.685 E7.96338
G1 X101.508 Y181.527 E7.96743
G1 X100.929 Y180.818 E7.98497
G1 X100.414 Y180.061 E8.00251
G1 X100.048 Y179.421 E8.01663
G1 X99.912 Y179.162 E8.02224
G1 X99.523 Y178.334 E8.03976
G1 X99.207 Y177.475 E8.0573
G1 X99.047 Y176.923 E8.06831
G1 X98.972 Y176.634 E8.07403
G1 X98.781 Y175.738 E8.09158
G1 X98.669 Y174.83 E8.10911
G1 X98.645 Y173.568 E8.13329
G1 X98.727 Y171.707 E8.16898
G1 X98.78 Y169.745 E8.20658
G1 X98.8 Y168.513 E8.23018
G1 X98.816 Y168.089 E8.23831
G1 X99.005 Y164.747 E8.30244
G1 X99.11 Y163.745 E8.32174
G1 X99.256 Y162.797 E8.34012
G1 X99.614 Y160.231 E8.38975
G1 X99.889 Y157.747 E8.43763
G1 X100.099 Y155.188 E8.48682
G1 X100.234 Y152.678 E8.53498
G1 X100.301 Y150.118 E8.58404
G1 X100.293 Y147.605 E8.63218
G1 X100.214 Y145.056 E8.68104
G1 X100.066 Y142.563 E8.72888
G1 X99.844 Y140.033 E8.77754
G1 X99.545 Y137.465 E8.82707
G1 X99.303 Y135.75 E8.86025
G1 X99.108 Y134.458 E8.88528
G1 X98.999 Y133.31 E8.90737
G1 X98.954 Y132.145 E8.92971
G1 X98.927 Y131.071 E8.95029
G1 X98.793 Y128.556 E8.99854
G1 X98.675 Y127.06 E9.02729
G1 X98.652 Y126.692 E9.03435
G1 X98.635 Y125.776 E9.05191
G1 X98.698 Y124.863 E9.06944
G1 X98.852 Y123.902 E9.08808
G1 X98.898 Y123.681 E9.09241
G1 X99.123 Y122.794 E9.10994
G1 X99.504 Y121.739 E9.13143
G1 X99.602 Y121.507 E9.13625
G1 X99.995 Y120.68 E9.1538
G1 X100.458 Y119.891 E9.17132
G1 X100.784 Y119.416 E9.18236
G1 X100.926 Y119.221 E9.18698
G1 X101.497 Y118.505 E9.20453
G1 X102.313 Y117.668 E9.22692
G1 X102.495 Y117.501 E9.23165
G1 X103.195 Y116.912 E9.24918
G1 X103.945 Y116.387 E9.26672
G1 X104.738 Y115.929 E9.28426
G1 X105.215 Y115.695 E9.29444
G1 X105.514 Y115.558 E9.30074
G1 X106.362 Y115.214 E9.31827
G1 X107.268 Y114.937 E9.33642
G1 X107.474 Y114.884 E9.3405
G1 X108.369 Y114.694 E9.35803
G1 X109.278 Y114.584 E9.37557
G1 X110.28 Y114.555 E9.39477
G1 X110.875 Y114.569 E9.40617
G1 X112.966 Y114.662 E9.44627
G1 X115.531 Y114.705 E9.49542
G1 X116.168 Y114.701 E9.50762
G1 X120.372 Y114.692 E9.58816
G1 X123.785 Y114.695 E9.65355
G1 X126.464 Y114.658 E9.70488
G1 X129.624 Y114.514 E9.76548
G1 X130.271 Y114.475 E9.7779
G1 X130.946 Y114.441 E9.79084
G1 X133.47 Y114.246 E9.83934
G1 X136.005 Y113.978 E9.88818
G1 X137.741 Y113.747 E9.92173
G1 X138.067 Y113.709 E9.92802
G1 X138.58 Y113.662 E9.93789
G1 X139.073 Y113.629 E9.94735
G1 X139.546 Y113.608 E9.95642
G1 X140.012 Y113.6 E9.96535
G1 X142.193 Y113.592 E10.00713
G1 X159.743 Y113.557 E10.34336
G1 X160.421 Y113.566 E10.35635
G0 F6000 X160.425 Y113.246
G1 F1200 X161.518 Y113.316 E10.37733
G1 X161.9 Y113.36 E10.38469
G1 X162.818 Y113.506 E10.4025
G1 X163.941 Y113.798 E10.42473
G1 X164.164 Y113.869 E10.42922
G1 X165.036 Y114.189 E10.44701
G1 X165.742 Y114.513 E10.46189
G1 X166.054 Y114.67 E10.46858
G1 X166.865 Y115.123 E10.48638
G1 X167.634 Y115.644 E10.50418
G1 X168.18 Y116.074 E10.51749
G1 X168.875 Y116.692 E10.53531
G1 X169.226 Y117.049 E10.5449
G1 X169.413 Y117.248 E10.55013
G1 X170.02 Y117.952 E10.56794
G1 X170.471 Y118.568 E10.58256
G1 X170.618 Y118.784 E10.58757
G1 X171.108 Y119.574 E10.60538
G1 X171.35 Y120.03 E10.61527
G1 X171.443 Y120.216 E10.61925
G1 X171.822 Y121.064 E10.63705
G1 X172.127 Y121.942 E10.65485
G1 X172.288 Y122.541 E10.66674
G1 X172.386 Y122.952 E10.67483
G1 X172.563 Y123.864 E10.69263
G1 X172.678 Y125.215 E10.71861
G1 X172.708 Y126.637 E10.74585
G1 X172.716 Y132.743 E10.86283
G1 X172.728 Y134.956 E10.90523
G1 X172.732 Y137.434 E10.9527
G1 X172.727 Y137.859 E10.96085
G1 X172.739 Y139.952 E11.00094
G1 X172.739 Y142.803 E11.05556
G1 X172.751 Y144.953 E11.09675
G1 X172.755 Y147.434 E11.14428
G1 X172.75 Y147.859 E11.15243
G1 X172.762 Y149.952 E11.19252
G1 X172.762 Y152.803 E11.24714
G1 X172.774 Y154.953 E11.28833
G1 X172.774 Y157.803 E11.34293
G1 X172.786 Y159.953 E11.38412
G1 X172.786 Y162.716 E11.43706
G1 X172.801 Y165.084 E11.48242
G1 X172.798 Y165.535 E11.49106
G1 X172.804 Y168.734 E11.55235
G1 X172.801 Y173.826 E11.6499
G1 X172.792 Y174.514 E11.66308
G1 X172.7 Y175.79 E11.68759
G1 X172.653 Y176.145 E11.69445
G1 X172.491 Y177.061 E11.71227
G1 X172.181 Y178.175 E11.73442
G1 X172.083 Y178.466 E11.74031
G1 X171.749 Y179.333 E11.75811
G1 X171.398 Y180.063 E11.77363
G1 X171.276 Y180.294 E11.77863
G1 X170.807 Y181.096 E11.79643
G1 X170.164 Y181.991 E11.81754
G1 X170.017 Y182.175 E11.82205
G1 X169.406 Y182.876 E11.83987
G1 X168.945 Y183.332 E11.85229
G1 X168.767 Y183.498 E11.85695
G1 X168.061 Y184.102 E11.87475
G1 X166.934 Y184.875 E11.90093
G1 X166.53 Y185.116 E11.90995
G1 X165.712 Y185.557 E11.92775
G1 X164.859 Y185.927 E11.94556
G1 X163.539 Y186.338 E11.97205
G1 X163.122 Y186.439 E11.98027
G1 X162.211 Y186.618 E11.99806
G1 X161.287 Y186.719 E12.01586
G1 X160.822 Y186.739 E12.02478
G1 X159.431 Y186.768 E12.05143
G1 X157.547 Y186.77 E12.08753
G1 X140.109 Y186.761 E12.4216
G1 X139.561 Y186.753 E12.4321
G1 X138.911 Y186.724 E12.44457
G1 X138.591 Y186.7 E12.45071
G1 X137.929 Y186.63 E12.46347
G1 X137.115 Y186.518 E12.47921
G1 X134.557 Y186.203 E12.52858
G1 X132.055 Y185.967 E12.57673
G1 X129.308 Y185.788 E12.62947
G1 X128.43 Y185.744 E12.64631
G1 X125.841 Y185.651 E12.69594
G1 X123.803 Y185.631 E12.73499
G1 X119.622 Y185.637 E12.81509
G1 X115.822 Y185.632 E12.88789
G1 X113.226 Y185.665 E12.93762
G1 X110.401 Y185.779 E12.99179
G1 X110.182 Y185.781 E12.99598
G1 X109.253 Y185.749 E13.01379
G1 X108.33 Y185.638 E13.0316
G1 X107.676 Y185.509 E13.04437
G1 X107.431 Y185.453 E13.04919
G1 X106.535 Y185.208 E13.06698
G1 X105.39 Y184.767 E13.09049
G1 X105.182 Y184.673 E13.09486
G1 X104.353 Y184.254 E13.11266
G1 X103.562 Y183.765 E13.13047
G1 X103.066 Y183.407 E13.14219
G1 X102.904 Y183.283 E13.1461
G1 X102.191 Y182.687 E13.1639
G1 X101.41 Y181.898 E13.18517
G1 X101.269 Y181.74 E13.18923
G1 X100.681 Y181.021 E13.20702
G1 X100.156 Y180.253 E13.22485
G1 X99.765 Y179.57 E13.23992
G1 X99.629 Y179.311 E13.24553
G1 X99.233 Y178.47 E13.26334
G1 X98.91 Y177.599 E13.28113
G1 X98.737 Y177.003 E13.29302
G1 X98.662 Y176.714 E13.29874
G1 X98.468 Y175.805 E13.31655
G1 X98.352 Y174.883 E13.33435
G1 X98.325 Y173.555 E13.3598
G1 X98.407 Y171.681 E13.39574
G1 X98.46 Y169.73 E13.43313
G1 X98.48 Y168.508 E13.45654
G1 X98.496 Y168.071 E13.46492
G1 X98.685 Y164.729 E13.52905
G1 X98.794 Y163.697 E13.54893
G1 X98.935 Y162.78 E13.5667
G1 X99.292 Y160.222 E13.61618
G1 X99.572 Y157.687 E13.66504
G1 X99.782 Y155.145 E13.71391
G1 X99.916 Y152.653 E13.76172
G1 X99.981 Y150.146 E13.80976
G1 X99.973 Y147.616 E13.85823
G1 X99.895 Y145.084 E13.90676
G1 X99.745 Y142.575 E13.95491
G1 X99.525 Y140.063 E14.00322
G1 X99.227 Y137.502 E14.05262
G1 X98.987 Y135.798 E14.08558
