;FLAVOR:Marlin
;TIME:3770
;Filament used: 1.941m
;Layer height: 0.16
;MINX:67.5
;MINY:101.5
;MINZ:0.2
;MAXX:183.359
;MAXY:202.5
;MAXZ:6
;Generated with Cura_SteamEngine 4.6.1
M140 S50
M105
M190 S50
M104 S200
M105
M109 S200
M82 ;absolute extrusion mode
M201 X500.00 Y500.00 Z100.00 E5000.00 ;Setup machine max acceleration
M203 X500.00 Y500.00 Z10.00 E50.00 ;Setup machine max feedrate
M204 P500.00 R1000.00 T500.00 ;Setup Print/Retract/Travel acceleration
M205 X8.00 Y8.00 Z0.40 E5.00 ;Setup Jerk
M220 S100 ;Reset Feedrate
M221 S100 ;Reset Flowrate

G28 ;Home

G92 E0 ;Reset Extruder
G1 Z2.0 F3000 ;Move Z Axis up
G1 X10.1 Y20 Z0.28 F5000.0 ;Move to start position
G1 X10.1 Y200.0 Z0.28 F1500.0 E15 ;Draw the first line
G1 X10.4 Y200.0 Z0.28 F5000.0 ;Move to side a little
G1 X10.4 Y20 Z0.28 F1500.0 E30 ;Draw the second line
G92 E0 ;Reset Extruder
G1 Z2.0 F3000 ;Move Z Axis up

G92 E0
G92 E0
G1 F2700 E-5
;LAYER_COUNT:42
;LAYER:0
M107
G0 F6000 X105.148 Y102.311 Z0.2
;TYPE:SKIRT
G1 F2700 E0
G1 F1200 X106.05 Y102.364 E0.03005
G1 X106.563 Y102.43 E0.04726
G1 X107.144 Y102.52 E0.06681
G1 X108.03 Y102.698 E0.09687
G1 X108.896 Y102.953 E0.12689
G1 X109.804 Y103.314 E0.15939
G1 X110.024 Y103.414 E0.16743
G1 X110.452 Y103.621 E0.18324
G1 X110.782 Y103.79 E0.19557
G1 X111.567 Y104.237 E0.22562
G1 X112.309 Y104.752 E0.25566
G1 X113.056 Y105.379 E0.2881
G1 X113.52 Y105.813 E0.30923
G1 X115.47 Y107.722 E0.39999
G1 X117.374 Y109.484 E0.48628
G1 X119.273 Y111.143 E0.57015
G1 X121.203 Y112.737 E0.6534
G1 X123.226 Y114.312 E0.73867
G1 X125.294 Y115.831 E0.82402
G1 X127.358 Y117.258 E0.90747
G1 X129.478 Y118.639 E0.99163
G1 X131.687 Y119.988 E1.07772
G1 X133.859 Y121.233 E1.16098
G1 X136.09 Y122.428 E1.24516
G1 X138.358 Y123.562 E1.3295
G1 X140.685 Y124.645 E1.41487
G1 X143.03 Y125.655 E1.49979
G1 X145.387 Y126.595 E1.58419
G1 X147.751 Y127.458 E1.66789
G1 X150.147 Y128.258 E1.7519
G1 X152.604 Y129.001 E1.83728
G1 X155.044 Y129.666 E1.92139
G1 X157.527 Y130.267 E2.00636
G1 X160.028 Y130.798 E2.0914
G1 X162.46 Y131.241 E2.17362
G1 X165.005 Y131.633 E2.25927
G1 X167.546 Y131.95 E2.34444
G1 X170.018 Y132.188 E2.42704
G1 X171.74 Y132.294 E2.48442
G1 X173.117 Y132.398 E2.53035
G1 X174.014 Y132.506 E2.5604
G1 X174.897 Y132.692 E2.59041
G1 X175.761 Y132.957 E2.62047
G1 X176.598 Y133.296 E2.6505
G1 X177.401 Y133.708 E2.68052
G1 X178.165 Y134.19 E2.71057
G1 X178.884 Y134.737 E2.74061
G1 X179.551 Y135.346 E2.77066
G1 X180.162 Y136.011 E2.80069
G1 X180.711 Y136.728 E2.83073
G1 X181.195 Y137.491 E2.86078
G1 X181.609 Y138.293 E2.8908
G1 X181.951 Y139.129 E2.92084
G1 X182.218 Y139.992 E2.95089
G1 X182.407 Y140.875 E2.98092
G1 X182.518 Y141.771 E3.01095
G1 X182.544 Y142.262 E3.0273
G1 X182.559 Y142.9 E3.04853
G1 X182.559 Y157.058 E3.51943
G1 X182.549 Y157.775 E3.54328
G1 X182.496 Y158.677 E3.57333
G1 X182.364 Y159.57 E3.60335
G1 X182.154 Y160.448 E3.63338
G1 X181.866 Y161.305 E3.66345
G1 X181.504 Y162.132 E3.69347
G1 X181.07 Y162.924 E3.72351
G1 X180.568 Y163.675 E3.75356
G1 X180.002 Y164.378 E3.78358
G1 X179.375 Y165.028 E3.81361
G1 X178.693 Y165.621 E3.84367
G1 X177.962 Y166.15 E3.87368
G1 X177.187 Y166.613 E3.90371
G1 X176.373 Y167.006 E3.93377
G1 X175.768 Y167.243 E3.95539
G1 X175.086 Y167.486 E3.97947
G1 X172.642 Y168.391 E4.06615
G1 X170.263 Y169.349 E4.15145
G1 X167.968 Y170.35 E4.23473
G1 X165.624 Y171.452 E4.32087
G1 X163.406 Y172.572 E4.40352
G1 X161.125 Y173.807 E4.48979
G1 X158.95 Y175.065 E4.57336
G1 X156.805 Y176.388 E4.65718
G1 X154.654 Y177.799 E4.74274
G1 X152.569 Y179.256 E4.82734
G1 X150.548 Y180.752 E4.91097
G1 X148.549 Y182.321 E4.9955
G1 X146.595 Y183.948 E5.08007
G1 X144.676 Y185.639 E5.16514
G1 X142.832 Y187.357 E5.24896
G1 X141.01 Y189.158 E5.33417
G1 X139.278 Y190.965 E5.41742
G1 X137.559 Y192.865 E5.50264
G1 X135.904 Y194.803 E5.5874
G1 X134.256 Y196.845 E5.67468
G1 X133.521 Y197.783 E5.71432
G1 X132.933 Y198.469 E5.74437
G1 X132.286 Y199.099 E5.7744
G1 X131.587 Y199.67 E5.80442
G1 X130.839 Y200.177 E5.83448
G1 X130.05 Y200.616 E5.86451
G1 X129.225 Y200.983 E5.89454
G1 X128.37 Y201.275 E5.92459
G1 X127.493 Y201.491 E5.95463
G1 X126.601 Y201.629 E5.98465
G1 X125.84 Y201.683 E6.01003
G1 X125.515 Y201.694 E6.02084
G1 X125.17 Y201.7 E6.03232
G1 X79.075 Y201.699 E7.56544
G1 X78.377 Y201.69 E7.58866
G1 X77.476 Y201.639 E7.61868
G1 X76.582 Y201.507 E7.64873
G1 X75.704 Y201.298 E7.67875
G1 X74.847 Y201.011 E7.70881
G1 X74.02 Y200.65 E7.73882
G1 X73.227 Y200.217 E7.76888
G1 X72.476 Y199.716 E7.7989
G1 X71.772 Y199.15 E7.82895
G1 X71.121 Y198.524 E7.85899
G1 X70.528 Y197.843 E7.88902
G1 X69.998 Y197.112 E7.91905
G1 X69.534 Y196.337 E7.94909
G1 X69.14 Y195.524 E7.97914
G1 X68.82 Y194.68 E8.00916
G1 X68.576 Y193.81 E8.03922
G1 X68.41 Y192.922 E8.06926
G1 X68.313 Y191.767 E8.10781
G1 X68.3 Y191.158 E8.12807
G1 X68.301 Y178.045 E8.56421
G1 X68.311 Y177.348 E8.5874
G1 X68.364 Y176.446 E8.61745
G1 X68.431 Y175.927 E8.63486
G1 X68.521 Y175.348 E8.65435
G1 X68.699 Y174.463 E8.68437
G1 X68.955 Y173.597 E8.71441
G1 X69.32 Y172.683 E8.74714
G1 X69.403 Y172.501 E8.75379
G1 X69.596 Y172.1 E8.76859
G1 X69.777 Y171.745 E8.78185
G1 X70.425 Y170.649 E8.8242
G1 X71.857 Y168.539 E8.90901
G1 X73.245 Y166.374 E8.99455
G1 X74.562 Y164.186 E9.07949
G1 X75.791 Y162.006 E9.16272
G1 X76.989 Y159.732 E9.24821
G1 X78.107 Y157.459 E9.33246
G1 X79.163 Y155.146 E9.41703
G1 X80.139 Y152.838 E9.50037
G1 X81.089 Y150.406 E9.58722
G1 X81.917 Y148.087 E9.66911
G1 X82.723 Y145.615 E9.75559
G1 X83.434 Y143.211 E9.83897
G1 X84.086 Y140.745 E9.92381
G1 X84.665 Y138.279 E10.00806
G1 X85.177 Y135.788 E10.09265
G1 X85.614 Y133.29 E10.17699
G1 X85.986 Y130.751 E10.26234
G1 X86.275 Y128.309 E10.34413
G1 X86.42 Y126.807 E10.39432
G1 X86.509 Y125.833 E10.42685
G1 X86.677 Y123.282 E10.51188
G1 X86.775 Y120.702 E10.59775
G1 X86.8 Y118.618 E10.66707
G1 X86.801 Y115.045 E10.78591
G1 X86.811 Y114.341 E10.80933
G1 X86.864 Y113.44 E10.83935
G1 X86.934 Y112.903 E10.85736
G1 X87.024 Y112.33 E10.87665
G1 X87.203 Y111.445 E10.90668
G1 X87.46 Y110.579 E10.93672
G1 X87.823 Y109.672 E10.96922
G1 X87.919 Y109.462 E10.9769
G1 X88.122 Y109.044 E10.99235
G1 X88.294 Y108.709 E11.00488
G1 X88.742 Y107.925 E11.03491
G1 X89.257 Y107.183 E11.06495
G1 X89.911 Y106.408 E11.09868
G1 X90.177 Y106.123 E11.11165
G1 X90.657 Y105.639 E11.13432
G1 X91.328 Y105.035 E11.16435
G1 X92.051 Y104.493 E11.1944
G1 X92.904 Y103.97 E11.22768
G1 X93.28 Y103.764 E11.24194
G1 X93.787 Y103.502 E11.26092
G1 X94.612 Y103.134 E11.29097
G1 X95.466 Y102.841 E11.321
G1 X96.559 Y102.583 E11.35835
G1 X97.176 Y102.473 E11.37919
G1 X98.071 Y102.354 E11.40922
G1 X98.541 Y102.324 E11.42489
G1 X98.805 Y102.313 E11.43368
G1 X99.127 Y102.305 E11.44439
G1 X99.628 Y102.3 E11.46105
G1 X104.45 Y102.301 E11.62143
G1 X105.148 Y102.311 E11.64465
G0 F6000 X105.154 Y101.911
G1 F1200 X106.073 Y101.964 E11.67527
G1 X106.625 Y102.035 E11.69378
G1 X107.206 Y102.125 E11.71333
G1 X108.108 Y102.305 E11.74393
G1 X108.992 Y102.563 E11.77455
G1 X109.969 Y102.95 E11.80951
G1 X110.189 Y103.05 E11.81754
G1 X110.635 Y103.265 E11.83401
G1 X110.965 Y103.434 E11.84634
G1 X111.765 Y103.889 E11.87695
G1 X112.523 Y104.412 E11.90758
G1 X113.328 Y105.085 E11.94248
G1 X113.8 Y105.527 E11.96399
G1 X115.774 Y107.46 E12.05588
G1 X117.608 Y109.157 E12.13899
G1 X119.525 Y110.832 E12.22366
G1 X121.475 Y112.442 E12.30776
G1 X123.484 Y114.007 E12.39246
G1 X125.496 Y115.484 E12.47548
G1 X127.574 Y116.92 E12.55949
G1 X129.723 Y118.321 E12.64481
G1 X131.873 Y119.633 E12.72859
G1 X134.041 Y120.876 E12.81171
G1 X136.293 Y122.083 E12.89669
G1 X138.554 Y123.214 E12.98077
G1 X140.832 Y124.273 E13.06433
G1 X143.156 Y125.275 E13.1485
G1 X145.536 Y126.223 E13.23371
G1 X147.867 Y127.074 E13.31624
G1 X150.317 Y127.892 E13.40215
G1 X152.687 Y128.609 E13.48451
G1 X155.138 Y129.277 E13.569
G1 X157.599 Y129.872 E13.65321
G1 X160.112 Y130.406 E13.73866
G1 X162.556 Y130.852 E13.82129
G1 X165.084 Y131.24 E13.90636
G1 X167.562 Y131.55 E13.98942
G1 X170.051 Y131.789 E14.07258
G1 X171.77 Y131.895 E14.12987
G1 X173.147 Y131.999 E14.1758
G1 X174.061 Y132.108 E14.20641
G1 X174.963 Y132.296 E14.23706
G1 X175.844 Y132.562 E14.26767
G1 X176.699 Y132.903 E14.29828
G1 X177.522 Y133.317 E14.32892
G1 X178.305 Y133.801 E14.35954
G1 X179.043 Y134.35 E14.39013
G1 X179.731 Y134.962 E14.42076
G1 X180.364 Y135.632 E14.45142
G1 X180.935 Y136.353 E14.48201
G1 X181.442 Y137.122 E14.51264
G1 X181.881 Y137.931 E14.54326
G1 X182.247 Y138.776 E14.57388
G1 X182.539 Y139.649 E14.6045
G1 X182.754 Y140.544 E14.63512
G1 X182.89 Y141.455 E14.66575
G1 X182.944 Y142.25 E14.69225
G1 X182.959 Y142.9 E14.71388
G1 X182.959 Y157.064 E15.18497
G1 X182.949 Y157.781 E15.20882
G1 X182.896 Y158.7 E15.23944
G1 X182.764 Y159.611 E15.27006
G1 X182.553 Y160.507 E15.30067
G1 X182.265 Y161.382 E15.33131
G1 X181.902 Y162.228 E15.36193
G1 X181.468 Y163.039 E15.39253
G1 X180.964 Y163.81 E15.42316
G1 X180.396 Y164.534 E15.45377
G1 X179.766 Y165.206 E15.48441
G1 X179.081 Y165.821 E15.51502
G1 X178.345 Y166.375 E15.54566
G1 X177.564 Y166.862 E15.57628
G1 X176.744 Y167.28 E15.60689
G1 X175.902 Y167.62 E15.63709
G1 X175.21 Y167.866 E15.66152
G1 X172.794 Y168.761 E15.74721
G1 X170.424 Y169.716 E15.8322
G1 X168.12 Y170.721 E15.9158
G1 X165.796 Y171.813 E16.0012
G1 X163.569 Y172.938 E16.08419
G1 X161.363 Y174.132 E16.16762
G1 X159.154 Y175.41 E16.2525
G1 X156.987 Y176.747 E16.33719
G1 X154.896 Y178.118 E16.42035
G1 X152.814 Y179.572 E16.50482
G1 X150.787 Y181.072 E16.58869
G1 X148.785 Y182.645 E16.67337
G1 X146.852 Y184.254 E16.75702
G1 X144.968 Y185.915 E16.84056
G1 X143.086 Y187.669 E16.92612
G1 X141.316 Y189.417 E17.00886
G1 X139.547 Y191.263 E17.0939
G1 X137.861 Y193.127 E17.17749
G1 X136.232 Y195.034 E17.26091
G1 X134.57 Y197.094 E17.34895
G1 X133.836 Y198.03 E17.38851
G1 X133.237 Y198.729 E17.41913
G1 X132.579 Y199.374 E17.44977
G1 X131.869 Y199.959 E17.48037
G1 X131.11 Y200.48 E17.51099
G1 X130.308 Y200.933 E17.54163
G1 X129.471 Y201.315 E17.57223
G1 X128.603 Y201.623 E17.60286
G1 X127.712 Y201.855 E17.63348
G1 X126.804 Y202.008 E17.66411
G1 X125.854 Y202.083 E17.69581
G1 X125.529 Y202.094 E17.70662
G1 X125.17 Y202.1 E17.71856
G1 X79.07 Y202.099 E19.25186
G1 X78.372 Y202.09 E19.27507
G1 X77.453 Y202.038 E19.30569
G1 X76.542 Y201.907 E19.3363
G1 X75.646 Y201.697 E19.36691
G1 X74.771 Y201.41 E19.39754
G1 X73.924 Y201.048 E19.42817
G1 X73.112 Y200.614 E19.4588
G1 X72.341 Y200.112 E19.4894
G1 X71.616 Y199.544 E19.52003
G1 X70.943 Y198.915 E19.55067
G1 X70.328 Y198.231 E19.58126
G1 X69.774 Y197.496 E19.61187
G1 X69.286 Y196.715 E19.6425
G1 X68.867 Y195.895 E19.67313
G1 X68.521 Y195.042 E19.70375
G1 X68.251 Y194.162 E19.73436
G1 X68.058 Y193.261 E19.76501
G1 X67.944 Y192.348 E19.79561
G1 X67.913 Y191.777 E19.81463
G1 X67.9 Y191.158 E19.83522
G1 X67.901 Y178.039 E20.27156
G1 X67.911 Y177.342 E20.29475
G1 X67.964 Y176.423 E20.32537
G1 X68.036 Y175.866 E20.34405
G1 X68.126 Y175.287 E20.36353
G1 X68.307 Y174.384 E20.39417
G1 X68.565 Y173.501 E20.42476
G1 X68.956 Y172.517 E20.45998
G1 X69.039 Y172.335 E20.46663
G1 X69.24 Y171.918 E20.48203
G1 X69.421 Y171.563 E20.49528
G1 X70.094 Y170.424 E20.53928
G1 X71.54 Y168.294 E20.62491
G1 X72.909 Y166.157 E20.70932
G1 X74.198 Y164.016 E20.79244
G1 X75.446 Y161.803 E20.87694
G1 X76.627 Y159.563 E20.96117
G1 X77.748 Y157.281 E21.04573
G1 X78.788 Y155.003 E21.12902
G1 X79.774 Y152.674 E21.21314
G1 X80.711 Y150.274 E21.29883
G1 X81.546 Y147.933 E21.3815
G1 X82.332 Y145.525 E21.46575
G1 X83.051 Y143.091 E21.55016
G1 X83.693 Y140.665 E21.63363
G1 X84.279 Y138.171 E21.71884
G1 X84.784 Y135.71 E21.80239
G1 X85.222 Y133.205 E21.88698
G1 X85.583 Y130.747 E21.96961
G1 X85.872 Y128.309 E22.05126
G1 X86.11 Y125.81 E22.13476
G1 X86.279 Y123.241 E22.22039
G1 X86.375 Y120.712 E22.30456
G1 X86.4 Y118.618 E22.37421
G1 X86.401 Y115.039 E22.49325
G1 X86.411 Y114.335 E22.51667
G1 X86.464 Y113.416 E22.54728
G1 X86.538 Y112.841 E22.56657
G1 X86.628 Y112.268 E22.58586
G1 X86.811 Y111.366 E22.61647
G1 X87.07 Y110.483 E22.64708
G1 X87.46 Y109.506 E22.68206
G1 X87.556 Y109.296 E22.68974
G1 X87.766 Y108.861 E22.70581
G1 X87.938 Y108.526 E22.71834
G1 X88.394 Y107.726 E22.74896
G1 X88.917 Y106.969 E22.77957
G1 X89.619 Y106.135 E22.81582
G1 X89.885 Y105.85 E22.82879
G1 X90.205 Y105.522 E22.84403
G1 X90.376 Y105.354 E22.852
G1 X91.06 Y104.738 E22.88262
G1 X91.795 Y104.183 E22.91325
G1 X92.712 Y103.619 E22.94906
G1 X93.088 Y103.413 E22.96332
G1 X93.609 Y103.144 E22.98282
G1 X94.449 Y102.768 E23.01343
G1 X95.319 Y102.467 E23.04405
G1 X96.489 Y102.19 E23.08404
G1 X97.106 Y102.08 E23.10488
G1 X98.018 Y101.957 E23.13549
G1 X98.525 Y101.924 E23.15239
G1 X98.789 Y101.913 E23.16118
G1 X99.123 Y101.905 E23.17229
G1 X99.628 Y101.9 E23.18909
G1 X104.456 Y101.901 E23.34967
G1 X105.154 Y101.911 E23.37289
G0 F6000 X105.16 Y101.511
G1 F1200 X106.096 Y101.565 E23.40407
G1 X106.686 Y101.64 E23.42385
G1 X107.267 Y101.73 E23.44341
G1 X108.187 Y101.913 E23.4746
G1 X109.088 Y102.173 E23.50579
G1 X110.135 Y102.586 E23.54323
G1 X110.355 Y102.686 E23.55127
G1 X110.817 Y102.909 E23.56833
G1 X111.147 Y103.078 E23.58066
G1 X111.963 Y103.541 E23.61187
G1 X112.736 Y104.071 E23.64304
G1 X113.599 Y104.791 E23.68042
G1 X114.08 Y105.242 E23.70235
G1 X116.025 Y107.146 E23.79288
G1 X117.897 Y108.879 E23.87773
G1 X119.78 Y110.524 E23.96089
G1 X121.73 Y112.134 E24.04499
G1 X123.699 Y113.667 E24.12799
G1 X125.754 Y115.176 E24.21279
G1 X127.797 Y116.589 E24.29541
G1 X129.904 Y117.961 E24.37903
G1 X132.101 Y119.303 E24.46466
G1 X134.223 Y120.519 E24.54601
G1 X136.482 Y121.73 E24.63126
G1 X138.723 Y122.851 E24.7146
G1 X140.994 Y123.907 E24.7979
G1 X143.314 Y124.907 E24.88192
G1 X145.684 Y125.851 E24.96677
G1 X148.025 Y126.706 E25.04967
G1 X150.411 Y127.503 E25.13334
G1 X152.802 Y128.226 E25.21642
G1 X155.265 Y128.897 E25.30132
G1 X157.67 Y129.479 E25.38362
G1 X160.162 Y130.008 E25.46835
G1 X162.658 Y130.463 E25.55274
G1 X165.118 Y130.841 E25.63552
G1 X167.614 Y131.153 E25.71918
G1 X170.059 Y131.388 E25.80088
G1 X171.8 Y131.496 E25.85889
G1 X173.177 Y131.6 E25.90482
G1 X174.109 Y131.711 E25.93604
G1 X175.027 Y131.9 E25.96721
G1 X175.926 Y132.167 E25.99841
G1 X176.799 Y132.51 E26.0296
G1 X177.64 Y132.925 E26.0608
G1 X178.442 Y133.411 E26.09199
G1 X179.2 Y133.963 E26.12317
G1 X179.909 Y134.578 E26.15439
G1 X180.562 Y135.251 E26.18558
G1 X181.155 Y135.977 E26.21676
G1 X181.685 Y136.752 E26.24798
G1 X182.146 Y137.568 E26.27916
G1 X182.537 Y138.421 E26.31037
G1 X182.853 Y139.304 E26.34156
G1 X183.093 Y140.21 E26.37273
G1 X183.255 Y141.134 E26.40393
G1 X183.344 Y142.238 E26.44077
G1 X183.359 Y142.9 E26.4628
G1 X183.359 Y157.069 E26.93406
G1 X183.349 Y157.786 E26.95791
G1 X183.296 Y158.723 E26.98912
G1 X183.163 Y159.651 E27.0203
G1 X182.952 Y160.565 E27.0515
G1 X182.664 Y161.457 E27.08268
G1 X182.3 Y162.322 E27.11389
G1 X181.865 Y163.153 E27.14509
G1 X181.36 Y163.943 E27.17627
G1 X180.79 Y164.688 E27.20747
G1 X180.158 Y165.381 E27.23867
G1 X179.47 Y166.018 E27.26985
G1 X178.73 Y166.594 E27.30104
G1 X177.943 Y167.105 E27.33225
G1 X177.116 Y167.547 E27.36344
G1 X176.036 Y167.997 E27.40236
G1 X175.402 Y168.223 E27.42474
G1 X172.903 Y169.148 E27.51337
G1 X170.597 Y170.077 E27.59606
G1 X168.271 Y171.092 E27.68047
G1 X165.981 Y172.168 E27.76462
G1 X163.747 Y173.296 E27.84786
G1 X161.547 Y174.487 E27.93107
G1 X159.359 Y175.753 E28.01514
G1 X157.22 Y177.073 E28.09874
G1 X155.115 Y178.453 E28.18246
G1 X153.035 Y179.906 E28.26685
G1 X151.027 Y181.392 E28.34993
G1 X149.064 Y182.934 E28.43296
G1 X147.106 Y184.563 E28.51767
G1 X145.203 Y186.241 E28.60206
G1 X143.392 Y187.929 E28.6844
G1 X141.603 Y189.696 E28.76803
G1 X139.849 Y191.526 E28.85234
G1 X138.145 Y193.41 E28.93683
G1 X136.532 Y195.299 E29.01945
G1 X134.912 Y197.307 E29.10526
G1 X134.151 Y198.277 E29.14627
G1 X133.541 Y198.99 E29.17748
G1 X132.873 Y199.648 E29.20866
G1 X132.151 Y200.247 E29.23987
G1 X131.381 Y200.782 E29.27105
G1 X130.568 Y201.249 E29.30224
G1 X129.718 Y201.646 E29.33344
G1 X128.837 Y201.969 E29.36465
G1 X127.933 Y202.216 E29.39582
G1 X127.01 Y202.384 E29.42702
G1 X125.867 Y202.483 E29.46518
G1 X125.542 Y202.494 E29.47599
