;FLAVOR:Marlin
;TIME:3610
;Filament used: 2.10633m
;Layer height: 0.16
;MINX:67.5
;MINY:101.5
;MINZ:0.16
;MAXX:183.388
;MAXY:202.5
;MAXZ:5.96
;Generated with Cura_SteamEngine 4.6.1
M140 S60
M105
M190 S60
M104 S200
M105
M109 S200
M82 ;absolute extrusion mode
M201 X500.00 Y500.00 Z100.00 E5000.00 ;Setup machine max acceleration
M203 X500.00 Y500.00 Z10.00 E50.00 ;Setup machine max feedrate
M204 P500.00 R1000.00 T500.00 ;Setup Print/Retract/Travel acceleration
M205 X8.00 Y8.00 Z0.40 E5.00 ;Setup Jerk
M220 S100 ;Reset Feedrate
M221 S100 ;Reset Flowrate

G28 ;Home

G92 E0 ;Reset Extruder
G1 Z2.0 F3000 ;Move Z Axis up
G1 X10.1 Y20 Z0.28 F5000.0 ;Move to start position
G1 X10.1 Y200.0 Z0.28 F1500.0 E15 ;Draw the first line
G1 X10.4 Y200.0 Z0.28 F5000.0 ;Move to side a little
G1 X10.4 Y20 Z0.28 F1500.0 E30 ;Draw the second line
G92 E0 ;Reset Extruder
G1 Z2.0 F3000 ;Move Z Axis up

G92 E0
G92 E0
G1 F2700 E-5
;LAYER_COUNT:42
;LAYER:0
M107
G0 F6000 X105.062 Y102.31 Z0.16
;TYPE:SKIRT
G1 F2700 E0
G1 F1200 X106.271 Y102.4 E0.04452
G1 X106.925 Y102.488 E0.06875
G1 X107.814 Y102.648 E0.10191
G1 X108.685 Y102.886 E0.13507
G1 X109.621 Y103.238 E0.17179
G1 X109.891 Y103.355 E0.18259
G1 X110.527 Y103.657 E0.20845
G1 X110.832 Y103.815 E0.22106
G1 X111.614 Y104.266 E0.25421
G1 X112.354 Y104.784 E0.28737
G1 X113.165 Y105.477 E0.32655
G1 X113.818 Y106.1 E0.35969
G1 X115.215 Y107.476 E0.43169
G1 X117.076 Y109.21 E0.52509
G1 X118.994 Y110.899 E0.61893
G1 X120.94 Y112.515 E0.71181
G1 X122.951 Y114.093 E0.80567
G1 X124.978 Y115.592 E0.89824
G1 X127.064 Y117.044 E0.99157
G1 X129.19 Y118.439 E1.08494
G1 X131.368 Y119.78 E1.17886
G1 X133.55 Y121.04 E1.27138
G1 X135.795 Y122.254 E1.36509
G1 X138.043 Y123.386 E1.45751
G1 X140.355 Y124.472 E1.5513
G1 X142.68 Y125.484 E1.64441
G1 X145.06 Y126.443 E1.73863
G1 X147.433 Y127.317 E1.83149
G1 X149.818 Y128.122 E1.92392
G1 X152.274 Y128.875 E2.01824
G1 X154.706 Y129.546 E2.11088
G1 X157.191 Y130.157 E2.20485
G1 X159.664 Y130.691 E2.29775
G1 X162.14 Y131.15 E2.39021
G1 X164.663 Y131.547 E2.484
G1 X167.167 Y131.869 E2.5767
G1 X169.731 Y132.125 E2.67131
G1 X172.269 Y132.306 E2.76474
G1 X172.744 Y132.331 E2.78221
G1 X173.088 Y132.355 E2.79487
G1 X173.985 Y132.457 E2.82802
G1 X174.87 Y132.639 E2.8612
G1 X175.735 Y132.898 E2.89435
G1 X176.574 Y133.233 E2.92752
G1 X177.38 Y133.64 E2.96068
G1 X178.146 Y134.118 E2.99383
G1 X178.868 Y134.661 E3.02701
G1 X179.538 Y135.266 E3.06015
G1 X180.153 Y135.928 E3.09333
G1 X180.706 Y136.641 E3.12646
G1 X181.195 Y137.401 E3.15965
G1 X181.614 Y138.201 E3.19281
G1 X181.96 Y139.035 E3.22596
G1 X182.232 Y139.896 E3.25912
G1 X182.426 Y140.778 E3.29228
G1 X182.542 Y141.674 E3.32545
G1 X182.573 Y142.216 E3.34539
G1 X182.587 Y142.821 E3.36761
G1 X182.588 Y157.058 E3.89038
G1 X182.578 Y157.775 E3.91671
G1 X182.525 Y158.677 E3.94989
G1 X182.393 Y159.57 E3.98304
G1 X182.183 Y160.448 E4.01618
G1 X181.895 Y161.305 E4.04938
G1 X181.533 Y162.132 E4.08253
G1 X181.099 Y162.924 E4.11569
G1 X180.597 Y163.675 E4.14886
G1 X180.031 Y164.378 E4.182
G1 X179.404 Y165.028 E4.21516
G1 X178.722 Y165.621 E4.24835
G1 X177.991 Y166.15 E4.28148
G1 X177.216 Y166.613 E4.31463
G1 X176.402 Y167.006 E4.34782
G1 X175.8 Y167.242 E4.37156
G1 X175.078 Y167.499 E4.39971
G1 X172.617 Y168.41 E4.49606
G1 X170.285 Y169.349 E4.58837
G1 X167.941 Y170.372 E4.68228
G1 X165.633 Y171.456 E4.77591
G1 X163.371 Y172.599 E4.86897
G1 X161.167 Y173.791 E4.96098
G1 X158.954 Y175.07 E5.05484
G1 X156.778 Y176.412 E5.14871
G1 X154.647 Y177.81 E5.24229
G1 X152.571 Y179.26 E5.33528
G1 X150.548 Y180.758 E5.42771
G1 X148.53 Y182.342 E5.52191
G1 X146.581 Y183.964 E5.61501
G1 X144.674 Y185.644 E5.70834
G1 X142.81 Y187.382 E5.80192
G1 X141.032 Y189.136 E5.89362
G1 X139.254 Y190.993 E5.98803
G1 X137.557 Y192.87 E6.08094
G1 X135.884 Y194.827 E6.17548
G1 X134.269 Y196.831 E6.26999
G1 X133.522 Y197.783 E6.31442
G1 X132.934 Y198.468 E6.34757
G1 X132.287 Y199.099 E6.38075
G1 X131.587 Y199.669 E6.4139
G1 X130.839 Y200.176 E6.44708
G1 X130.05 Y200.615 E6.48024
G1 X129.225 Y200.981 E6.51338
G1 X128.37 Y201.274 E6.54656
G1 X127.493 Y201.49 E6.57973
G1 X126.601 Y201.627 E6.61287
G1 X125.902 Y201.679 E6.6386
G1 X125.575 Y201.692 E6.65062
G1 X125.17 Y201.7 E6.66549
G1 X79.075 Y201.699 E8.35807
G1 X78.377 Y201.69 E8.3837
G1 X77.476 Y201.639 E8.41683
G1 X76.582 Y201.507 E8.45002
G1 X75.704 Y201.298 E8.48316
G1 X74.847 Y201.011 E8.51634
G1 X74.02 Y200.65 E8.54948
G1 X73.227 Y200.217 E8.58265
G1 X72.476 Y199.716 E8.6158
G1 X71.772 Y199.15 E8.64897
G1 X71.121 Y198.524 E8.68213
G1 X70.528 Y197.843 E8.71529
G1 X69.998 Y197.112 E8.74845
G1 X69.534 Y196.337 E8.78161
G1 X69.14 Y195.524 E8.81479
G1 X68.82 Y194.68 E8.84793
G1 X68.576 Y193.81 E8.88111
G1 X68.41 Y192.922 E8.91428
G1 X68.313 Y191.767 E8.95684
G1 X68.3 Y191.158 E8.97921
G1 X68.301 Y178.045 E9.46071
G1 X68.311 Y177.348 E9.4863
G1 X68.364 Y176.446 E9.51948
G1 X68.431 Y175.926 E9.53873
G1 X68.522 Y175.341 E9.56047
G1 X68.7 Y174.456 E9.59362
G1 X68.956 Y173.59 E9.62678
G1 X69.465 Y172.373 E9.67522
G1 X69.747 Y171.805 E9.6985
G1 X70.384 Y170.702 E9.74527
G1 X70.613 Y170.358 E9.76045
G1 X71.688 Y168.793 E9.83016
G1 X73.067 Y166.658 E9.92349
G1 X74.392 Y164.474 E10.01729
G1 X75.639 Y162.282 E10.10989
G1 X76.841 Y160.021 E10.20392
G1 X77.967 Y157.749 E10.29702
G1 X79.027 Y155.452 E10.38992
G1 X80.023 Y153.123 E10.48293
G1 X80.968 Y150.729 E10.57743
G1 X81.819 Y148.373 E10.66941
G1 X82.621 Y145.945 E10.76331
G1 X83.341 Y143.538 E10.85556
G1 X84.002 Y141.078 E10.94909
G1 X84.601 Y138.569 E11.04381
G1 X85.117 Y136.102 E11.13636
G1 X85.564 Y133.603 E11.22957
G1 X85.939 Y131.112 E11.32207
G1 X86.246 Y128.591 E11.41533
G1 X86.51 Y125.805 E11.51808
G1 X86.677 Y123.277 E11.61111
G1 X86.775 Y120.705 E11.70562
G1 X86.8 Y118.607 E11.78266
G1 X86.801 Y115.045 E11.91346
G1 X86.811 Y114.34 E11.93935
G1 X86.864 Y113.439 E11.97249
G1 X86.933 Y112.906 E11.99222
G1 X87.019 Y112.357 E12.01263
G1 X87.198 Y111.472 E12.04578
G1 X87.455 Y110.606 E12.07895
G1 X87.664 Y110.052 E12.10069
G1 X87.748 Y109.848 E12.1088
G1 X88.111 Y109.064 E12.14052
G1 X88.303 Y108.691 E12.15592
G1 X88.751 Y107.907 E12.18908
G1 X89.267 Y107.166 E12.22224
G1 X89.993 Y106.317 E12.26325
G1 X90.501 Y105.791 E12.29011
G1 X90.65 Y105.644 E12.29779
G1 X91.321 Y105.039 E12.33097
G1 X92.042 Y104.495 E12.36413
G1 X92.972 Y103.928 E12.40413
G1 X93.565 Y103.613 E12.42878
G1 X93.77 Y103.51 E12.43721
G1 X94.594 Y103.14 E12.47037
G1 X95.447 Y102.845 E12.50351
G1 X96.555 Y102.583 E12.54532
G1 X97.154 Y102.476 E12.56766
G1 X98.05 Y102.357 E12.60085
G1 X98.725 Y102.319 E12.62568
G1 X99.724 Y102.3 E12.66237
G1 X104.455 Y102.301 E12.83609
G1 X105.062 Y102.31 E12.85838
G0 F6000 X105.068 Y101.91
G1 F1200 X106.325 Y102.004 E12.90466
G1 X106.979 Y102.092 E12.92889
G1 X107.885 Y102.254 E12.96269
G1 X108.774 Y102.494 E12.9965
G1 X109.78 Y102.871 E13.03595
G1 X110.05 Y102.988 E13.04675
G1 X110.711 Y103.302 E13.07362
G1 X111.016 Y103.46 E13.08624
G1 X111.814 Y103.919 E13.12004
G1 X112.57 Y104.445 E13.15386
G1 X113.44 Y105.187 E13.19584
G1 X114.099 Y105.815 E13.22927
G1 X115.503 Y107.198 E13.30163
G1 X117.348 Y108.918 E13.39425
G1 X119.248 Y110.589 E13.48716
G1 X121.196 Y112.208 E13.58017
G1 X123.19 Y113.772 E13.67323
G1 X125.205 Y115.263 E13.76527
G1 X127.291 Y116.715 E13.85859
G1 X129.404 Y118.101 E13.95138
G1 X131.556 Y119.426 E14.04418
G1 X133.761 Y120.699 E14.13767
G1 X135.959 Y121.888 E14.22943
G1 X138.243 Y123.038 E14.32333
G1 X140.507 Y124.101 E14.41517
G1 X142.841 Y125.118 E14.50865
G1 X145.223 Y126.077 E14.60294
G1 X147.55 Y126.934 E14.694
G1 X149.958 Y127.747 E14.78732
G1 X152.36 Y128.484 E14.87958
G1 X154.802 Y129.157 E14.97259
G1 X157.292 Y129.769 E15.06674
G1 X159.756 Y130.302 E15.15931
G1 X162.203 Y130.756 E15.25069
G1 X164.705 Y131.149 E15.34369
G1 X167.221 Y131.472 E15.43684
G1 X169.764 Y131.726 E15.53068
G1 X172.273 Y131.905 E15.62304
G1 X172.772 Y131.932 E15.64139
G1 X173.116 Y131.956 E15.65405
G1 X174.031 Y132.06 E15.68787
G1 X174.933 Y132.242 E15.72165
G1 X175.816 Y132.503 E15.75546
G1 X176.673 Y132.839 E15.78926
G1 X177.498 Y133.248 E15.82308
G1 X178.284 Y133.728 E15.85689
G1 X179.025 Y134.273 E15.89067
G1 X179.717 Y134.881 E15.92449
G1 X180.353 Y135.547 E15.95831
G1 X180.929 Y136.265 E15.99211
G1 X181.44 Y137.031 E16.02592
G1 X181.883 Y137.838 E16.05972
G1 X182.254 Y138.68 E16.09351
G1 X182.551 Y139.552 E16.12733
G1 X182.771 Y140.446 E16.16114
G1 X182.913 Y141.355 E16.19492
G1 X182.973 Y142.203 E16.22614
G1 X182.982 Y142.495 E16.23687
G1 X182.987 Y142.82 E16.2488
G1 X182.988 Y157.064 E16.77183
G1 X182.978 Y157.781 E16.79816
G1 X182.925 Y158.7 E16.83196
G1 X182.793 Y159.611 E16.86576
G1 X182.582 Y160.507 E16.89956
G1 X182.294 Y161.382 E16.93339
G1 X181.931 Y162.228 E16.96719
G1 X181.497 Y163.039 E17.00096
G1 X180.993 Y163.81 E17.03479
G1 X180.425 Y164.534 E17.06858
G1 X179.795 Y165.206 E17.1024
G1 X179.11 Y165.821 E17.1362
G1 X178.374 Y166.375 E17.17003
G1 X177.593 Y166.862 E17.20382
G1 X176.773 Y167.28 E17.23762
G1 X175.934 Y167.619 E17.27085
G1 X175.202 Y167.88 E17.29938
G1 X172.788 Y168.774 E17.39391
G1 X170.428 Y169.723 E17.48731
G1 X168.092 Y170.743 E17.5809
G1 X165.804 Y171.818 E17.67373
G1 X163.578 Y172.942 E17.76529
G1 X161.337 Y174.155 E17.85886
G1 X159.159 Y175.414 E17.95124
G1 X156.986 Y176.753 E18.04496
G1 X154.89 Y178.128 E18.13701
G1 X152.815 Y179.577 E18.22994
G1 X150.765 Y181.095 E18.3236
G1 X148.791 Y182.645 E18.41576
G1 X146.852 Y184.258 E18.50837
G1 X144.948 Y185.936 E18.60156
G1 X143.081 Y187.676 E18.69528
G1 X141.32 Y189.415 E18.78615
G1 X139.523 Y191.292 E18.88157
G1 X137.875 Y193.114 E18.97178
G1 X136.2 Y195.072 E19.06639
G1 X134.575 Y197.089 E19.1615
G1 X133.837 Y198.03 E19.20541
G1 X133.237 Y198.729 E19.23924
G1 X132.58 Y199.373 E19.27302
G1 X131.869 Y199.958 E19.30683
G1 X131.11 Y200.479 E19.34063
G1 X130.308 Y200.932 E19.37445
G1 X129.471 Y201.314 E19.40824
G1 X128.603 Y201.622 E19.44206
G1 X127.712 Y201.853 E19.47585
G1 X126.804 Y202.006 E19.50967
G1 X125.918 Y202.079 E19.54231
G1 X125.591 Y202.092 E19.55433
G1 X125.17 Y202.1 E19.56979
G1 X79.07 Y202.099 E21.26254
G1 X78.372 Y202.09 E21.28817
G1 X77.453 Y202.038 E21.32197
G1 X76.542 Y201.907 E21.35577
G1 X75.646 Y201.697 E21.38956
G1 X74.771 Y201.41 E21.42337
G1 X73.924 Y201.048 E21.4572
G1 X73.112 Y200.614 E21.491
G1 X72.341 Y200.112 E21.52479
G1 X71.616 Y199.544 E21.55861
G1 X70.943 Y198.915 E21.59243
G1 X70.328 Y198.231 E21.62621
G1 X69.774 Y197.496 E21.66
G1 X69.286 Y196.715 E21.69382
G1 X68.867 Y195.895 E21.72763
G1 X68.521 Y195.042 E21.76143
G1 X68.251 Y194.162 E21.79523
G1 X68.058 Y193.261 E21.82906
G1 X67.944 Y192.348 E21.86285
G1 X67.913 Y191.777 E21.88385
G1 X67.9 Y191.158 E21.90658
G1 X67.901 Y178.039 E22.3883
G1 X67.911 Y177.342 E22.4139
G1 X67.964 Y176.423 E22.4477
G1 X68.036 Y175.865 E22.46836
G1 X68.127 Y175.28 E22.4901
G1 X68.308 Y174.377 E22.52391
G1 X68.566 Y173.493 E22.55773
G1 X68.901 Y172.636 E22.59151
G1 X69.107 Y172.195 E22.60939
G1 X69.389 Y171.627 E22.63267
G1 X70.05 Y170.481 E22.68125
G1 X70.283 Y170.132 E22.69666
G1 X71.355 Y168.572 E22.76616
G1 X72.723 Y166.454 E22.85874
G1 X74.061 Y164.247 E22.95351
G1 X75.284 Y162.099 E23.04427
G1 X76.488 Y159.835 E23.13843
G1 X77.597 Y157.597 E23.23014
G1 X78.66 Y155.293 E23.32332
G1 X79.654 Y152.968 E23.41616
G1 X80.596 Y150.582 E23.51036
G1 X81.435 Y148.259 E23.60105
G1 X82.244 Y145.81 E23.69575
G1 X82.961 Y143.416 E23.78752
G1 X83.611 Y140.996 E23.87953
G1 X84.206 Y138.5 E23.97375
G1 X84.725 Y136.021 E24.06675
G1 X85.169 Y133.539 E24.15933
G1 X85.545 Y131.041 E24.25209
G1 X85.85 Y128.531 E24.34493
G1 X86.111 Y125.776 E24.44654
G1 X86.28 Y123.234 E24.54009
G1 X86.375 Y120.724 E24.63232
G1 X86.4 Y118.607 E24.71006
G1 X86.401 Y115.04 E24.84104
G1 X86.411 Y114.335 E24.86693
G1 X86.464 Y113.416 E24.90073
G1 X86.538 Y112.845 E24.92187
G1 X86.624 Y112.296 E24.94228
G1 X86.806 Y111.393 E24.9761
G1 X87.065 Y110.51 E25.00989
G1 X87.294 Y109.9 E25.03381
G1 X87.378 Y109.696 E25.04192
G1 X87.755 Y108.881 E25.07489
G1 X87.947 Y108.508 E25.09029
G1 X88.404 Y107.708 E25.12412
G1 X88.928 Y106.951 E25.15793
G1 X89.704 Y106.041 E25.20184
G1 X90.22 Y105.506 E25.22914
G1 X90.369 Y105.359 E25.23682
G1 X91.052 Y104.742 E25.27062
G1 X91.786 Y104.186 E25.30443
G1 X92.782 Y103.576 E25.34732
G1 X93.385 Y103.255 E25.3724
G1 X93.59 Y103.152 E25.38082
G1 X94.43 Y102.775 E25.41463
G1 X95.299 Y102.472 E25.44843
G1 X96.485 Y102.189 E25.4932
G1 X97.084 Y102.082 E25.51554
G1 X97.996 Y101.96 E25.54933
G1 X98.716 Y101.92 E25.57581
G1 X99.724 Y101.9 E25.61283
G1 X104.461 Y101.901 E25.78676
G1 X105.068 Y101.91 E25.80906
G0 F6000 X105.074 Y101.51
G1 F1200 X106.378 Y101.607 E25.85707
G1 X107.032 Y101.695 E25.8813
G1 X107.955 Y101.86 E25.91573
G1 X108.861 Y102.102 E25.95016
G1 X109.939 Y102.504 E25.99241
G1 X110.209 Y102.621 E26.00321
G1 X110.895 Y102.947 E26.0311
G1 X111.2 Y103.105 E26.04372
G1 X112.013 Y103.571 E26.07812
G1 X112.784 Y104.105 E26.11256
G1 X113.716 Y104.897 E26.15747
G1 X114.38 Y105.53 E26.19116
G1 X115.774 Y106.903 E26.263
G1 X117.639 Y108.642 E26.35664
G1 X119.484 Y110.265 E26.44687
G1 X121.453 Y111.901 E26.54087
G1 X123.429 Y113.451 E26.63308
G1 X125.465 Y114.957 E26.72607
G1 X127.492 Y116.368 E26.81676
G1 X129.636 Y117.775 E26.91092
G1 X131.76 Y119.082 E27.0025
G1 X133.93 Y120.335 E27.09451
G1 X136.165 Y121.544 E27.18781
G1 X138.414 Y122.677 E27.28028
G1 X140.7 Y123.75 E27.37301
G1 X142.97 Y124.739 E27.46393
G1 X145.373 Y125.706 E27.55904
G1 X147.668 Y126.551 E27.64884
G1 X150.066 Y127.361 E27.74178
G1 X152.51 Y128.111 E27.83565
G1 X154.89 Y128.767 E27.9263
G1 X157.374 Y129.378 E28.02023
G1 X159.809 Y129.904 E28.11171
G1 X162.297 Y130.365 E28.20462
G1 X164.786 Y130.757 E28.29714
G1 X167.244 Y131.073 E28.38814
G1 X169.795 Y131.327 E28.48227
G1 X172.32 Y131.507 E28.57522
G1 X172.8 Y131.533 E28.59288
G1 X173.144 Y131.557 E28.60554
G1 X174.076 Y131.662 E28.63998
G1 X174.995 Y131.846 E28.67439
G1 X175.896 Y132.108 E28.70885
G1 X176.771 Y132.445 E28.74327
G1 X177.614 Y132.856 E28.77771
G1 X178.419 Y133.337 E28.81215
G1 X179.18 Y133.885 E28.84658
G1 X179.892 Y134.496 E28.88103
G1 X180.549 Y135.165 E28.91546
G1 X181.146 Y135.888 E28.94989
G1 X181.68 Y136.659 E28.98433
G1 X182.147 Y137.473 E29.01879
G1 X182.542 Y138.323 E29.0532
G1 X182.863 Y139.204 E29.08763
G1 X183.108 Y140.11 E29.1221
G1 X183.276 Y141.033 E29.15654
G1 X183.373 Y142.191 E29.19921
G1 X183.382 Y142.483 E29.20994
G1 X183.387 Y142.82 E29.22232
G1 X183.388 Y157.069 E29.74553
G1 X183.378 Y157.786 E29.77186
G1 X183.325 Y158.723 E29.80632
G1 X183.192 Y159.651 E29.84074
G1 X182.981 Y160.565 E29.87519
G1 X182.693 Y161.457 E29.90961
G1 X182.329 Y162.322 E29.94407
G1 X181.894 Y163.153 E29.97851
G1 X181.389 Y163.943 E30.01294
G1 X180.819 Y164.688 E30.04738
G1 X180.187 Y165.381 E30.08182
G1 X179.499 Y166.018 E30.11625
G1 X178.759 Y166.594 E30.15068
G1 X177.972 Y167.105 E30.18514
G1 X177.145 Y167.547 E30.21957
G1 X176.069 Y167.996 E30.26238
G1 X175.371 Y168.245 E30.28959
G1 X172.909 Y169.156 E30.38598
G1 X170.559 Y170.102 E30.479
G1 X168.273 Y171.1 E30.57059
G1 X165.99 Y172.172 E30.66321
G1 X163.755 Y173.301 E30.75515
G1 X161.521 Y174.51 E30.84842
G1 X159.373 Y175.752 E30.93953
G1 X157.209 Y177.086 E31.03288
G1 X155.108 Y178.464 E31.12514
G1 X153.036 Y179.911 E31.21794
G1 X151.027 Y181.399 E31.30973
G1 X149.027 Y182.969 E31.4031
G1 X147.109 Y184.565 E31.49472
G1 X145.201 Y186.245 E31.58807
G1 X143.387 Y187.936 E31.67913
G1 X141.589 Y189.711 E31.7719
G1 X139.842 Y191.536 E31.86467
G1 X138.159 Y193.398 E31.95683
G1 X136.5 Y195.337 E32.05053
G1 X134.881 Y197.347 E32.1453
G1 X134.151 Y198.277 E32.18871
G1 X133.541 Y198.989 E32.22314
G1 X132.873 Y199.647 E32.25757
G1 X132.151 Y200.246 E32.29202
G1 X131.381 Y200.781 E32.32645
G1 X130.568 Y201.249 E32.36089
G1 X129.718 Y201.645 E32.39532
G1 X128.837 Y201.968 E32.42978
G1 X127.932 Y202.214 E32.46422
G1 X127.01 Y202.382 E32.49863
G1 X125.934 Y202.478 E32.5383
G1 X125.607 Y202.491 E32.55031
G1 X125.17 Y202.5 E32.56636
G1 X79.065 Y202.499 E34.2593
G1 X78.367 Y202.49 E34.28493
G1 X77.431 Y202.438 E34.31935
G1 X76.502 Y202.306 E34.35381
