;FLAVOR:Marlin
;TIME:1891
;Filament used: 1.08758m
;Layer height: 0.2
;MINX:185.824
;MINY:125.665
;MINZ:0.2
;MAXX:234.175
;MAXY:174.323
;MAXZ:20
;Generated with Cura_SteamEngine 4.6.1
M140 S55
M105
M190 S55
M104 S200
M105
M109 S200
M82 ;absolute extrusion mode
M201 X500.00 Y500.00 Z100.00 E5000.00 ;Setup machine max acceleration
M203 X500.00 Y500.00 Z10.00 E50.00 ;Setup machine max feedrate
M204 P500.00 R1000.00 T500.00 ;Setup Print/Retract/Travel acceleration
M205 X8.00 Y8.00 Z0.40 E5.00 ;Setup Jerk
M220 S100 ;Reset Feedrate
M221 S100 ;Reset Flowrate

G28 ;Home

G92 E0 ;Reset Extruder
G1 Z2.0 F3000 ;Move Z Axis up
G1 X10.1 Y20 Z0.28 F5000.0 ;Move to start position
G1 X10.1 Y200.0 Z0.28 F1500.0 E15 ;Draw the first line
G1 X10.4 Y200.0 Z0.28 F5000.0 ;Move to side a little
G1 X10.4 Y20 Z0.28 F1500.0 E30 ;Draw the second line
G92 E0 ;Reset Extruder
G1 Z2.0 F3000 ;Move Z Axis up

G92 E0
G92 E0
G1 F2700 E-5
;LAYER_COUNT:100
;LAYER:0
M107
G0 F6000 X199.771 Y126.476 Z0.2
;TYPE:SKIRT
G1 F2700 E0
G1 F1200 X200.621 Y126.524 E0.02832
G1 X201.018 Y126.563 E0.04158
G1 X203.694 Y126.79 E0.13091
G1 X206.221 Y126.932 E0.21509
G1 X208.756 Y127.003 E0.29944
G1 X211.29 Y127.003 E0.38372
G1 X213.83 Y126.93 E0.46823
G1 X216.399 Y126.785 E0.55381
G1 X218.434 Y126.616 E0.62173
G1 X219.405 Y126.525 E0.65417
G1 X220.124 Y126.484 E0.67812
G1 X220.862 Y126.469 E0.70267
G1 X222.367 Y126.467 E0.75273
G1 X223.022 Y126.475 E0.77452
G1 X224.023 Y126.536 E0.80787
G1 X224.943 Y126.679 E0.83884
G1 X225.819 Y126.897 E0.86886
G1 X226.673 Y127.191 E0.8989
G1 X227.497 Y127.56 E0.92893
G1 X228.286 Y128 E0.95898
G1 X229.032 Y128.508 E0.989
G1 X229.731 Y129.081 E1.01906
G1 X230.376 Y129.712 E1.04907
G1 X230.963 Y130.399 E1.07913
G1 X231.487 Y131.135 E1.10918
G1 X231.943 Y131.914 E1.1392
G1 X232.329 Y132.73 E1.16922
G1 X232.642 Y133.578 E1.19929
G1 X232.878 Y134.449 E1.2293
G1 X233.036 Y135.338 E1.25933
G1 X233.115 Y136.238 E1.28938
G1 X233.12 Y136.959 E1.31336
G1 X233.088 Y138.082 E1.35073
G1 X233.061 Y138.724 E1.3721
G1 X233.026 Y141.26 E1.45646
G1 X233.063 Y143.795 E1.54078
G1 X233.174 Y146.384 E1.62697
G1 X233.281 Y148.018 E1.68143
G1 X233.324 Y148.59 E1.70051
G1 X233.348 Y149.041 E1.71553
G1 X233.372 Y149.823 E1.74155
G1 X233.375 Y150.342 E1.75882
G1 X233.355 Y151.101 E1.78407
G1 X233.325 Y151.689 E1.80365
G1 X233.291 Y152.146 E1.81889
G1 X233.253 Y152.541 E1.83209
G1 X233.213 Y152.895 E1.84394
G1 X233.123 Y153.579 E1.86689
G1 X233.051 Y154.041 E1.88244
G1 X232.986 Y154.405 E1.89474
G1 X232.92 Y154.74 E1.90609
G1 X232.789 Y155.354 E1.92697
G1 X232.677 Y155.826 E1.94311
G1 X232.477 Y156.566 E1.9686
G1 X232.316 Y157.109 E1.98744
G1 X232.183 Y157.526 E2.002
G1 X232.053 Y157.904 E2.0153
G1 X231.928 Y158.246 E2.02741
G1 X231.577 Y159.146 E2.05954
G1 X231.497 Y159.336 E2.06639
G1 X231.318 Y159.736 E2.08097
G1 X230.947 Y160.521 E2.10985
G1 X230.716 Y160.98 E2.12694
G1 X230.529 Y161.329 E2.14011
G1 X230.362 Y161.629 E2.15153
G1 X230.057 Y162.155 E2.17175
G1 X229.831 Y162.526 E2.1862
G1 X229.598 Y162.891 E2.2006
G1 X229.404 Y163.184 E2.21229
G1 X229.08 Y163.655 E2.2313
G1 X228.805 Y164.035 E2.2469
G1 X228.542 Y164.382 E2.26139
G1 X228.333 Y164.648 E2.27264
G1 X227.924 Y165.152 E2.29423
G1 X227.609 Y165.523 E2.31041
G1 X227.331 Y165.834 E2.32429
G1 X227.113 Y166.069 E2.33495
G1 X226.716 Y166.486 E2.3541
G1 X226.422 Y166.783 E2.368
G1 X226.083 Y167.111 E2.38369
G1 X225.801 Y167.373 E2.39649
G1 X225.383 Y167.748 E2.41517
G1 X225.037 Y168.045 E2.43033
G1 X224.699 Y168.322 E2.44487
G1 X224.434 Y168.532 E2.45611
G1 X223.935 Y168.914 E2.47702
G1 X223.609 Y169.154 E2.49048
G1 X223.291 Y169.378 E2.50342
G1 X222.979 Y169.589 E2.51594
G1 X222.461 Y169.926 E2.5365
G1 X222.044 Y170.183 E2.55279
G1 X221.371 Y170.571 E2.57863
G1 X220.853 Y170.852 E2.59823
G1 X220.438 Y171.065 E2.61374
G1 X220.046 Y171.255 E2.62823
G1 X219.721 Y171.405 E2.64014
G1 X219.169 Y171.649 E2.66021
G1 X218.78 Y171.811 E2.67423
G1 X218.376 Y171.97 E2.68867
G1 X218.053 Y172.091 E2.70014
G1 X217.498 Y172.288 E2.71973
G1 X217.075 Y172.428 E2.73455
G1 X216.677 Y172.55 E2.74839
G1 X216.309 Y172.655 E2.76112
G1 X215.681 Y172.822 E2.78273
G1 X215.252 Y172.927 E2.79742
G1 X214.843 Y173.017 E2.81135
G1 X214.484 Y173.089 E2.82353
G1 X213.871 Y173.201 E2.84426
G1 X213.416 Y173.273 E2.85958
G1 X212.719 Y173.363 E2.88295
G1 X212.065 Y173.431 E2.90482
G1 X211.6 Y173.469 E2.92034
G1 X210.879 Y173.506 E2.94435
G1 X210.265 Y173.522 E2.96478
G1 X209.803 Y173.523 E2.98015
G1 X209.387 Y173.515 E2.99398
G1 X209.041 Y173.503 E3.0055
G1 X208.421 Y173.47 E3.02615
G1 X207.979 Y173.436 E3.04089
G1 X207.587 Y173.398 E3.05399
G1 X207.232 Y173.358 E3.06588
G1 X206.56 Y173.269 E3.08842
G1 X206.103 Y173.198 E3.1038
G1 X205.734 Y173.132 E3.11627
G1 X205.397 Y173.066 E3.12769
G1 X204.775 Y172.933 E3.14885
G1 X204.299 Y172.819 E3.16513
G1 X203.581 Y172.624 E3.18987
G1 X203.038 Y172.463 E3.20871
G1 X202.617 Y172.328 E3.22342
G1 X202.222 Y172.192 E3.23731
G1 X201.873 Y172.065 E3.24966
G1 X200.999 Y171.723 E3.28088
G1 X200.809 Y171.643 E3.28774
G1 X200.405 Y171.462 E3.30246
G1 X199.623 Y171.092 E3.33123
G1 X199.172 Y170.865 E3.34803
G1 X198.817 Y170.675 E3.36142
G1 X198.519 Y170.509 E3.37276
G1 X197.994 Y170.205 E3.39294
G1 X197.601 Y169.966 E3.40824
G1 X197.239 Y169.734 E3.42254
G1 X196.946 Y169.539 E3.43425
G1 X196.461 Y169.204 E3.45385
G1 X196.095 Y168.938 E3.4689
G1 X195.764 Y168.687 E3.48272
G1 X195.506 Y168.485 E3.49362
G1 X195 Y168.075 E3.51528
G1 X194.628 Y167.759 E3.53151
G1 X194.311 Y167.476 E3.54564
G1 X194.062 Y167.246 E3.55692
G1 X193.647 Y166.85 E3.576
G1 X193.337 Y166.541 E3.59056
G1 X192.79 Y165.965 E3.61698
G1 X192.411 Y165.545 E3.63579
G1 X192.092 Y165.174 E3.65207
G1 X191.821 Y164.843 E3.66629
G1 X191.615 Y164.582 E3.67735
G1 X191.226 Y164.074 E3.69863
G1 X190.964 Y163.717 E3.71336
G1 X190.748 Y163.408 E3.7259
G1 X190.552 Y163.117 E3.73757
G1 X190.21 Y162.59 E3.75847
G1 X189.961 Y162.186 E3.77425
G1 X189.737 Y161.803 E3.78901
G1 X189.58 Y161.524 E3.79966
G1 X189.298 Y161.005 E3.8193
G1 X189.077 Y160.574 E3.83541
G1 X188.888 Y160.183 E3.84986
G1 X188.742 Y159.868 E3.8614
G1 X188.498 Y159.316 E3.88148
G1 X188.344 Y158.948 E3.89474
G1 X188.184 Y158.544 E3.9092
G1 X188.046 Y158.177 E3.92224
G1 X187.847 Y157.612 E3.94216
G1 X187.716 Y157.214 E3.9561
G1 X187.597 Y156.826 E3.9696
G1 X187.492 Y156.456 E3.98239
G1 X187.325 Y155.828 E4.004
G1 X187.22 Y155.399 E4.01869
G1 X187.13 Y154.99 E4.03262
G1 X187.058 Y154.631 E4.0448
G1 X186.946 Y154.018 E4.06552
G1 X186.874 Y153.563 E4.08085
G1 X186.784 Y152.866 E4.10422
G1 X186.716 Y152.212 E4.12609
G1 X186.678 Y151.747 E4.14161
G1 X186.641 Y151.024 E4.16569
G1 X186.625 Y150.406 E4.18625
G1 X186.623 Y149.973 E4.20065
G1 X186.63 Y149.55 E4.21472
G1 X186.643 Y149.178 E4.2271
G1 X186.692 Y148.283 E4.25691
G1 X186.851 Y145.914 E4.33588
G1 X186.948 Y143.386 E4.42003
G1 X186.974 Y140.894 E4.50292
G1 X186.9 Y137.493 E4.61606
G1 X186.884 Y137.098 E4.62921
G1 X186.888 Y136.195 E4.65924
G1 X186.971 Y135.295 E4.6893
G1 X187.134 Y134.407 E4.71933
G1 X187.374 Y133.537 E4.74935
G1 X187.691 Y132.691 E4.7794
G1 X188.081 Y131.876 E4.80945
G1 X188.542 Y131.1 E4.83947
G1 X189.069 Y130.367 E4.8695
G1 X189.66 Y129.683 E4.89956
G1 X190.308 Y129.055 E4.92958
G1 X191.01 Y128.486 E4.95963
G1 X191.759 Y127.981 E4.98968
G1 X192.55 Y127.545 E5.01972
G1 X193.376 Y127.181 E5.04974
G1 X194.231 Y126.891 E5.07977
G1 X195.109 Y126.677 E5.10983
G1 X196.002 Y126.543 E5.13986
G1 X196.862 Y126.488 E5.16852
G1 X198.079 Y126.465 E5.20901
G1 X199.074 Y126.466 E5.2421
G1 X199.771 Y126.476 E5.26528
G0 F6000 X199.777 Y126.076
G1 F1200 X200.66 Y126.126 E5.2947
G1 X201.089 Y126.168 E5.30904
G1 X203.715 Y126.391 E5.39669
G1 X206.22 Y126.532 E5.48014
G1 X208.767 Y126.603 E5.56489
G1 X211.279 Y126.603 E5.64844
G1 X213.83 Y126.53 E5.73332
G1 X216.345 Y126.387 E5.8171
G1 X218.451 Y126.213 E5.88739
G1 X219.367 Y126.127 E5.91799
G1 X220.115 Y126.084 E5.94291
G1 X220.862 Y126.069 E5.96776
G1 X222.371 Y126.067 E6.01795
G1 X223.026 Y126.075 E6.03973
G1 X224.068 Y126.139 E6.07446
G1 X225.004 Y126.283 E6.10595
G1 X225.898 Y126.503 E6.13658
G1 X226.77 Y126.799 E6.1672
G1 X227.613 Y127.17 E6.19784
G1 X228.42 Y127.613 E6.22846
G1 X229.186 Y128.124 E6.25908
G1 X229.904 Y128.7 E6.2897
G1 X230.57 Y129.335 E6.3203
G1 X231.178 Y130.027 E6.35094
G1 X231.724 Y130.768 E6.38156
G1 X232.204 Y131.554 E6.41219
G1 X232.613 Y132.378 E6.44278
G1 X232.95 Y133.235 E6.47341
G1 X233.211 Y134.118 E6.50404
G1 X233.394 Y135.02 E6.53465
G1 X233.498 Y135.935 E6.56528
G1 X233.52 Y136.97 E6.59971
G1 X233.488 Y138.099 E6.63728
G1 X233.461 Y138.747 E6.65885
G1 X233.426 Y141.259 E6.74241
G1 X233.463 Y143.806 E6.82713
G1 X233.572 Y146.343 E6.91159
G1 X233.674 Y147.908 E6.96375
G1 X233.723 Y148.56 E6.9855
G1 X233.748 Y149.029 E7.00112
G1 X233.772 Y149.811 E7.02714
G1 X233.775 Y150.35 E7.04507
G1 X233.766 Y150.795 E7.05987
G1 X233.754 Y151.121 E7.07072
G1 X233.724 Y151.709 E7.0903
G1 X233.689 Y152.184 E7.10614
G1 X233.651 Y152.579 E7.11934
G1 X233.609 Y152.947 E7.13166
G1 X233.519 Y153.631 E7.15461
G1 X233.445 Y154.111 E7.17076
G1 X233.38 Y154.475 E7.18306
G1 X233.312 Y154.824 E7.19489
G1 X233.181 Y155.438 E7.21577
G1 X233.064 Y155.928 E7.23252
G1 X232.861 Y156.679 E7.2584
G1 X232.7 Y157.222 E7.27723
G1 X232.561 Y157.656 E7.29239
G1 X232.431 Y158.034 E7.30569
G1 X232.301 Y158.39 E7.31829
G1 X232.07 Y158.991 E7.33971
G1 X231.865 Y159.491 E7.35768
G1 X231.68 Y159.907 E7.37282
G1 X231.309 Y160.692 E7.4017
G1 X231.068 Y161.169 E7.41948
G1 X230.881 Y161.518 E7.43265
G1 X230.708 Y161.829 E7.44448
G1 X230.403 Y162.355 E7.46471
G1 X230.168 Y162.742 E7.47976
G1 X229.935 Y163.107 E7.49417
G1 X229.733 Y163.411 E7.50631
G1 X229.409 Y163.882 E7.52532
G1 X229.124 Y164.277 E7.54152
G1 X228.861 Y164.624 E7.556
G1 X228.644 Y164.9 E7.56768
G1 X228.235 Y165.404 E7.58927
G1 X227.907 Y165.789 E7.60609
G1 X227.629 Y166.1 E7.61996
G1 X227.403 Y166.345 E7.63105
G1 X227.006 Y166.762 E7.6502
G1 X226.7 Y167.071 E7.66466
G1 X226.361 Y167.399 E7.68035
G1 X226.069 Y167.671 E7.69363
G1 X225.651 Y168.046 E7.7123
G1 X225.291 Y168.355 E7.72808
G1 X224.953 Y168.632 E7.74262
G1 X224.677 Y168.85 E7.75432
G1 X224.178 Y169.232 E7.77522
G1 X223.839 Y169.481 E7.78921
G1 X223.521 Y169.705 E7.80215
G1 X223.197 Y169.924 E7.81515
G1 X222.679 Y170.261 E7.83571
G1 X222.246 Y170.529 E7.85264
G1 X221.854 Y170.758 E7.86774
G1 X221.561 Y170.922 E7.87891
G1 X221.043 Y171.203 E7.89851
G1 X220.612 Y171.425 E7.91464
G1 X220.22 Y171.615 E7.92913
G1 X219.883 Y171.771 E7.94148
G1 X219.331 Y172.015 E7.96155
G1 X218.927 Y172.184 E7.97612
G1 X218.523 Y172.343 E7.99056
G1 X218.187 Y172.468 E8.00248
G1 X217.632 Y172.665 E8.02207
G1 X217.193 Y172.811 E8.03745
G1 X216.795 Y172.933 E8.0513
G1 X216.412 Y173.042 E8.06454
G1 X215.784 Y173.209 E8.08616
G1 X215.338 Y173.317 E8.10142
G1 X214.929 Y173.407 E8.11535
G1 X214.556 Y173.482 E8.128
G1 X213.943 Y173.594 E8.14873
G1 X213.47 Y173.67 E8.16466
G1 X213.096 Y173.721 E8.17722
G1 X212.76 Y173.761 E8.18847
G1 X212.106 Y173.829 E8.21034
G1 X211.623 Y173.868 E8.22646
G1 X211.226 Y173.891 E8.23968
G1 X210.889 Y173.905 E8.2509
G1 X210.275 Y173.921 E8.27133
G1 X209.795 Y173.923 E8.2873
G1 X209.379 Y173.915 E8.30114
G1 X209.02 Y173.902 E8.31308
G1 X208.4 Y173.869 E8.33373
G1 X207.94 Y173.835 E8.34908
G1 X207.548 Y173.797 E8.36217
G1 X207.179 Y173.754 E8.37453
G1 X206.507 Y173.665 E8.39708
G1 X206.033 Y173.591 E8.41303
G1 X205.664 Y173.525 E8.4255
G1 X205.314 Y173.457 E8.43736
G1 X204.692 Y173.324 E8.45852
G1 X204.196 Y173.205 E8.47548
G1 X203.468 Y173.008 E8.50056
G1 X202.925 Y172.847 E8.5194
G1 X202.487 Y172.707 E8.5347
G1 X202.092 Y172.571 E8.54859
G1 X201.729 Y172.438 E8.56145
G1 X201.143 Y172.212 E8.58234
G1 X200.654 Y172.011 E8.59992
G1 X200.233 Y171.824 E8.61524
G1 X199.451 Y171.454 E8.64402
G1 X198.983 Y171.218 E8.66145
G1 X198.628 Y171.028 E8.67484
G1 X198.318 Y170.855 E8.68665
G1 X197.793 Y170.551 E8.70683
G1 X197.385 Y170.302 E8.72273
G1 X197.023 Y170.07 E8.73703
G1 X196.719 Y169.868 E8.74917
G1 X196.234 Y169.533 E8.76877
G1 X195.853 Y169.257 E8.78442
G1 X195.522 Y169.006 E8.79824
G1 X195.254 Y168.796 E8.80956
G1 X194.748 Y168.386 E8.83122
G1 X194.362 Y168.057 E8.84809
G1 X194.045 Y167.774 E8.86222
G1 X193.786 Y167.536 E8.87392
G1 X193.371 Y167.14 E8.893
G1 X193.049 Y166.818 E8.90815
G1 X192.493 Y166.233 E8.93499
G1 X192.114 Y165.813 E8.95381
G1 X191.782 Y165.427 E8.97074
G1 X191.511 Y165.096 E8.98497
G1 X191.297 Y164.826 E8.99643
G1 X190.908 Y164.318 E9.01771
G1 X190.636 Y163.946 E9.03304
G1 X190.42 Y163.637 E9.04558
G1 X190.216 Y163.334 E9.05773
G1 X189.874 Y162.807 E9.07862
G1 X189.616 Y162.388 E9.09499
G1 X189.228 Y161.715 E9.12082
G1 X188.946 Y161.196 E9.14047
G1 X188.716 Y160.748 E9.15722
G1 X188.527 Y160.357 E9.17166
G1 X188.376 Y160.03 E9.18364
G1 X188.132 Y159.478 E9.20372
G1 X187.972 Y159.095 E9.21752
G1 X187.812 Y158.691 E9.23197
G1 X187.669 Y158.309 E9.24554
G1 X187.47 Y157.744 E9.26546
G1 X187.334 Y157.331 E9.27993
G1 X187.215 Y156.943 E9.29342
G1 X187.105 Y156.559 E9.30671
G1 X186.938 Y155.931 E9.32832
G1 X186.83 Y155.485 E9.34359
G1 X186.74 Y155.076 E9.35752
G1 X186.665 Y154.703 E9.37017
G1 X186.553 Y154.09 E9.3909
G1 X186.477 Y153.617 E9.40683
G1 X186.426 Y153.243 E9.41938
G1 X186.386 Y152.907 E9.43064
G1 X186.318 Y152.253 E9.45251
G1 X186.279 Y151.77 E9.46862
G1 X186.256 Y151.373 E9.48185
G1 X186.242 Y151.034 E9.49314
G1 X186.226 Y150.416 E9.5137
G1 X186.223 Y149.967 E9.52863
G1 X186.23 Y149.544 E9.5427
G1 X186.244 Y149.157 E9.55558
G1 X186.293 Y148.256 E9.58559
G1 X186.451 Y145.906 E9.66393
G1 X186.549 Y143.367 E9.74844
G1 X186.574 Y140.868 E9.83156
G1 X186.501 Y137.517 E9.94304
G1 X186.485 Y137.114 E9.95646
G1 X186.487 Y136.193 E9.98709
G1 X186.57 Y135.276 E10.01772
G1 X186.732 Y134.37 E10.04833
G1 X186.972 Y133.481 E10.07895
G1 X187.288 Y132.617 E10.10955
G1 X187.678 Y131.783 E10.14017
G1 X188.139 Y130.986 E10.1708
G1 X188.668 Y130.232 E10.20143
G1 X189.259 Y129.526 E10.23206
G1 X189.91 Y128.875 E10.26268
G1 X190.615 Y128.283 E10.2933
G1 X191.368 Y127.754 E10.3239
G1 X192.165 Y127.292 E10.35454
G1 X192.999 Y126.902 E10.38517
G1 X193.863 Y126.585 E10.41578
G1 X194.752 Y126.344 E10.44641
G1 X195.658 Y126.181 E10.47703
G1 X196.854 Y126.088 E10.51693
G1 X198.079 Y126.065 E10.55768
G1 X199.08 Y126.066 E10.59097
G1 X199.777 Y126.076 E10.61416
G0 F6000 X199.783 Y125.676
G1 F1200 X200.699 Y125.728 E10.64467
G1 X201.084 Y125.766 E10.65754
G1 X203.737 Y125.991 E10.7461
G1 X206.253 Y126.132 E10.82991
G1 X208.778 Y126.203 E10.91392
G1 X211.302 Y126.203 E10.99787
G1 X213.798 Y126.131 E11.08092
G1 X216.326 Y125.988 E11.16514
G1 X218.383 Y125.818 E11.23379
G1 X219.33 Y125.729 E11.26543
G1 X220.106 Y125.684 E11.29128
G1 X220.861 Y125.669 E11.3164
G1 X222.376 Y125.667 E11.36678
G1 X223.031 Y125.675 E11.38857
G1 X224.112 Y125.741 E11.42459
G1 X225.066 Y125.887 E11.45669
G1 X225.977 Y126.109 E11.48788
G1 X226.866 Y126.408 E11.51908
G1 X227.726 Y126.781 E11.55025
G1 X228.552 Y127.226 E11.58146
G1 X229.337 Y127.74 E11.61267
G1 X230.075 Y128.318 E11.64385
G1 X230.761 Y128.958 E11.67505
G1 X231.39 Y129.653 E11.70623
G1 X231.957 Y130.4 E11.73742
G1 X232.459 Y131.192 E11.76861
G1 X232.892 Y132.025 E11.79983
G1 X233.252 Y132.891 E11.83102
G1 X233.537 Y133.784 E11.8622
G1 X233.745 Y134.699 E11.89341
G1 X233.874 Y135.628 E11.92461
G1 X233.92 Y136.981 E11.96963
G1 X233.887 Y138.116 E12.0074
G1 X233.861 Y138.734 E12.02797
G1 X233.826 Y141.26 E12.112
G1 X233.863 Y143.783 E12.19592
G1 X233.972 Y146.344 E12.28118
G1 X234.073 Y147.878 E12.33231
G1 X234.122 Y148.53 E12.35406
G1 X234.148 Y149.017 E12.37028
G1 X234.172 Y149.799 E12.3963
G1 X234.175 Y150.358 E12.41489
G1 X234.166 Y150.803 E12.42969
G1 X234.154 Y151.141 E12.44094
G1 X234.124 Y151.729 E12.46053
G1 X234.087 Y152.222 E12.47697
G1 X234.049 Y152.617 E12.49017
G1 X234.006 Y152.999 E12.50295
G1 X233.916 Y153.683 E12.5259
G1 X233.839 Y154.182 E12.54269
G1 X233.774 Y154.546 E12.55499
G1 X233.703 Y154.907 E12.56723
G1 X233.572 Y155.521 E12.58811
G1 X233.451 Y156.03 E12.60551
G1 X233.335 Y156.47 E12.62064
