;FLAVOR:Marlin
;TIME:22277
;Filament used: 17.0423m
;Layer height: 0.16
;MINX:112.754
;MINY:101.7
;MINZ:0.16
;MAXX:187.246
;MAXY:198.3
;MAXZ:64.92
;Generated with Cura_SteamEngine 4.6.1
M140 S60
M105
M190 S60
M104 S220
M105
M109 S220
M82 ;absolute extrusion mode
M201 X500.00 Y500.00 Z100.00 E5000.00 ;Setup machine max acceleration
M203 X500.00 Y500.00 Z10.00 E50.00 ;Setup machine max feedrate
M204 P500.00 R1000.00 T500.00 ;Setup Print/Retract/Travel acceleration
M205 X8.00 Y8.00 Z0.40 E5.00 ;Setup Jerk
M220 S100 ;Reset Feedrate
M221 S100 ;Reset Flowrate

G28 ;Home

G92 E0 ;Reset Extruder
G1 Z2.0 F3000 ;Move Z Axis up
G1 X10.1 Y20 Z0.28 F5000.0 ;Move to start position
G1 X10.1 Y200.0 Z0.28 F1500.0 E15 ;Draw the first line
G1 X10.4 Y200.0 Z0.28 F5000.0 ;Move to side a little
G1 X10.4 Y20 Z0.28 F1500.0 E30 ;Draw the second line
G92 E0 ;Reset Extruder
G1 Z2.0 F3000 ;Move Z Axis up

G92 E0
G92 E0
G1 F2700 E-5
;LAYER_COUNT:329
;LAYER:0
M107
G0 F6000 X168.973 Y102.351 Z0.16
;TYPE:SKIRT
G1 F2700 E0
G1 F1200 X169.872 Y102.404 E0.0253
G1 X170.764 Y102.536 E0.05064
G1 X171.64 Y102.747 E0.07596
G1 X172.494 Y103.035 E0.10128
G1 X173.32 Y103.397 E0.12662
G1 X174.11 Y103.831 E0.15195
G1 X174.858 Y104.334 E0.17728
G1 X175.559 Y104.9 E0.20259
G1 X176.207 Y105.527 E0.22793
G1 X176.797 Y106.208 E0.25325
G1 X177.324 Y106.94 E0.27859
G1 X177.784 Y107.715 E0.30391
G1 X178.174 Y108.527 E0.32922
G1 X178.49 Y109.371 E0.35455
G1 X178.73 Y110.24 E0.37988
G1 X178.892 Y111.127 E0.40521
G1 X178.983 Y112.215 E0.43589
G1 X178.996 Y112.82 E0.45289
G1 X178.997 Y186.763 E2.53056
G1 X178.987 Y187.6 E2.55408
G1 X178.936 Y188.5 E2.5794
G1 X178.805 Y189.392 E2.60474
G1 X178.595 Y190.268 E2.63005
G1 X178.309 Y191.123 E2.65538
G1 X177.948 Y191.949 E2.68071
G1 X177.515 Y192.74 E2.70605
G1 X177.014 Y193.489 E2.73137
G1 X176.449 Y194.191 E2.75669
G1 X175.823 Y194.84 E2.78202
G1 X175.142 Y195.43 E2.80734
G1 X174.412 Y195.959 E2.83267
G1 X173.638 Y196.42 E2.85798
G1 X172.826 Y196.811 E2.88331
G1 X171.982 Y197.129 E2.90865
G1 X171.114 Y197.37 E2.93396
G1 X170.228 Y197.534 E2.95928
G1 X169.745 Y197.59 E2.97294
G1 X169.425 Y197.619 E2.98197
G1 X168.508 Y197.66 E3.00776
G1 X131.739 Y197.659 E4.0409
G1 X131.041 Y197.65 E4.06052
G1 X130.141 Y197.599 E4.08585
G1 X129.249 Y197.467 E4.11118
G1 X128.373 Y197.258 E4.13649
G1 X127.518 Y196.971 E4.16183
G1 X126.692 Y196.61 E4.18716
G1 X125.902 Y196.177 E4.21247
G1 X125.153 Y195.676 E4.23779
G1 X124.451 Y195.11 E4.26313
G1 X123.802 Y194.485 E4.28845
G1 X123.211 Y193.804 E4.31378
G1 X122.683 Y193.074 E4.3391
G1 X122.222 Y192.299 E4.36443
G1 X121.831 Y191.487 E4.38976
G1 X121.513 Y190.644 E4.41507
G1 X121.272 Y189.775 E4.44041
G1 X121.109 Y188.889 E4.46572
G1 X121.013 Y187.665 E4.50022
G1 X121.004 Y187.025 E4.51821
G1 X121.003 Y113.174 E6.59328
G1 X121.013 Y112.372 E6.61582
G1 X121.065 Y111.472 E6.64115
G1 X121.197 Y110.58 E6.66649
G1 X121.407 Y109.704 E6.6918
G1 X121.694 Y108.849 E6.71714
G1 X122.056 Y108.024 E6.74245
G1 X122.489 Y107.233 E6.76779
G1 X122.991 Y106.484 E6.79313
G1 X123.557 Y105.783 E6.81844
G1 X124.183 Y105.135 E6.84376
G1 X124.864 Y104.544 E6.86909
G1 X125.595 Y104.017 E6.89442
G1 X126.369 Y103.556 E6.91973
G1 X127.182 Y103.165 E6.94508
G1 X128.026 Y102.848 E6.97041
G1 X128.894 Y102.608 E6.99571
G1 X129.781 Y102.445 E7.02105
G1 X130.886 Y102.353 E7.05221
G1 X131.492 Y102.34 E7.06924
G1 X168.275 Y102.341 E8.10278
G1 X168.973 Y102.351 E8.12239
G0 F6000 X168.977 Y102.031
G1 F1200 X169.891 Y102.084 E8.14812
G1 X170.797 Y102.217 E8.17385
G1 X171.688 Y102.428 E8.19957
G1 X172.556 Y102.716 E8.22527
G1 X173.397 Y103.079 E8.25101
G1 X174.202 Y103.514 E8.27672
G1 X174.967 Y104.017 E8.30244
G1 X175.685 Y104.585 E8.32817
G1 X176.35 Y105.214 E8.35389
G1 X176.958 Y105.898 E8.3796
G1 X177.504 Y106.633 E8.40533
G1 X177.984 Y107.413 E8.43106
G1 X178.394 Y108.231 E8.45677
G1 X178.731 Y109.082 E8.48249
G1 X178.992 Y109.96 E8.50823
G1 X179.176 Y110.857 E8.53396
G1 X179.303 Y112.206 E8.57203
G1 X179.316 Y112.82 E8.58928
G1 X179.317 Y186.763 E10.66695
G1 X179.307 Y187.604 E10.69058
G1 X179.256 Y188.518 E10.7163
G1 X179.124 Y189.424 E10.74203
G1 X178.915 Y190.315 E10.76774
G1 X178.628 Y191.185 E10.79348
G1 X178.267 Y192.026 E10.8192
G1 X177.833 Y192.832 E10.84492
G1 X177.331 Y193.597 E10.87063
G1 X176.764 Y194.316 E10.89636
G1 X176.136 Y194.982 E10.92208
G1 X175.453 Y195.591 E10.94779
G1 X174.719 Y196.139 E10.97353
G1 X173.94 Y196.62 E10.99925
G1 X173.122 Y197.031 E11.02498
G1 X172.272 Y197.369 E11.05068
G1 X171.395 Y197.632 E11.0764
G1 X170.498 Y197.817 E11.10214
G1 X169.774 Y197.908 E11.12264
G1 X169.454 Y197.937 E11.13167
G1 X168.508 Y197.98 E11.15828
G1 X131.735 Y197.979 E12.19153
G1 X131.037 Y197.97 E12.21115
G1 X130.123 Y197.918 E12.23687
G1 X129.217 Y197.787 E12.26259
G1 X128.326 Y197.577 E12.28831
G1 X127.457 Y197.29 E12.31403
G1 X126.616 Y196.929 E12.33974
G1 X125.809 Y196.495 E12.36549
G1 X125.044 Y195.993 E12.3912
G1 X124.326 Y195.426 E12.41691
G1 X123.659 Y194.798 E12.44265
G1 X123.05 Y194.114 E12.46838
G1 X122.503 Y193.38 E12.4941
G1 X122.022 Y192.601 E12.51983
G1 X121.611 Y191.783 E12.54555
G1 X121.273 Y190.933 E12.57125
G1 X121.011 Y190.056 E12.59697
G1 X120.826 Y189.159 E12.6227
G1 X120.72 Y188.25 E12.64842
G1 X120.694 Y187.671 E12.6647
G1 X120.684 Y187.025 E12.68286
G1 X120.683 Y113.174 E14.75793
G1 X120.693 Y112.367 E14.78061
G1 X120.745 Y111.453 E14.80633
G1 X120.877 Y110.547 E14.83206
G1 X121.088 Y109.656 E14.85779
G1 X121.375 Y108.787 E14.8835
G1 X121.737 Y107.947 E14.9092
G1 X122.171 Y107.141 E14.93493
G1 X122.674 Y106.376 E14.96065
G1 X123.242 Y105.658 E14.98637
G1 X123.87 Y104.992 E15.0121
G1 X124.554 Y104.383 E15.03783
G1 X125.288 Y103.837 E15.06353
G1 X126.067 Y103.356 E15.08926
G1 X126.886 Y102.946 E15.11499
G1 X127.737 Y102.608 E15.14072
G1 X128.614 Y102.346 E15.16644
G1 X129.51 Y102.162 E15.19214
G1 X130.42 Y102.056 E15.21788
G1 X130.877 Y102.033 E15.23074
G1 X131.492 Y102.02 E15.24802
G1 X168.279 Y102.021 E16.28167
G1 X168.977 Y102.031 E16.30129
G0 F6000 X168.982 Y101.711
G1 F1200 X169.909 Y101.764 E16.32738
G1 X170.829 Y101.897 E16.35349
G1 X171.734 Y102.109 E16.37961
G1 X172.618 Y102.397 E16.40574
G1 X173.473 Y102.76 E16.43183
G1 X174.294 Y103.196 E16.45795
G1 X175.074 Y103.7 E16.48405
G1 X175.809 Y104.27 E16.51018
G1 X176.491 Y104.901 E16.53629
G1 X177.117 Y105.588 E16.56241
G1 X177.681 Y106.326 E16.5885
G1 X178.18 Y107.11 E16.61462
G1 X178.61 Y107.934 E16.64073
G1 X178.967 Y108.792 E16.66684
G1 X179.249 Y109.677 E16.69294
G1 X179.454 Y110.584 E16.71907
G1 X179.58 Y111.505 E16.74519
G1 X179.622 Y112.197 E16.76467
G1 X179.636 Y112.82 E16.78218
G1 X179.637 Y186.763 E18.85984
G1 X179.627 Y187.608 E18.88359
G1 X179.575 Y188.536 E18.9097
G1 X179.444 Y189.456 E18.93581
G1 X179.234 Y190.361 E18.96192
G1 X178.947 Y191.245 E18.98803
G1 X178.585 Y192.101 E19.01415
G1 X178.151 Y192.923 E19.04027
G1 X177.648 Y193.704 E19.06637
G1 X177.079 Y194.439 E19.09249
G1 X176.45 Y195.123 E19.1186
G1 X175.764 Y195.75 E19.14471
G1 X175.026 Y196.315 E19.17082
G1 X174.243 Y196.815 E19.19693
G1 X173.42 Y197.246 E19.22303
G1 X172.562 Y197.605 E19.24917
G1 X171.677 Y197.888 E19.27527
G1 X170.771 Y198.095 E19.30139
G1 X169.803 Y198.227 E19.32884
G1 X169.483 Y198.256 E19.33787
G1 X168.508 Y198.3 E19.36529
G1 X131.731 Y198.299 E20.39865
G1 X131.033 Y198.29 E20.41827
G1 X130.105 Y198.238 E20.44439
G1 X129.185 Y198.107 E20.4705
G1 X128.28 Y197.897 E20.4966
G1 X127.396 Y197.609 E20.52272
G1 X126.54 Y197.247 E20.54884
G1 X125.718 Y196.813 E20.57496
G1 X124.937 Y196.31 E20.60106
G1 X124.202 Y195.741 E20.62718
G1 X123.519 Y195.111 E20.65329
G1 X122.892 Y194.425 E20.6794
G1 X122.327 Y193.688 E20.70549
G1 X121.827 Y192.904 E20.73162
G1 X121.396 Y192.081 E20.75772
G1 X121.037 Y191.224 E20.78383
G1 X120.754 Y190.338 E20.80997
G1 X120.548 Y189.432 E20.83607
G1 X120.42 Y188.512 E20.86217
G1 X120.374 Y187.676 E20.8857
G1 X120.364 Y187.025 E20.90399
G1 X120.363 Y113.174 E22.97907
G1 X120.373 Y112.363 E23.00186
G1 X120.426 Y111.435 E23.02798
G1 X120.558 Y110.515 E23.05409
G1 X120.768 Y109.61 E23.08019
G1 X121.056 Y108.726 E23.10632
G1 X121.419 Y107.871 E23.13242
G1 X121.854 Y107.05 E23.15852
G1 X122.357 Y106.269 E23.18463
G1 X122.926 Y105.534 E23.21074
G1 X123.557 Y104.851 E23.23687
G1 X124.243 Y104.225 E23.26297
G1 X124.981 Y103.66 E23.28908
G1 X125.765 Y103.16 E23.31521
G1 X126.588 Y102.73 E23.3413
G1 X127.446 Y102.372 E23.36742
G1 X128.331 Y102.089 E23.39353
G1 X129.237 Y101.884 E23.41963
G1 X130.158 Y101.757 E23.44575
G1 X130.868 Y101.713 E23.46574
G1 X131.492 Y101.7 E23.48328
G1 X168.284 Y101.701 E24.51707
G1 X168.982 Y101.711 E24.53668
G1 F2700 E19.53668
;MESH:HIVE_Deep_Drawer.stl
G0 F6000 X168.542 Y111.835
G0 X168.542 Y112.794
G0 X137.314 Y153.964
G0 X137.318 Y155.011
G0 X137.242 Y155.115
G0 X137.342 Y155.015
;TYPE:WALL-OUTER
G1 F2700 E24.53668
G1 F1200 X137.342 Y155.431 E24.54837
G1 X137.131 Y155.489 E24.55452
G1 X137.101 Y155.49 E24.55536
G1 X137.074 Y155.489 E24.55612
G1 X137.07 Y155.488 E24.55624
G1 X137.063 Y155.439 E24.55763
G1 X137.062 Y155.015 E24.56954
G1 X137.342 Y155.015 E24.57741
G0 F6000 X137.242 Y155.015
G0 X137.308 Y155.043
G0 X137.308 Y154.512
G0 X137.089 Y154.079
G0 X136.41 Y154.079
G0 X136.286 Y154.392
G0 X136.286 Y155.163
G0 X136.479 Y155.802
G0 X136.54 Y155.868
G0 X137.288 Y156.593
;TYPE:WALL-INNER
G1 F1200 X139.785 Y156.592 E24.64757
G1 X139.797 Y156.591 E24.64791
G1 X139.786 Y156.797 E24.65172
G1 X140.676 Y156.987 E24.67729
G1 X140.992 Y157.006 E24.68618
G1 X141.244 Y156.981 E24.6933
G1 X141.401 Y156.944 E24.69783
G1 X141.552 Y156.885 E24.70239
G1 X141.68 Y156.813 E24.70651
G1 X141.941 Y156.631 E24.71545
G1 X141.965 Y156.591 E24.71677
G1 X143.419 Y156.591 E24.75762
G1 X143.455 Y156.503 E24.76029
G1 X143.565 Y156.545 E24.7636
G1 X143.704 Y156.584 E24.76766
G1 X143.835 Y156.603 E24.77138
G1 X144.036 Y156.619 E24.77704
G1 X144.267 Y156.605 E24.78354
G1 X144.321 Y156.591 E24.78511
G1 X145.63 Y156.591 E24.82189
G1 X145.704 Y156.606 E24.82401
G1 X145.935 Y156.619 E24.83051
G1 X146.089 Y156.607 E24.83485
G1 X146.274 Y156.578 E24.84012
G1 X146.453 Y156.518 E24.84542
G1 X146.506 Y156.489 E24.84712
G1 X146.652 Y156.545 E24.85151
G1 X146.791 Y156.584 E24.85557
G1 X146.922 Y156.603 E24.85929
G1 X147.123 Y156.619 E24.86495
G1 X147.354 Y156.605 E24.87146
G1 X147.408 Y156.591 E24.87302
G1 X148.741 Y156.591 E24.91048
G1 X148.794 Y156.603 E24.91201
G1 X149.016 Y156.618 E24.91826
G1 X149.199 Y156.605 E24.92341
G1 X149.351 Y156.575 E24.92777
G1 X149.505 Y156.524 E24.93232
G1 X149.531 Y156.532 E24.93309
G1 X149.66 Y156.576 E24.93692
G1 X149.798 Y156.603 E24.94087
G1 X150.018 Y156.626 E24.94708
G1 X150.244 Y156.602 E24.95347
G1 X150.292 Y156.591 E24.95485
G1 X151.375 Y156.591 E24.98528
G1 X151.489 Y156.591 E24.98849
G1 X151.375 Y156.888 E24.99462
G1 X151.489 Y156.888 E24.99501
G1 X153.259 Y156.888 E25.04475
G1 X153.438 Y156.422 E25.05877
G1 X153.45 Y156.391 E25.05971
G1 X153.671 Y156.511 E25.06457
G1 X153.835 Y156.563 E25.0694
G1 X153.981 Y156.6 E25.07363
G1 X154.123 Y156.614 E25.07764
G1 X154.134 Y156.616 E25.07796
G1 X154.281 Y156.621 E25.08209
G1 X154.547 Y156.602 E25.08958
G1 X154.831 Y156.522 E25.09787
G1 X154.925 Y156.476 E25.10081
G1 X155.07 Y156.53 E25.10516
G1 X155.321 Y156.593 E25.11243
G1 X155.551 Y156.621 E25.11894
G1 X155.859 Y156.611 E25.1276
G1 X155.945 Y156.591 E25.13008
G1 X156.67 Y156.591 E25.15045
G1 X156.784 Y156.591 E25.15366
G1 X156.67 Y156.888 E25.15979
G1 X156.784 Y156.888 E25.16018
G1 X158.554 Y156.888 E25.20991
G1 X158.698 Y156.512 E25.22123
G1 X158.704 Y156.498 E25.22166
G1 X158.799 Y156.55 E25.22341
G1 X159.022 Y156.604 E25.22986
G1 X159.204 Y156.623 E25.235
G1 X159.384 Y156.615 E25.24006
G1 X159.515 Y156.591 E25.2438
G1 X160.349 Y156.591 E25.26724
G1 X160.38 Y156.598 E25.26813
G1 X160.535 Y156.62 E25.27253
G1 X160.688 Y156.621 E25.27683
G1 X160.887 Y156.599 E25.28245
G1 X161.076 Y156.545 E25.28798
G1 X161.218 Y156.476 E25.29241
G1 X161.336 Y156.533 E25.29609
G1 X161.522 Y156.588 E25.30154
G1 X161.814 Y156.626 E25.30982
G1 X162.049 Y156.603 E25.31645
G1 X162.183 Y156.576 E25.32029
G1 X162.344 Y156.523 E25.32506
G1 X162.415 Y156.485 E25.32732
G1 X162.49 Y156.527 E25.32973
G1 X162.531 Y156.551 E25.33107
G1 X162.771 Y156.607 E25.33799
G1 X162.957 Y156.623 E25.34324
G1 X163.148 Y156.613 E25.34861
G1 X163.234 Y156.591 E25.35111
G1 X163.99 Y156.591 E25.37235
G1 X164.042 Y156.603 E25.37385
G1 X164.23 Y156.615 E25.37914
G1 X164.444 Y156.599 E25.38517
G1 X165.246 Y156.434 E25.40818
G1 X165.246 Y153.9 E25.47938
G1 X164.867 Y153.9 E25.49003
G1 X164.867 Y153.587 E25.49882
G1 X163.084 Y153.587 E25.54892
G1 X163.084 Y153.9 E25.55772
G1 X162.102 Y153.9 E25.58531
G1 X161.827 Y153.863 E25.59311
G1 X161.486 Y153.909 E25.60277
G1 X161.398 Y153.94 E25.6054
G1 X161.288 Y153.978 E25.60867
G1 X161.243 Y154.003 E25.61011
G1 X161.138 Y153.953 E25.61338
G1 X161.138 Y153.836 E25.61597
G1 X161.138 Y153.472 E25.6262
G1 X157.982 Y153.472 E25.71487
G1 X157.875 Y153.752 E25.7233
G1 X157.865 Y153.777 E25.72405
G1 X157.848 Y153.765 E25.72412
G1 X157.625 Y153.657 E25.72914
G1 X157.4 Y153.586 E25.73577
G1 X157.121 Y153.545 E25.74369
G1 X156.792 Y153.537 E25.75294
G1 X155.981 Y153.537 E25.77573
G1 X155.846 Y153.514 E25.77957
G1 X155.705 Y153.508 E25.78354
G1 X155.451 Y153.517 E25.79068
G1 X155.168 Y153.579 E25.79882
G1 X155.009 Y153.634 E25.80355
G1 X154.945 Y153.662 E25.80551
G1 X154.841 Y153.613 E25.80874
G1 X154.697 Y153.566 E25.813
G1 X154.555 Y153.531 E25.81711
G1 X154.551 Y153.53 E25.81722
G1 X154.555 Y153.517
G1 X154.559 Y153.507
G1 X154.573 Y153.472
G1 X154.551 Y153.472
G1 X152.821 Y153.472 E25.86583
G1 X152.687 Y153.472 E25.8696
G1 X152.504 Y153.948 E25.88393
G1 X152.497 Y153.943 E25.88417
G1 X152.247 Y153.884 E25.89139
G1 X152.126 Y153.874 E25.8948
G1 X152.038 Y153.867 E25.89728
G1 X151.775 Y153.893 E25.9047
G1 X151.695 Y153.92 E25.90708
G1 X151.639 Y153.898 E25.90877
G1 X151.485 Y153.88 E25.91312
G1 X151.593 Y153.819 E25.91342
G1 X151.625 Y153.8
G1 X151.697 Y153.758 E25.91412
G1 X151.905 Y153.638 E25.91897
G1 X151.981 Y153.594 E25.92123
G1 X152.563 Y153.258 E25.94011
G1 X152.679 Y153.191 E25.94346
G1 X154.148 Y152.342 E25.99114
G1 X154.148 Y147.658 E26.12275
G1 X150.092 Y145.315 E26.25436
G1 X146.035 Y147.658 E26.386
G1 X146.035 Y152.342 E26.51762
G1 X148.497 Y153.763 E26.59749
G1 X148.511 Y153.771 E26.59794
G1 X148.59 Y153.817 E26.60051
G1 X148.694 Y153.877 E26.60388
G1 X148.737 Y153.902 E26.60528
G1 X148.676 Y153.91
G1 X148.508 Y153.961 E26.60759
G1 X148.362 Y154.03 E26.61126
G1 X148.348 Y154.039 E26.61171
G1 X148.241 Y154.106 E26.61526
G1 X148.033 Y154.27 E26.6227
G1 X148.018 Y154.247
G1 X147.794 Y154.074 E26.63066
G1 X147.64 Y153.986 E26.63564
G1 X147.409 Y153.9 E26.64257
G1 X147.073 Y153.865 E26.65206
G1 X146.749 Y153.906 E26.66123
G1 X146.565 Y153.965 E26.66666
G1 X146.538 Y153.979 E26.66752
G1 X146.407 Y153.934 E26.67141
G1 X146.15 Y153.885 E26.67876
G1 X145.975 Y153.874 E26.68369
G1 X145.828 Y153.878 E26.68782
G1 X145.661 Y153.904 E26.69257
G1 X145.66 Y153.9 E26.69268
G1 X144.322 Y153.9 E26.73028
G1 X143.986 Y153.865 E26.73977
G1 X143.719 Y153.9 E26.74734
G1 X141.286 Y153.9 E26.8157
G1 X141.162 Y153.877 E26.81924
G1 X140.983 Y153.868 E26.82428
G1 X140.812 Y153.879 E26.8291
G1 X140.615 Y153.928 E26.8348
G1 X140.46 Y153.986 E26.83945
G1 X140.423 Y154.007 E26.84064
G1 X140.309 Y153.943 E26.84432
G1 X140.068 Y153.883 E26.8513
G1 X139.87 Y153.868 E26.85688
G1 X139.688 Y153.879 E26.862
G1 X139.603 Y153.9 E26.86446
G1 X138.486 Y153.9 E26.89584
G1 X138.486 Y153.472 E26.90787
G1 X136.702 Y153.472 E26.958
G1 X136.702 Y153.587 E26.96123
G1 X135.918 Y153.587 E26.98326
G1 X135.918 Y153.9 E26.99205
G1 X135.794 Y153.9 E26.99554
G1 X135.794 Y155.655 E27.04485
G1 X135.934 Y155.655 E27.04878
G1 X135.961 Y155.814 E27.05331
G1 X136.053 Y156.029 E27.05989
G1 X136.21 Y156.28 E27.0682
G1 X136.446 Y156.451 E27.07639
G1 X136.656 Y156.554 E27.08297
G1 X136.874 Y156.603 E27.08924
G1 X137.074 Y156.616 E27.09488
G1 X137.288 Y156.593 E27.10092
G0 F6000 X137.272 Y156.273
G1 F1200 X139.796 Y156.273 E27.17184
