;FLAVOR:Marlin
;TIME:1539
;Filament used: 0.872446m
;Layer height: 0.16
;MINX:104.586
;MINY:131.733
;MINZ:0.12
;MAXX:169.413
;MAXY:194.266
;MAXZ:8.2
;Generated with Cura_SteamEngine 4.6.1
M140 S60
M105
M190 S60
M104 S220
M105
M109 S220
M82 ;absolute extrusion mode
M201 X500.00 Y500.00 Z100.00 E5000.00 ;Setup machine max acceleration
M203 X500.00 Y500.00 Z10.00 E50.00 ;Setup machine max feedrate
M204 P500.00 R1000.00 T500.00 ;Setup Print/Retract/Travel acceleration
M205 X8.00 Y8.00 Z0.40 E5.00 ;Setup Jerk
M220 S100 ;Reset Feedrate
M221 S100 ;Reset Flowrate

G28 ;Home

G92 E0 ;Reset Extruder
G1 Z2.0 F3000 ;Move Z Axis up
G1 X10.1 Y20 Z0.28 F5000.0 ;Move to start position
G1 X10.1 Y200.0 Z0.28 F1500.0 E15 ;Draw the first line
G1 X10.4 Y200.0 Z0.28 F5000.0 ;Move to side a little
G1 X10.4 Y20 Z0.28 F1500.0 E30 ;Draw the second line
G92 E0 ;Reset Extruder
G1 Z2.0 F3000 ;Move Z Axis up

G92 E0
G92 E0
G1 F2700 E-5
;LAYER_COUNT:46
;LAYER:0
M107
G0 F6000 X154.431 Y132.389 Z0.12
;TYPE:SKIRT
G1 F2700 E0
G1 F1200 X155.331 Y132.439 E0.01727
G1 X156.223 Y132.569 E0.03454
G1 X157.1 Y132.778 E0.05181
G1 X157.955 Y133.063 E0.06908
G1 X158.781 Y133.423 E0.08634
G1 X159.572 Y133.855 E0.1036
G1 X160.322 Y134.355 E0.12087
G1 X161.024 Y134.92 E0.13814
G1 X161.674 Y135.545 E0.15541
G1 X162.266 Y136.225 E0.17268
G1 X162.795 Y136.955 E0.18996
G1 X163.044 Y137.353 E0.19895
G1 X163.469 Y138.068 E0.21488
G1 X167.141 Y144.429 E0.3556
G1 X167.481 Y145.037 E0.36894
G1 X167.885 Y145.843 E0.38621
G1 X168.217 Y146.681 E0.40348
G1 X168.473 Y147.545 E0.42074
G1 X168.651 Y148.428 E0.438
G1 X168.751 Y149.324 E0.45527
G1 X168.77 Y150.225 E0.47254
G1 X168.712 Y151.109 E0.48951
G1 X168.583 Y152.265 E0.51179
G1 X168.514 Y152.797 E0.52207
G1 X168.265 Y155.29 E0.57007
G1 X168.084 Y157.819 E0.61864
G1 X167.973 Y160.386 E0.66787
G1 X167.934 Y162.909 E0.71621
G1 X167.968 Y165.466 E0.7652
G1 X168.073 Y167.998 E0.81375
G1 X168.25 Y170.526 E0.8623
G1 X168.496 Y173.032 E0.91054
G1 X168.568 Y173.601 E0.92153
G1 X168.71 Y174.847 E0.94555
G1 X168.772 Y175.746 E0.96282
G1 X168.754 Y176.647 E0.98008
G1 X168.657 Y177.543 E0.99735
G1 X168.48 Y178.427 E1.01462
G1 X168.226 Y179.292 E1.03189
G1 X167.896 Y180.13 E1.04914
G1 X167.483 Y180.955 E1.06682
G1 X167.031 Y181.762 E1.08454
G1 X163.423 Y188.01 E1.22276
G1 X163.048 Y188.641 E1.23682
G1 X162.554 Y189.394 E1.25408
G1 X161.994 Y190.101 E1.27136
G1 X161.375 Y190.756 E1.28862
G1 X160.699 Y191.353 E1.3059
G1 X159.974 Y191.887 E1.32315
G1 X159.204 Y192.356 E1.34042
G1 X158.395 Y192.754 E1.35769
G1 X157.555 Y193.079 E1.37495
G1 X156.689 Y193.329 E1.39222
G1 X155.804 Y193.5 E1.40949
G1 X154.488 Y193.609 E1.43478
G1 X153.62 Y193.622 E1.45141
G1 X146.239 Y193.626 E1.59282
G1 X145.552 Y193.616 E1.60598
G1 X144.652 Y193.563 E1.62325
G1 X143.761 Y193.43 E1.64051
G1 X142.885 Y193.219 E1.65777
G1 X142.03 Y192.931 E1.67506
G1 X141.205 Y192.569 E1.69232
G1 X140.415 Y192.134 E1.7096
G1 X139.667 Y191.632 E1.72685
G1 X138.966 Y191.065 E1.74413
G1 X138.319 Y190.438 E1.76139
G1 X137.557 Y189.532 E1.78407
G1 X137.088 Y188.895 E1.79922
G1 X136.128 Y187.521 E1.83133
G1 X134.616 Y185.481 E1.87998
G1 X133.038 Y183.471 E1.92894
G1 X131.409 Y181.515 E1.9777
G1 X129.721 Y179.6 E2.02661
G1 X128.009 Y177.765 E2.07469
G1 X126.226 Y175.96 E2.12329
G1 X124.376 Y174.189 E2.17236
G1 X122.506 Y172.499 E2.22064
G1 X120.561 Y170.837 E2.26966
G1 X118.571 Y169.231 E2.31865
G1 X116.545 Y167.691 E2.3674
G1 X114.433 Y166.177 E2.41719
G1 X113.902 Y165.808 E2.42957
G1 X113.185 Y165.261 E2.44685
G1 X112.52 Y164.653 E2.46411
G1 X111.912 Y163.988 E2.48137
G1 X111.365 Y163.271 E2.49865
G1 X111.012 Y162.728 E2.51106
G1 X110.508 Y161.892 E2.52976
G1 X106.845 Y155.545 E2.67015
G1 X106.516 Y154.956 E2.68308
G1 X106.112 Y154.15 E2.70035
G1 X105.781 Y153.312 E2.71761
G1 X105.525 Y152.447 E2.73489
G1 X105.347 Y151.564 E2.75215
G1 X105.248 Y150.668 E2.76942
G1 X105.229 Y149.767 E2.78668
G1 X105.289 Y148.867 E2.80397
G1 X105.43 Y147.977 E2.82123
G1 X105.648 Y147.103 E2.83849
G1 X105.943 Y146.251 E2.85576
G1 X106.516 Y145.046 E2.88132
G1 X106.954 Y144.264 E2.89849
G1 X110.635 Y137.891 E3.03949
G1 X110.964 Y137.34 E3.05178
G1 X111.46 Y136.588 E3.06904
G1 X112.02 Y135.882 E3.0863
G1 X112.641 Y135.229 E3.10357
G1 X113.318 Y134.633 E3.12085
G1 X114.045 Y134.1 E3.13812
G1 X114.816 Y133.633 E3.15539
G1 X115.625 Y133.236 E3.17265
G1 X116.466 Y132.913 E3.18991
G1 X117.333 Y132.665 E3.20719
G1 X118.218 Y132.496 E3.22445
G1 X119.47 Y132.391 E3.24852
G1 X120.441 Y132.373 E3.26712
G1 X127.753 Y132.378 E3.4072
G1 X128.48 Y132.389 E3.42113
G1 X129.066 Y132.415 E3.43237
G1 X130.38 Y132.511 E3.45761
G1 X133.036 Y132.666 E3.50858
G1 X135.547 Y132.742 E3.55671
G1 X136.969 Y132.753 E3.58395
G1 X139.523 Y132.717 E3.63289
G1 X142.034 Y132.611 E3.68103
G1 X143.666 Y132.488 E3.71239
G1 X145.062 Y132.403 E3.73918
G1 X145.531 Y132.385 E3.74817
G1 X146.439 Y132.373 E3.76557
G1 X153.285 Y132.376 E3.89673
G1 X154.431 Y132.389 E3.91868
G0 F6000 X154.435 Y132.069
G1 F1200 X155.349 Y132.119 E3.93622
G1 X156.255 Y132.25 E3.95376
G1 X157.146 Y132.458 E3.97128
G1 X158.016 Y132.744 E3.98883
G1 X158.857 Y133.105 E4.00636
G1 X159.664 Y133.537 E4.0239
G1 X160.43 Y134.039 E4.04144
G1 X161.149 Y134.605 E4.05897
G1 X161.816 Y135.232 E4.07651
G1 X162.426 Y135.914 E4.09404
G1 X162.974 Y136.648 E4.11159
G1 X163.319 Y137.189 E4.12388
G1 X163.746 Y137.908 E4.1399
G1 X167.42 Y144.273 E4.2807
G1 X167.76 Y144.881 E4.29404
G1 X168.171 Y145.699 E4.31158
G1 X168.51 Y146.549 E4.32911
G1 X168.773 Y147.426 E4.34665
G1 X168.959 Y148.322 E4.36419
G1 X169.065 Y149.232 E4.38174
G1 X169.092 Y150.147 E4.39927
G1 X169.03 Y151.144 E4.41841
G1 X168.9 Y152.306 E4.44081
G1 X168.836 Y152.799 E4.45034
G1 X168.581 Y155.345 E4.49936
G1 X168.402 Y157.856 E4.54758
G1 X168.293 Y160.369 E4.59577
G1 X168.254 Y162.909 E4.64444
G1 X168.288 Y165.449 E4.6931
G1 X168.392 Y167.963 E4.74131
G1 X168.57 Y170.505 E4.79013
G1 X168.818 Y173.032 E4.83877
G1 X168.886 Y173.564 E4.84905
G1 X169.028 Y174.81 E4.87307
G1 X169.091 Y175.724 E4.89062
G1 X169.075 Y176.639 E4.90816
G1 X168.979 Y177.549 E4.92569
G1 X168.804 Y178.448 E4.94323
G1 X168.552 Y179.328 E4.96077
G1 X168.223 Y180.182 E4.9783
G1 X167.762 Y181.111 E4.99817
G1 X167.308 Y181.922 E5.01598
G1 X163.698 Y188.173 E5.15427
G1 X163.323 Y188.804 E5.16833
G1 X162.822 Y189.57 E5.18586
G1 X162.255 Y190.289 E5.20341
G1 X161.628 Y190.956 E5.22094
G1 X160.945 Y191.565 E5.23847
G1 X160.212 Y192.113 E5.25601
G1 X159.433 Y192.595 E5.27356
G1 X158.615 Y193.007 E5.2911
G1 X157.765 Y193.345 E5.30863
G1 X156.888 Y193.609 E5.32618
G1 X155.992 Y193.795 E5.34371
G1 X155.083 Y193.902 E5.36124
G1 X154.493 Y193.928 E5.37256
G1 X153.62 Y193.942 E5.38928
G1 X146.234 Y193.946 E5.53078
G1 X145.547 Y193.936 E5.54394
G1 X144.634 Y193.883 E5.56147
G1 X143.728 Y193.75 E5.57901
G1 X142.837 Y193.538 E5.59655
G1 X141.968 Y193.25 E5.61409
G1 X141.128 Y192.887 E5.63162
G1 X140.322 Y192.452 E5.64917
G1 X139.558 Y191.949 E5.66669
G1 X138.84 Y191.38 E5.68425
G1 X138.175 Y190.751 E5.70178
G1 X137.3 Y189.724 E5.72763
G1 X136.825 Y189.079 E5.74298
G1 X135.84 Y187.668 E5.77594
G1 X134.364 Y185.677 E5.82342
G1 X132.787 Y183.669 E5.87234
G1 X131.181 Y181.74 E5.92043
G1 X129.49 Y179.823 E5.9694
G1 X127.774 Y177.982 E6.01761
G1 X126.003 Y176.189 E6.06589
G1 X124.148 Y174.414 E6.11508
G1 X122.274 Y172.72 E6.16348
G1 X120.379 Y171.101 E6.21123
G1 X118.364 Y169.475 E6.26083
G1 X116.374 Y167.962 E6.30872
G1 X114.256 Y166.445 E6.35863
G1 X113.719 Y166.071 E6.37117
G1 X112.991 Y165.516 E6.38871
G1 X112.314 Y164.899 E6.40625
G1 X111.694 Y164.226 E6.42378
G1 X111.135 Y163.501 E6.44132
G1 X110.738 Y162.894 E6.45522
G1 X110.231 Y162.052 E6.47405
G1 X106.566 Y155.701 E6.61453
G1 X106.237 Y155.112 E6.62745
G1 X105.825 Y154.294 E6.645
G1 X105.487 Y153.443 E6.66254
G1 X105.225 Y152.566 E6.68007
G1 X105.04 Y151.67 E6.6976
G1 X104.934 Y150.76 E6.71515
G1 X104.907 Y149.845 E6.73269
G1 X104.961 Y148.931 E6.75023
G1 X105.094 Y148.026 E6.76776
G1 X105.305 Y147.135 E6.7853
G1 X105.594 Y146.266 E6.80284
G1 X105.957 Y145.426 E6.82037
G1 X106.237 Y144.89 E6.83196
G1 X106.677 Y144.104 E6.84921
G1 X110.36 Y137.727 E6.9903
G1 X110.689 Y137.176 E7.00259
G1 X111.192 Y136.412 E7.02011
G1 X111.76 Y135.694 E7.03765
G1 X112.389 Y135.028 E7.0552
G1 X113.073 Y134.42 E7.07274
G1 X113.807 Y133.874 E7.09026
G1 X114.587 Y133.394 E7.10781
G1 X115.405 Y132.984 E7.12534
G1 X116.256 Y132.646 E7.14288
G1 X117.134 Y132.385 E7.16043
G1 X118.03 Y132.201 E7.17795
G1 X118.94 Y132.096 E7.1955
G1 X119.463 Y132.071 E7.20553
G1 X120.441 Y132.053 E7.22427
G1 X127.758 Y132.058 E7.36445
G1 X128.485 Y132.069 E7.37838
G1 X129.089 Y132.096 E7.38996
G1 X130.423 Y132.193 E7.41558
G1 X133.027 Y132.346 E7.46556
G1 X135.56 Y132.422 E7.51411
G1 X136.967 Y132.433 E7.54106
G1 X139.506 Y132.397 E7.58971
G1 X142.026 Y132.29 E7.63803
G1 X143.646 Y132.168 E7.66915
G1 X145.042 Y132.083 E7.69595
G1 X145.527 Y132.065 E7.70525
G1 X146.44 Y132.053 E7.72274
G1 X153.286 Y132.056 E7.85389
G1 X154.435 Y132.069 E7.87591
G0 F6000 X154.439 Y131.749
G1 F1200 X155.366 Y131.8 E7.89369
G1 X156.287 Y131.93 E7.91151
G1 X157.192 Y132.139 E7.92931
G1 X158.076 Y132.425 E7.94711
G1 X158.933 Y132.786 E7.96492
G1 X159.755 Y133.219 E7.98272
G1 X160.537 Y133.721 E8.00052
G1 X161.272 Y134.289 E8.01832
G1 X161.957 Y134.918 E8.03614
G1 X162.584 Y135.603 E8.05393
G1 X163.151 Y136.34 E8.07174
G1 X163.594 Y137.026 E8.08738
G1 X164.023 Y137.748 E8.10347
G1 X167.699 Y144.117 E8.24436
G1 X168.039 Y144.725 E8.2577
G1 X168.457 Y145.555 E8.2755
G1 X168.803 Y146.417 E8.2933
G1 X169.073 Y147.307 E8.31112
G1 X169.265 Y148.216 E8.32892
G1 X169.379 Y149.138 E8.34671
G1 X169.413 Y150.067 E8.36452
G1 X169.348 Y151.179 E8.38586
G1 X169.217 Y152.347 E8.40838
G1 X169.154 Y152.837 E8.41784
G1 X168.9 Y155.367 E8.46656
G1 X168.722 Y157.855 E8.51434
G1 X168.613 Y160.388 E8.56292
G1 X168.574 Y162.909 E8.61122
G1 X168.608 Y165.43 E8.65952
G1 X168.713 Y167.962 E8.70807
G1 X168.889 Y170.489 E8.7566
G1 X169.136 Y172.992 E8.80478
G1 X169.204 Y173.528 E8.81513
G1 X169.346 Y174.774 E8.83916
G1 X169.411 Y175.701 E8.85696
G1 X169.396 Y176.63 E8.87476
G1 X169.302 Y177.555 E8.89257
G1 X169.129 Y178.468 E8.91038
G1 X168.877 Y179.362 E8.92817
G1 X168.55 Y180.232 E8.94598
G1 X168.042 Y181.268 E8.96808
G1 X167.585 Y182.082 E8.98597
G1 X163.973 Y188.337 E9.12434
G1 X163.598 Y188.968 E9.13841
G1 X163.09 Y189.745 E9.15619
G1 X162.516 Y190.476 E9.174
G1 X161.881 Y191.155 E9.19181
G1 X161.191 Y191.777 E9.2096
G1 X160.45 Y192.338 E9.22741
G1 X159.663 Y192.832 E9.24521
G1 X158.837 Y193.257 E9.26301
G1 X157.977 Y193.61 E9.28082
G1 X157.09 Y193.887 E9.29862
G1 X156.182 Y194.087 E9.31643
G1 X155.261 Y194.208 E9.33423
G1 X154.499 Y194.248 E9.34884
G1 X153.62 Y194.262 E9.36569
G1 X146.23 Y194.266 E9.50726
G1 X145.543 Y194.256 E9.52043
G1 X144.615 Y194.202 E9.53823
G1 X143.695 Y194.069 E9.55604
G1 X142.79 Y193.858 E9.57385
G1 X141.907 Y193.569 E9.59165
G1 X141.052 Y193.206 E9.60944
G1 X140.231 Y192.77 E9.62725
G1 X139.451 Y192.265 E9.64505
G1 X138.717 Y191.695 E9.66285
G1 X138.034 Y191.065 E9.68066
G1 X137.409 Y190.377 E9.69846
G1 X137.044 Y189.915 E9.70974
G1 X136.563 Y189.262 E9.72528
G1 X135.609 Y187.896 E9.7572
G1 X134.085 Y185.839 E9.80625
G1 X132.546 Y183.88 E9.85397
G1 X130.923 Y181.931 E9.90256
G1 X129.259 Y180.044 E9.95076
G1 X127.555 Y178.217 E9.99862
G1 X125.762 Y176.402 E10.0475
G1 X123.939 Y174.657 E10.09585
G1 X122.058 Y172.956 E10.14443
G1 X120.161 Y171.336 E10.19222
G1 X118.178 Y169.735 E10.24105
G1 X116.203 Y168.234 E10.28857
G1 X114.018 Y166.669 E10.34006
G1 X113.536 Y166.333 E10.35132
G1 X112.797 Y165.77 E10.36912
G1 X112.109 Y165.146 E10.38691
G1 X111.477 Y164.465 E10.40471
G1 X110.906 Y163.731 E10.42253
G1 X110.464 Y163.06 E10.43792
G1 X109.954 Y162.212 E10.45688
G1 X106.286 Y155.857 E10.59745
G1 X105.957 Y155.268 E10.61037
G1 X105.539 Y154.438 E10.62818
G1 X105.194 Y153.575 E10.64598
G1 X104.925 Y152.685 E10.66379
G1 X104.733 Y151.776 E10.68159
G1 X104.62 Y150.854 E10.69939
G1 X104.586 Y149.925 E10.7172
G1 X104.633 Y148.997 E10.735
G1 X104.759 Y148.076 E10.75281
G1 X104.964 Y147.17 E10.7706
G1 X105.246 Y146.284 E10.78842
G1 X105.603 Y145.426 E10.80622
G1 X105.957 Y144.734 E10.82111
G1 X106.4 Y143.944 E10.83846
G1 X110.085 Y137.563 E10.97963
G1 X110.414 Y137.012 E10.99193
G1 X110.925 Y136.236 E11.00973
G1 X111.5 Y135.506 E11.02753
G1 X112.136 Y134.828 E11.04534
G1 X112.827 Y134.207 E11.06314
G1 X113.57 Y133.649 E11.08094
G1 X114.358 Y133.156 E11.09874
G1 X115.185 Y132.732 E11.11655
G1 X116.045 Y132.381 E11.13434
G1 X116.933 Y132.106 E11.15215
G1 X117.841 Y131.908 E11.16996
G1 X118.762 Y131.789 E11.18775
G1 X119.456 Y131.751 E11.20106
G1 X120.441 Y131.733 E11.21994
G1 X127.762 Y131.738 E11.36019
G1 X128.489 Y131.749 E11.37412
G1 X129.112 Y131.777 E11.38607
G1 X130.394 Y131.871 E11.4107
G1 X133.056 Y132.026 E11.46178
G1 X135.573 Y132.102 E11.51002
G1 X136.965 Y132.113 E11.53669
G1 X139.523 Y132.077 E11.5857
G1 X141.989 Y131.972 E11.63299
G1 X143.627 Y131.849 E11.66446
G1 X145.023 Y131.764 E11.69125
G1 X145.522 Y131.745 E11.70082
G1 X146.44 Y131.733 E11.71841
G1 X153.286 Y131.736 E11.84956
G1 X154.439 Y131.749 E11.87165
G1 F2700 E6.87165
;MESH:HIVE_Knob.stl(2)
G0 F6000 X133.058 Y149.418
G0 X132.052 Y150
G0 X127.855 Y156.662
;TYPE:WALL-INNER
G1 F2700 E11.87165
G1 F1200 X120.148 Y156.667 E12.0193
G1 X116.297 Y150 E12.1668
G1 X120.148 Y143.333 E12.3143
G1 X127.281 Y143.336 E12.45096
G1 X127.855 Y143.338 E12.46195
G1 X131.703 Y150 E12.60934
G1 X127.855 Y156.662 E12.75673
G0 F6000 X128.04 Y156.982
G1 F1200 X119.963 Y156.987 E12.91147
G1 X115.928 Y150 E13.06604
G1 X119.963 Y143.013 E13.22062
G1 X127.281 Y143.016 E13.36081
G1 X128.04 Y143.018 E13.37536
G1 X132.072 Y150 E13.52982
G1 X128.04 Y156.982 E13.68428
G0 F6000 X128.225 Y157.302
;TYPE:WALL-OUTER
G1 F1200 X119.778 Y157.307 E13.84611
G1 X115.559 Y150 E14.00775
G1 X119.778 Y142.693 E14.1694
G1 X127.281 Y142.696 E14.31314
G1 X128.225 Y142.698 E14.33122
G1 X132.441 Y150 E14.49276
G1 X128.225 Y157.302 E14.65429
G0 F6000 X128.05 Y156.95
G0 X127.675 Y156.352
;TYPE:SKIN
G1 F1200 X120.328 Y156.357 E14.79504
G1 X116.655 Y150 E14.9357
G1 X120.328 Y143.643 E15.07635
G1 X127.281 Y143.646 E15.20955
G1 X127.675 Y143.648 E15.2171
G1 X131.345 Y150 E15.35764
G1 X127.675 Y156.352 E15.49819
G0 F6000 X120.483 Y156.235
G1 F1200 X120.279 Y156.03 E15.50373
G0 F6000 X120.936 Y156.235
G1 F1200 X119.66 Y154.958 E15.53831
G0 F6000 X119.04 Y153.886
G1 F1200 X121.389 Y156.235 E15.60195
G0 F6000 X121.84 Y156.234
G1 F1200 X118.42 Y152.814 E15.69461
G0 F6000 X117.8 Y151.741
G1 F1200 X122.293 Y156.234 E15.81634
G0 F6000 X122.745 Y156.234
G1 F1200 X117.18 Y150.668 E15.96713
G0 F6000 X116.855 Y149.891
G1 F1200 X123.197 Y156.233 E16.13895
G0 F6000 X123.65 Y156.233
G1 F1200 X117.021 Y149.604 E16.31856
G0 F6000 X117.186 Y149.317
G1 F1200 X124.102 Y156.233 E16.50593
G0 F6000 X124.554 Y156.233
G1 F1200 X117.352 Y149.031 E16.70106
G0 F6000 X117.518 Y148.744
G1 F1200 X125.007 Y156.233 E16.90396
G0 F6000 X125.459 Y156.232
G1 F1200 X117.684 Y148.457 E17.11461
G0 F6000 X117.849 Y148.17
G1 F1200 X125.911 Y156.232 E17.33304
G0 F6000 X126.364 Y156.232
G1 F1200 X118.015 Y147.883 E17.55924
G0 F6000 X118.181 Y147.597
G1 F1200 X126.816 Y156.231 E17.79318
G0 F6000 X127.268 Y156.231
G1 F1200 X118.347 Y147.31 E18.03487
G0 F6000 X118.513 Y147.023
G1 F1200 X127.648 Y156.158 E18.28237
G0 F6000 X127.813 Y155.871
G1 F1200 X118.678 Y146.736 E18.52987
G0 F6000 X118.844 Y146.45
G1 F1200 X127.979 Y155.584 E18.77735
G0 F6000 X128.145 Y155.298
G1 F1200 X119.01 Y146.163 E19.02485
G0 F6000 X119.175 Y145.876
G1 F1200 X128.31 Y155.011 E19.27235
G0 F6000 X128.476 Y154.724
G1 F1200 X119.341 Y145.589 E19.51984
G0 F6000 X119.507 Y145.302
G1 F1200 X128.642 Y154.437 E19.76734
G0 F6000 X128.807 Y154.15
G1 F1200 X119.673 Y145.016 E20.01481
G0 F6000 X119.839 Y144.729
G1 F1200 X128.973 Y153.863 E20.26228
G0 F6000 X129.139 Y153.577
G1 F1200 X120.004 Y144.442 E20.50978
G0 F6000 X120.17 Y144.155
G1 F1200 X129.305 Y153.29 E20.75727
G0 F6000 X129.47 Y153.003
G1 F1200 X120.336 Y143.868 E21.00476
