;FLAVOR:Marlin
;TIME:1152
;Filament used: 0.627087m
;Layer height: 0.2
;MINX:123.007
;MINY:125.113
;MINZ:0.2
;MAXX:176.991
;MAXY:174.893
;MAXZ:10
;Generated with Cura_SteamEngine 4.6.1
M140 S50
M105
M190 S50
M104 S200
M105
M109 S200
M82 ;absolute extrusion mode
M201 X500.00 Y500.00 Z100.00 E5000.00 ;Setup machine max acceleration
M203 X500.00 Y500.00 Z10.00 E50.00 ;Setup machine max feedrate
M204 P500.00 R1000.00 T500.00 ;Setup Print/Retract/Travel acceleration
M205 X8.00 Y8.00 Z0.40 E5.00 ;Setup Jerk
M220 S100 ;Reset Feedrate
M221 S100 ;Reset Flowrate

G28 ;Home

G92 E0 ;Reset Extruder
G1 Z2.0 F3000 ;Move Z Axis up
G1 X10.1 Y20 Z0.28 F5000.0 ;Move to start position
G1 X10.1 Y200.0 Z0.28 F1500.0 E15 ;Draw the first line
G1 X10.4 Y200.0 Z0.28 F5000.0 ;Move to side a little
G1 X10.4 Y20 Z0.28 F1500.0 E30 ;Draw the second line
G92 E0 ;Reset Extruder
G1 Z2.0 F3000 ;Move Z Axis up

G92 E0
G92 E0
G1 F2700 E-5
;LAYER_COUNT:50
;LAYER:0
M107
G0 F6000 X137.132 Y126.094 Z0.2
;TYPE:SKIRT
G1 F2700 E0
G1 F1200 X139.703 Y126.427 E0.08623
G1 X142.237 Y126.684 E0.17094
G1 X144.759 Y126.867 E0.25504
G1 X147.292 Y126.979 E0.33937
G1 X149.861 Y127.02 E0.42483
G1 X152.358 Y126.989 E0.50789
G1 X154.926 Y126.885 E0.59337
G1 X157.461 Y126.709 E0.67789
G1 X159.984 Y126.464 E0.7622
G1 X162.861 Y126.095 E0.85867
G1 X163.385 Y126.02 E0.87627
G1 X164.284 Y125.932 E0.90632
G1 X165.187 Y125.923 E0.93635
G1 X165.841 Y125.967 E0.95815
G1 X166.113 Y125.994 E0.96725
G1 X167.006 Y126.123 E0.99726
G1 X167.885 Y126.33 E1.02729
G1 X168.743 Y126.615 E1.05736
G1 X169.571 Y126.974 E1.08738
G1 X170.365 Y127.405 E1.11743
G1 X171.117 Y127.904 E1.14744
G1 X171.822 Y128.468 E1.17747
G1 X172.317 Y128.932 E1.20004
G1 X172.648 Y129.263 E1.21561
G1 X173.258 Y129.929 E1.24565
G1 X173.807 Y130.646 E1.27568
G1 X174.289 Y131.41 E1.30573
G1 X174.738 Y132.289 E1.33856
G1 X174.882 Y132.609 E1.35023
G1 X175.215 Y133.448 E1.38025
G1 X175.474 Y134.314 E1.41031
G1 X175.654 Y135.199 E1.44035
G1 X175.756 Y136.096 E1.47038
G1 X175.779 Y136.633 E1.48825
G1 X175.799 Y138.065 E1.53589
G1 X175.793 Y138.87 E1.56266
G1 X175.846 Y141.414 E1.6473
G1 X175.971 Y143.98 E1.73274
G1 X176.14 Y146.259 E1.80875
G1 X176.162 Y146.65 E1.82178
G1 X176.185 Y147.3 E1.84341
G1 X176.191 Y147.743 E1.85814
G1 X176.178 Y148.795 E1.89314
G1 X176.152 Y149.357 E1.91185
G1 X176.109 Y149.997 E1.93318
G1 X176.068 Y150.45 E1.94831
G1 X175.947 Y151.491 E1.98317
G1 X175.857 Y152.091 E2.00335
G1 X175.75 Y152.694 E2.02372
G1 X175.609 Y153.401 E2.04769
G1 X175.492 Y153.927 E2.06562
G1 X175.377 Y154.39 E2.08148
G1 X175.186 Y155.092 E2.10568
G1 X175.094 Y155.41 E2.11669
G1 X174.921 Y155.965 E2.13603
G1 X174.691 Y156.644 E2.15987
G1 X174.488 Y157.199 E2.17953
G1 X174.227 Y157.86 E2.20316
G1 X173.951 Y158.507 E2.22656
G1 X173.72 Y159.011 E2.245
G1 X173.335 Y159.8 E2.2742
G1 X173.095 Y160.26 E2.29146
G1 X172.761 Y160.866 E2.31447
G1 X172.461 Y161.377 E2.33418
G1 X172.085 Y161.985 E2.35795
G1 X171.652 Y162.645 E2.38421
G1 X171.347 Y163.081 E2.40191
G1 X170.955 Y163.618 E2.42402
G1 X170.775 Y163.856 E2.43394
G1 X170.572 Y164.116 E2.44492
G1 X170.154 Y164.633 E2.46703
G1 X169.865 Y164.975 E2.48192
G1 X169.219 Y165.699 E2.51419
G1 X168.744 Y166.199 E2.53713
G1 X168.266 Y166.675 E2.55957
G1 X167.809 Y167.109 E2.58053
G1 X167.32 Y167.551 E2.60245
G1 X166.748 Y168.041 E2.6275
G1 X166.289 Y168.414 E2.64718
G1 X165.814 Y168.781 E2.66714
G1 X165.248 Y169.198 E2.69052
G1 X164.627 Y169.63 E2.71568
G1 X164.231 Y169.892 E2.73148
G1 X163.841 Y170.137 E2.7468
G1 X163.044 Y170.614 E2.77769
G1 X162.582 Y170.875 E2.79534
G1 X161.779 Y171.296 E2.82549
G1 X161.142 Y171.607 E2.84907
G1 X160.683 Y171.816 E2.86585
G1 X160.085 Y172.075 E2.88752
G1 X159.691 Y172.236 E2.90168
G1 X159.064 Y172.477 E2.92402
G1 X158.705 Y172.607 E2.93672
G1 X158.116 Y172.805 E2.95738
G1 X157.428 Y173.018 E2.98134
G1 X156.69 Y173.227 E3.00685
G1 X156.215 Y173.347 E3.02315
G1 X155.569 Y173.496 E3.0452
G1 X155.221 Y173.57 E3.05703
G1 X154.886 Y173.635 E3.06838
G1 X154.109 Y173.771 E3.09462
G1 X153.802 Y173.818 E3.10494
G1 X153.489 Y173.86 E3.11545
G1 X152.831 Y173.94 E3.13749
G1 X152.384 Y173.985 E3.15244
G1 X151.396 Y174.057 E3.18539
G1 X150.803 Y174.083 E3.20513
G1 X150.291 Y174.093 E3.22216
G1 X149.635 Y174.091 E3.24398
G1 X149.014 Y174.076 E3.26464
G1 X148.53 Y174.053 E3.28076
G1 X147.708 Y173.994 E3.30817
G1 X147.191 Y173.943 E3.32544
G1 X146.118 Y173.806 E3.36142
G1 X145.571 Y173.719 E3.37984
G1 X144.961 Y173.606 E3.40048
G1 X144.164 Y173.437 E3.42758
G1 X143.58 Y173.297 E3.44755
G1 X143.017 Y173.148 E3.46692
G1 X142.363 Y172.957 E3.48958
G1 X141.913 Y172.816 E3.50527
G1 X141.599 Y172.712 E3.51627
G1 X141.015 Y172.506 E3.53686
G1 X140.449 Y172.292 E3.55699
G1 X139.849 Y172.049 E3.57852
G1 X139.165 Y171.749 E3.60336
G1 X138.59 Y171.48 E3.62448
G1 X137.981 Y171.175 E3.64713
G1 X137.564 Y170.956 E3.6628
G1 X136.933 Y170.603 E3.68684
G1 X136.203 Y170.167 E3.71513
G1 X135.738 Y169.872 E3.73344
G1 X135.124 Y169.459 E3.75805
G1 X134.287 Y168.859 E3.79231
G1 X133.561 Y168.294 E3.8229
G1 X132.97 Y167.803 E3.84846
G1 X132.563 Y167.447 E3.86644
G1 X131.988 Y166.92 E3.89238
G1 X131.772 Y166.714 E3.90231
G1 X131.556 Y166.501 E3.9124
G1 X131.059 Y165.995 E3.93599
G1 X130.649 Y165.554 E3.95602
G1 X130.095 Y164.928 E3.98382
G1 X129.771 Y164.541 E4.00061
G1 X129.285 Y163.934 E4.02647
G1 X128.952 Y163.492 E4.04488
G1 X128.495 Y162.856 E4.07093
G1 X128.146 Y162.341 E4.09162
G1 X127.793 Y161.79 E4.11338
G1 X127.446 Y161.22 E4.13558
G1 X127.136 Y160.678 E4.15635
G1 X126.772 Y160.006 E4.18176
G1 X126.524 Y159.516 E4.20003
G1 X126.28 Y159.01 E4.21871
G1 X126.091 Y158.593 E4.23394
G1 X125.65 Y157.552 E4.27154
G1 X125.459 Y157.057 E4.28919
G1 X125.318 Y156.671 E4.30286
G1 X125.212 Y156.365 E4.31363
G1 X124.925 Y155.469 E4.34492
G1 X124.85 Y155.214 E4.35376
G1 X124.673 Y154.576 E4.37579
G1 X124.562 Y154.138 E4.39081
G1 X124.342 Y153.166 E4.42396
G1 X124.288 Y152.9 E4.43299
G1 X124.226 Y152.565 E4.44432
G1 X124.088 Y151.728 E4.47253
G1 X124.016 Y151.196 E4.49039
G1 X123.966 Y150.773 E4.50456
G1 X123.921 Y150.297 E4.52046
G1 X123.842 Y149.182 E4.55764
G1 X123.818 Y148.643 E4.57558
G1 X123.807 Y147.884 E4.60083
G1 X123.816 Y147.313 E4.61982
G1 X123.843 Y146.559 E4.64492
G1 X123.862 Y146.2 E4.65687
G1 X124.064 Y143.358 E4.75164
G1 X124.173 Y140.828 E4.83586
G1 X124.205 Y137.025 E4.96236
G1 X124.274 Y135.76 E5.00449
G1 X124.297 Y135.563 E5.01109
G1 X124.441 Y134.672 E5.04111
G1 X124.664 Y133.796 E5.07117
G1 X125.019 Y132.807 E5.10612
G1 X125.109 Y132.592 E5.11388
G1 X125.494 Y131.776 E5.14389
G1 X125.95 Y130.996 E5.17394
G1 X126.414 Y130.338 E5.20072
G1 X126.589 Y130.109 E5.2103
G1 X127.168 Y129.416 E5.24034
G1 X127.807 Y128.777 E5.27039
G1 X128.724 Y128.031 E5.30971
G1 X128.936 Y127.878 E5.31841
G1 X129.691 Y127.382 E5.34845
G1 X130.487 Y126.956 E5.37848
G1 X131.317 Y126.601 E5.40851
G1 X132.176 Y126.321 E5.43856
G1 X133.299 Y126.076 E5.47679
G1 X133.531 Y126.039 E5.4846
G1 X134.428 Y125.937 E5.51463
G1 X135.331 Y125.914 E5.54467
G1 X136.584 Y126.015 E5.58648
G1 X137.132 Y126.094 E5.60489
G0 F6000 X137.173 Y125.695
G1 F1200 X139.758 Y126.031 E5.6916
G1 X142.27 Y126.285 E5.77557
G1 X144.772 Y126.467 E5.85901
G1 X147.314 Y126.579 E5.94364
G1 X149.863 Y126.62 E6.02843
G1 X152.372 Y126.589 E6.11188
G1 X154.88 Y126.487 E6.19537
G1 X157.434 Y126.31 E6.28052
G1 X159.924 Y126.068 E6.36373
G1 X162.829 Y125.696 E6.46114
G1 X163.329 Y125.624 E6.47794
G1 X164.245 Y125.533 E6.50855
G1 X165.165 Y125.522 E6.53916
G1 X165.88 Y125.569 E6.56299
G1 X166.152 Y125.596 E6.57208
G1 X167.063 Y125.726 E6.60269
G1 X167.96 Y125.936 E6.63333
G1 X168.835 Y126.222 E6.66395
G1 X169.682 Y126.583 E6.69457
G1 X170.494 Y127.016 E6.72518
G1 X171.266 Y127.518 E6.7558
G1 X171.991 Y128.085 E6.78642
G1 X172.6 Y128.649 E6.81402
G1 X172.931 Y128.98 E6.82959
G1 X173.553 Y129.658 E6.8602
G1 X174.114 Y130.388 E6.89082
G1 X174.61 Y131.164 E6.92145
G1 X175.102 Y132.125 E6.95736
G1 X175.246 Y132.445 E6.96903
G1 X175.587 Y133.3 E6.99964
G1 X175.853 Y134.182 E7.03028
G1 X176.041 Y135.083 E7.0609
G1 X176.15 Y135.997 E7.09151
G1 X176.179 Y136.626 E7.11246
G1 X176.199 Y138.068 E7.16042
G1 X176.193 Y138.865 E7.18693
G1 X176.246 Y141.42 E7.27193
G1 X176.368 Y143.917 E7.35508
G1 X176.539 Y146.229 E7.43218
G1 X176.561 Y146.636 E7.44574
G1 X176.584 Y147.286 E7.46737
G1 X176.591 Y147.746 E7.48268
G1 X176.585 Y148.494 E7.50755
G1 X176.567 Y149.074 E7.52686
G1 X176.551 Y149.384 E7.53718
G1 X176.508 Y150.024 E7.55851
G1 X176.466 Y150.495 E7.57424
G1 X176.343 Y151.548 E7.6095
G1 X176.251 Y152.158 E7.63002
G1 X176.143 Y152.771 E7.65072
G1 X175.999 Y153.488 E7.67505
G1 X175.882 Y154.014 E7.69297
G1 X175.763 Y154.495 E7.70945
G1 X175.572 Y155.197 E7.73365
G1 X175.477 Y155.527 E7.74507
G1 X175.3 Y156.091 E7.76473
G1 X175.068 Y156.78 E7.78891
G1 X174.861 Y157.343 E7.80886
G1 X174.596 Y158.016 E7.83292
G1 X174.316 Y158.671 E7.85661
G1 X174.081 Y159.185 E7.87541
G1 X173.691 Y159.984 E7.90498
G1 X173.447 Y160.451 E7.9225
G1 X173.107 Y161.066 E7.94588
G1 X172.802 Y161.586 E7.96593
G1 X172.421 Y162.202 E7.99002
G1 X172.166 Y162.596 E8.00563
G1 X171.671 Y163.316 E8.03469
G1 X171.094 Y164.097 E8.06699
G1 X170.883 Y164.367 E8.07838
G1 X170.465 Y164.884 E8.1005
G1 X170.165 Y165.24 E8.11598
G1 X169.724 Y165.739 E8.13813
G1 X169.511 Y165.972 E8.14863
G1 X169.028 Y166.481 E8.17197
G1 X168.543 Y166.964 E8.19473
G1 X168.079 Y167.405 E8.21602
G1 X167.581 Y167.853 E8.2383
G1 X167.002 Y168.35 E8.26368
G1 X166.535 Y168.729 E8.28369
G1 X166.053 Y169.102 E8.30396
G1 X165.479 Y169.525 E8.32767
G1 X164.848 Y169.963 E8.35322
G1 X164.452 Y170.225 E8.36901
G1 X164.047 Y170.48 E8.38493
G1 X163.25 Y170.957 E8.41583
G1 X162.77 Y171.228 E8.43416
G1 X161.956 Y171.654 E8.46472
G1 X161.31 Y171.97 E8.48863
G1 X160.842 Y172.183 E8.50574
G1 X160.244 Y172.442 E8.52741
G1 X159.834 Y172.609 E8.54214
G1 X159.207 Y172.85 E8.56448
G1 X158.834 Y172.986 E8.57768
G1 X158.236 Y173.187 E8.59867
G1 X157.539 Y173.403 E8.62294
G1 X156.563 Y173.673 E8.65662
G1 X156.306 Y173.737 E8.66543
G1 X155.652 Y173.887 E8.68774
G1 X155.304 Y173.961 E8.69958
G1 X154.956 Y174.029 E8.71137
G1 X154.169 Y174.166 E8.73794
G1 X153.537 Y174.258 E8.75918
G1 X152.879 Y174.338 E8.78123
G1 X152.415 Y174.384 E8.79674
G1 X151.416 Y174.457 E8.83005
G1 X150.812 Y174.483 E8.85016
G1 X150.292 Y174.493 E8.86746
G1 X149.625 Y174.491 E8.88964
G1 X149.004 Y174.476 E8.9103
G1 X148.501 Y174.452 E8.92705
G1 X147.679 Y174.393 E8.95446
G1 X147.142 Y174.34 E8.97241
G1 X146.387 Y174.247 E8.99771
G1 X146.057 Y174.201 E9.00879
G1 X145.501 Y174.113 E9.02751
G1 X144.88 Y173.998 E9.04852
G1 X144.073 Y173.827 E9.07596
G1 X143.479 Y173.684 E9.09628
G1 X142.907 Y173.532 E9.11596
G1 X142.244 Y173.339 E9.13893
G1 X141.794 Y173.198 E9.15461
G1 X141.467 Y173.09 E9.16607
G1 X140.876 Y172.881 E9.18692
G1 X140.3 Y172.664 E9.20739
G1 X139.691 Y172.416 E9.22926
G1 X138.997 Y172.112 E9.25446
G1 X138.413 Y171.838 E9.27592
G1 X137.795 Y171.53 E9.29888
G1 X137.378 Y171.311 E9.31455
G1 X136.729 Y170.947 E9.3393
G1 X135.991 Y170.506 E9.36789
G1 X135.517 Y170.205 E9.38657
G1 X134.894 Y169.786 E9.41154
G1 X134.049 Y169.181 E9.4461
G1 X133.307 Y168.603 E9.47739
G1 X132.708 Y168.105 E9.5033
G1 X132.294 Y167.742 E9.52161
G1 X131.712 Y167.21 E9.54784
G1 X131.496 Y167.004 E9.55776
G1 X131.271 Y166.782 E9.56828
G1 X130.768 Y166.269 E9.59217
G1 X130.351 Y165.82 E9.61255
G1 X129.79 Y165.187 E9.64069
G1 X129.46 Y164.792 E9.6578
G1 X128.967 Y164.176 E9.68405
G1 X128.629 Y163.727 E9.70274
G1 X128.165 Y163.082 E9.72917
G1 X127.81 Y162.558 E9.75022
G1 X127.453 Y162 E9.77225
G1 X127.1 Y161.421 E9.7948
G1 X126.785 Y160.87 E9.81591
G1 X126.416 Y160.188 E9.8417
G1 X126.164 Y159.69 E9.86027
G1 X125.92 Y159.184 E9.87895
G1 X125.723 Y158.751 E9.89477
G1 X125.402 Y158.001 E9.92191
G1 X125.083 Y157.194 E9.95077
G1 X124.942 Y156.808 E9.96444
G1 X124.832 Y156.49 E9.97563
G1 X124.542 Y155.586 E10.00721
G1 X124.465 Y155.321 E10.01638
G1 X124.288 Y154.683 E10.03841
G1 X124.172 Y154.228 E10.05402
G1 X123.95 Y153.246 E10.08751
G1 X123.896 Y152.98 E10.09654
G1 X123.831 Y152.631 E10.10834
G1 X123.692 Y151.784 E10.13689
G1 X123.618 Y151.243 E10.15505
G1 X123.568 Y150.82 E10.16922
G1 X123.522 Y150.325 E10.18576
G1 X123.443 Y149.21 E10.22293
G1 X123.418 Y148.65 E10.24158
G1 X123.407 Y147.881 E10.26716
G1 X123.416 Y147.299 E10.28652
G1 X123.443 Y146.545 E10.31161
G1 X123.463 Y146.172 E10.32404
G1 X123.666 Y143.313 E10.41937
G1 X123.774 Y140.807 E10.50279
G1 X123.808 Y137.354 E10.61765
G1 X123.805 Y137.028 E10.62849
G1 X123.877 Y135.714 E10.67226
G1 X123.9 Y135.517 E10.67885
G1 X124.046 Y134.608 E10.70948
G1 X124.271 Y133.715 E10.74011
G1 X124.65 Y132.653 E10.77761
G1 X124.74 Y132.438 E10.78536
G1 X125.132 Y131.605 E10.81598
G1 X125.595 Y130.809 E10.84661
G1 X126.096 Y130.095 E10.87562
G1 X126.271 Y129.866 E10.88521
G1 X126.861 Y129.159 E10.91583
G1 X127.51 Y128.507 E10.94643
G1 X128.49 Y127.707 E10.98851
G1 X128.702 Y127.554 E10.9972
G1 X129.471 Y127.048 E11.02782
G1 X130.281 Y126.611 E11.05843
G1 X131.126 Y126.245 E11.08906
G1 X132 Y125.955 E11.11969
G1 X133.236 Y125.681 E11.1618
G1 X133.468 Y125.644 E11.16961
G1 X134.382 Y125.539 E11.20021
G1 X135.302 Y125.513 E11.23082
G1 X136.641 Y125.619 E11.2755
G1 X137.173 Y125.695 E11.29337
G0 F6000 X136.698 Y125.223
G1 F1200 X137.204 Y125.295 E11.31037
G1 X139.817 Y125.635 E11.39801
G1 X142.303 Y125.886 E11.48111
G1 X144.818 Y126.069 E11.56499
G1 X147.304 Y126.179 E11.64775
G1 X149.864 Y126.22 E11.73291
G1 X152.352 Y126.189 E11.81567
G1 X154.873 Y126.086 E11.89958
G1 X157.401 Y125.912 E11.98386
G1 X159.868 Y125.672 E12.0663
G1 X162.787 Y125.298 E12.16418
G1 X163.272 Y125.228 E12.18048
G1 X164.205 Y125.135 E12.21167
G1 X165.143 Y125.121 E12.24287
G1 X165.92 Y125.171 E12.26877
G1 X166.192 Y125.198 E12.27786
G1 X167.12 Y125.33 E12.30903
G1 X168.034 Y125.541 E12.34023
G1 X168.926 Y125.829 E12.37141
G1 X169.791 Y126.192 E12.40261
G1 X170.622 Y126.628 E12.43382
G1 X171.413 Y127.132 E12.46502
G1 X172.157 Y127.702 E12.49619
G1 X172.883 Y128.366 E12.52891
G1 X173.214 Y128.697 E12.54448
G1 X173.848 Y129.388 E12.57567
G1 X174.422 Y130.13 E12.60688
G1 X174.929 Y130.919 E12.63807
G1 X175.467 Y131.961 E12.67707
G1 X175.611 Y132.281 E12.68874
G1 X175.959 Y133.152 E12.71994
G1 X176.232 Y134.049 E12.75113
G1 X176.427 Y134.967 E12.78234
G1 X176.543 Y135.897 E12.81351
G1 X176.579 Y136.62 E12.83759
G1 X176.599 Y138.071 E12.88585
G1 X176.593 Y138.86 E12.9121
G1 X176.646 Y141.392 E12.99633
G1 X176.769 Y143.917 E13.08041
G1 X176.938 Y146.2 E13.15655
G1 X176.961 Y146.622 E13.17061
G1 X176.984 Y147.272 E13.19224
G1 X176.991 Y147.749 E13.20811
G1 X176.985 Y148.497 E13.23299
G1 X176.967 Y149.089 E13.25269
G1 X176.95 Y149.41 E13.26338
G1 X176.907 Y150.05 E13.28471
G1 X176.863 Y150.539 E13.30104
G1 X176.739 Y151.604 E13.3367
G1 X176.645 Y152.226 E13.35763
G1 X176.536 Y152.848 E13.37863
G1 X176.39 Y153.574 E13.40326
G1 X176.273 Y154.1 E13.42118
G1 X176.149 Y154.6 E13.43832
G1 X175.958 Y155.302 E13.46251
G1 X175.859 Y155.644 E13.47435
G1 X175.68 Y156.217 E13.49432
G1 X175.444 Y156.916 E13.51886
G1 X175.234 Y157.488 E13.53913
G1 X175.086 Y157.87 E13.55275
G1 X174.964 Y158.171 E13.56355
G1 X174.681 Y158.835 E13.58756
G1 X174.441 Y159.359 E13.60673
G1 X174.046 Y160.168 E13.63667
G1 X173.798 Y160.642 E13.65447
G1 X173.453 Y161.267 E13.67821
G1 X173.143 Y161.795 E13.69857
G1 X172.757 Y162.42 E13.72301
G1 X172.502 Y162.814 E13.73862
G1 X171.994 Y163.551 E13.76839
G1 X171.413 Y164.338 E13.80092
G1 X171.194 Y164.619 E13.81277
G1 X170.776 Y165.136 E13.83489
G1 X170.464 Y165.504 E13.85093
G1 X169.802 Y166.246 E13.88401
G1 X169.311 Y166.763 E13.90772
G1 X168.82 Y167.253 E13.93079
G1 X168.348 Y167.7 E13.95241
G1 X167.843 Y168.156 E13.97504
G1 X167.255 Y168.66 E14.0008
G1 X166.781 Y169.044 E14.02109
G1 X166.292 Y169.423 E14.04167
G1 X165.709 Y169.852 E14.06574
G1 X165.069 Y170.297 E14.09167
G1 X164.673 Y170.559 E14.10746
G1 X164.252 Y170.824 E14.12401
G1 X163.455 Y171.301 E14.1549
G1 X162.957 Y171.582 E14.17392
G1 X162.134 Y172.013 E14.20482
G1 X161.477 Y172.333 E14.22913
