;FLAVOR:Marlin
;TIME:12198
;Filament used: 8.13295m
;Layer height: 0.15
;MINX:99.899
;MINY:113.749
;MINZ:0.15
;MAXX:210.101
;MAXY:186.251
;MAXZ:25.99
;Generated with Cura_SteamEngine 4.5.0
M140 S60
M105
M190 S60
M104 S240
M105
M109 S240
M82 ;absolute extrusion mode
M201 X500.00 Y500.00 Z100.00 E5000.00 ;Setup machine max acceleration
M203 X500.00 Y500.00 Z10.00 E50.00 ;Setup machine max feedrate
M204 P500.00 R1000.00 T500.00 ;Setup Print/Retract/Travel acceleration
M205 X8.00 Y8.00 Z0.40 E5.00 ;Setup Jerk
M220 S100 ;Reset Feedrate
M221 S100 ;Reset Flowrate

G28 ;Home

G92 E0 ;Reset Extruder
G1 Z2.0 F3000 ;Move Z Axis up
G1 X10.1 Y20 Z0.28 F5000.0 ;Move to start position
G1 X10.1 Y200.0 Z0.28 F1500.0 E15 ;Draw the first line
G1 X10.4 Y200.0 Z0.28 F5000.0 ;Move to side a little
G1 X10.4 Y20 Z0.28 F1500.0 E30 ;Draw the second line
G92 E0 ;Reset Extruder
G1 Z2.0 F3000 ;Move Z Axis up

G92 E0
G92 E0
G1 F2700 E-5
;LAYER_COUNT:138
;LAYER:0
M107
G0 F6000 X100.492 Y114.005 Z0.15
;TYPE:SKIRT
G1 F2700 E0
G1 F1200 X100.786 Y113.846 E0.01151
G1 X101.109 Y113.762 E0.02299
G1 X101.299 Y113.749 E0.02955
G1 X106.7 Y113.75 E0.21548
G1 X107.032 Y113.79 E0.22699
G1 X107.345 Y113.907 E0.23849
G1 X107.621 Y114.095 E0.24999
G1 X107.844 Y114.344 E0.26149
G1 X108.003 Y114.638 E0.273
G1 X108.087 Y114.961 E0.28449
G1 X108.1 Y115.15 E0.29101
G1 X108.101 Y162.681 E1.92723
G1 X108.066 Y162.992 E1.938
G1 X107.711 Y164.552 E1.99308
G1 X107.392 Y166.069 E2.04644
G1 X107.089 Y167.638 E2.10145
G1 X106.816 Y169.19 E2.1557
G1 X106.567 Y170.745 E2.20991
G1 X106.347 Y172.302 E2.26404
G1 X106.15 Y173.866 E2.3183
G1 X105.98 Y175.432 E2.37253
G1 X105.835 Y177 E2.42674
G1 X105.719 Y178.547 E2.48014
G1 X105.624 Y180.142 E2.53514
G1 X105.557 Y181.716 E2.58938
G1 X105.516 Y183.29 E2.64358
G1 X105.499 Y184.865 E2.6978
G1 X105.456 Y185.196 E2.70929
G1 X105.335 Y185.508 E2.72081
G1 X105.144 Y185.782 E2.73231
G1 X104.893 Y186.003 E2.74382
G1 X104.598 Y186.158 E2.75529
G1 X104.274 Y186.239 E2.76679
G1 X104.1 Y186.25 E2.77279
G1 X102.584 Y186.251 E2.82498
G1 X102.252 Y186.211 E2.83649
G1 X101.939 Y186.094 E2.84799
G1 X101.663 Y185.906 E2.85949
G1 X101.436 Y185.654 E2.87116
G1 X100.153 Y183.821 E2.94818
G1 X99.996 Y183.526 E2.95969
G1 X99.912 Y183.203 E2.97118
G1 X99.9 Y183.018 E2.97756
G1 X99.9 Y182.227 E3.00479
G1 X99.94 Y181.895 E3.0163
G1 X100.057 Y181.583 E3.02777
G1 X100.245 Y181.306 E3.0393
G1 X100.493 Y181.083 E3.05078
G1 X100.787 Y180.924 E3.06228
G1 X101.111 Y180.84 E3.0738
G1 X101.399 Y180.833 E3.08372
G1 X101.4 Y119.167 E5.20653
G1 X101.088 Y119.157 E5.21727
G1 X100.766 Y119.067 E5.22878
G1 X100.475 Y118.904 E5.24026
G1 X100.23 Y118.676 E5.25178
G1 X100.047 Y118.397 E5.26327
G1 X99.935 Y118.082 E5.27478
G1 X99.9 Y117.774 E5.28545
G1 X99.899 Y115.15 E5.37578
G1 X99.939 Y114.818 E5.38729
G1 X100.056 Y114.505 E5.39879
G1 X100.244 Y114.229 E5.41029
G1 X100.492 Y114.005 E5.42179
G0 F6000 X100.638 Y114.398
G1 F1200 X100.874 Y114.244 E5.43149
G1 X101.144 Y114.161 E5.44122
G1 X101.299 Y114.149 E5.44657
G1 X106.7 Y114.15 E5.6325
G1 X106.979 Y114.19 E5.6422
G1 X107.237 Y114.306 E5.65194
G1 X107.451 Y114.49 E5.66165
G1 X107.605 Y114.726 E5.67135
G1 X107.688 Y114.995 E5.68104
G1 X107.7 Y115.15 E5.68639
G1 X107.701 Y162.681 E7.32261
G1 X107.676 Y162.903 E7.3303
G1 X107.325 Y164.447 E7.38481
G1 X106.996 Y166.01 E7.4398
G1 X106.696 Y167.563 E7.49424
G1 X106.422 Y169.12 E7.54867
G1 X106.172 Y170.682 E7.60312
G1 X105.951 Y172.246 E7.6575
G1 X105.753 Y173.816 E7.71197
G1 X105.584 Y175.373 E7.76588
G1 X105.437 Y176.963 E7.82085
G1 X105.318 Y178.539 E7.87526
G1 X105.224 Y180.118 E7.92971
G1 X105.158 Y181.682 E7.9836
G1 X105.116 Y183.279 E8.03859
G1 X105.099 Y184.861 E8.09305
G1 X105.056 Y185.14 E8.10277
G1 X104.937 Y185.395 E8.11246
G1 X104.752 Y185.608 E8.12217
G1 X104.514 Y185.76 E8.13189
G1 X104.243 Y185.84 E8.14162
G1 X104.1 Y185.85 E8.14655
G1 X102.584 Y185.851 E8.19874
G1 X102.304 Y185.811 E8.20848
G1 X102.047 Y185.695 E8.21818
G1 X101.764 Y185.424 E8.23167
G1 X100.481 Y183.591 E8.30869
G1 X100.353 Y183.34 E8.31839
G1 X100.3 Y183.018 E8.32963
G1 X100.3 Y182.227 E8.35686
G1 X100.34 Y181.948 E8.36656
G1 X100.456 Y181.691 E8.37627
G1 X100.639 Y181.476 E8.38598
G1 X100.875 Y181.322 E8.39569
G1 X101.145 Y181.239 E8.40541
G1 X101.387 Y181.231 E8.41374
G1 X101.799 Y181.267 E8.42798
G1 X101.8 Y118.733 E10.58067
G1 X101.387 Y118.769 E10.59494
G1 X101.105 Y118.754 E10.60466
G1 X100.839 Y118.66 E10.61437
G1 X100.61 Y118.496 E10.62407
G1 X100.435 Y118.275 E10.63377
G1 X100.329 Y118.013 E10.6435
G1 X100.3 Y117.773 E10.65182
G1 X100.299 Y115.149 E10.74215
G1 X100.339 Y114.87 E10.75185
G1 X100.455 Y114.613 E10.76156
G1 X100.638 Y114.398 E10.77128
G0 F6000 X101.025 Y114.615
G1 F1200 X101.299 Y114.549 E10.78098
G1 X106.7 Y114.55 E10.96691
G1 X106.915 Y114.59 E10.97444
G1 X107.101 Y114.703 E10.98193
G1 X107.234 Y114.876 E10.98944
G1 X107.3 Y115.15 E10.99914
G1 X107.301 Y162.681 E12.63536
G1 X107.286 Y162.814 E12.63997
G1 X106.931 Y164.374 E12.69504
G1 X106.604 Y165.928 E12.74971
G1 X106.303 Y167.487 E12.80437
G1 X106.028 Y169.051 E12.85903
G1 X105.777 Y170.619 E12.9137
G1 X105.555 Y172.19 E12.96832
G1 X105.356 Y173.766 E13.023
G1 X105.184 Y175.346 E13.07771
G1 X105.038 Y176.926 E13.13233
G1 X104.919 Y178.509 E13.18698
G1 X104.825 Y180.095 E13.24167
G1 X104.757 Y181.672 E13.29601
G1 X104.716 Y183.269 E13.351
G1 X104.699 Y184.856 E13.40564
G1 X104.657 Y185.07 E13.41315
G1 X104.541 Y185.255 E13.42066
G1 X104.367 Y185.387 E13.42818
G1 X104.099 Y185.45 E13.43766
G1 X102.583 Y185.451 E13.48984
G1 X102.369 Y185.411 E13.49734
G1 X102.183 Y185.298 E13.50483
G1 X102.091 Y185.195 E13.50959
G1 X100.808 Y183.362 E13.58661
G1 X100.718 Y183.164 E13.59409
G1 X100.7 Y183.018 E13.59916
G1 X100.7 Y182.227 E13.62639
G1 X100.74 Y182.012 E13.63391
G1 X100.853 Y181.826 E13.64141
G1 X101.026 Y181.693 E13.64892
G1 X101.235 Y181.631 E13.65642
G1 X101.352 Y181.629 E13.66045
G1 X102.199 Y181.703 E13.68972
G1 X102.2 Y118.297 E15.87242
G1 X101.352 Y118.371 E15.90173
G1 X101.135 Y118.35 E15.90923
G1 X100.94 Y118.253 E15.91673
G1 X100.792 Y118.092 E15.92426
G1 X100.711 Y117.889 E15.93178
G1 X100.7 Y117.773 E15.93579
G1 X100.699 Y115.149 E16.02612
G1 X100.739 Y114.935 E16.03362
G1 X100.852 Y114.748 E16.04114
G1 X101.025 Y114.615 E16.04865
G0 F6000 X101.138 Y115.03
G1 F1200 X101.299 Y114.949 E16.05485
G1 X106.7 Y114.95 E16.24078
G1 X106.819 Y114.989 E16.24509
G1 X106.9 Y115.15 E16.25129
G1 X106.901 Y162.681 E17.88751
G1 X106.541 Y164.285 E17.9441
G1 X106.213 Y165.845 E17.99898
G1 X105.91 Y167.411 E18.05389
G1 X105.634 Y168.982 E18.10879
G1 X105.382 Y170.556 E18.16367
G1 X105.159 Y172.134 E18.21853
G1 X104.959 Y173.713 E18.27332
G1 X104.787 Y175.303 E18.32837
G1 X104.64 Y176.889 E18.3832
G1 X104.52 Y178.476 E18.43799
G1 X104.426 Y180.071 E18.49299
G1 X104.358 Y181.665 E18.54792
G1 X104.316 Y183.258 E18.60277
G1 X104.299 Y184.852 E18.65765
G1 X104.259 Y184.97 E18.66194
G1 X104.099 Y185.05 E18.6681
G1 X102.583 Y185.051 E18.72028
G1 X102.464 Y185.012 E18.72459
G1 X102.419 Y184.966 E18.72681
G1 X101.136 Y183.133 E18.80383
G1 X101.1 Y183.018 E18.80798
G1 X101.1 Y182.227 E18.83521
G1 X101.139 Y182.108 E18.83952
G1 X101.241 Y182.036 E18.84382
G1 X101.317 Y182.028 E18.84645
G1 X102.599 Y182.14 E18.89075
G1 X102.6 Y117.86 E21.10354
G1 X101.317 Y117.972 E21.14787
G1 X101.196 Y117.944 E21.15215
G1 X101.115 Y117.849 E21.15644
G1 X101.1 Y117.773 E21.15911
G1 X101.099 Y115.149 E21.24944
G1 X101.138 Y115.03 E21.25375
G1 F2700 E16.25375
G0 F6000 X101.138 Y114.484
G0 X107.353 Y114.497
G0 X115.899 Y115.15
G1 F2700 E21.25375
G1 F1200 X115.939 Y114.818 E21.26526
G1 X116.056 Y114.505 E21.27677
G1 X116.244 Y114.229 E21.28826
G1 X116.492 Y114.005 E21.29977
G1 X116.786 Y113.846 E21.31127
G1 X117.109 Y113.762 E21.32276
G1 X117.299 Y113.749 E21.32932
G1 X122.7 Y113.75 E21.51524
G1 X123.032 Y113.79 E21.52675
G1 X123.345 Y113.907 E21.53826
G1 X123.621 Y114.095 E21.54975
G1 X123.844 Y114.344 E21.56126
G1 X124.003 Y114.638 E21.57276
G1 X124.087 Y114.961 E21.58425
G1 X124.1 Y115.15 E21.59077
G1 X124.101 Y162.681 E23.22699
G1 X124.066 Y162.992 E23.23777
G1 X123.711 Y164.552 E23.29284
G1 X123.392 Y166.069 E23.34621
G1 X123.089 Y167.638 E23.40121
G1 X122.816 Y169.19 E23.45546
G1 X122.567 Y170.745 E23.50967
G1 X122.347 Y172.302 E23.5638
G1 X122.15 Y173.866 E23.61807
G1 X121.98 Y175.432 E23.67229
G1 X121.835 Y177 E23.7265
G1 X121.719 Y178.547 E23.77991
G1 X121.624 Y180.142 E23.83491
G1 X121.557 Y181.716 E23.88914
G1 X121.516 Y183.29 E23.94334
G1 X121.499 Y184.865 E23.99757
G1 X121.456 Y185.196 E24.00906
G1 X121.335 Y185.508 E24.02058
G1 X121.144 Y185.782 E24.03207
G1 X120.893 Y186.003 E24.04359
G1 X120.598 Y186.158 E24.05506
G1 X120.274 Y186.239 E24.06655
G1 X120.1 Y186.25 E24.07256
G1 X118.584 Y186.251 E24.12474
G1 X118.252 Y186.211 E24.13625
G1 X117.939 Y186.094 E24.14776
G1 X117.663 Y185.906 E24.15925
G1 X117.436 Y185.654 E24.17093
G1 X116.153 Y183.821 E24.24795
G1 X115.996 Y183.526 E24.25945
G1 X115.912 Y183.203 E24.27094
G1 X115.9 Y183.018 E24.27732
G1 X115.9 Y182.227 E24.30455
G1 X115.94 Y181.895 E24.31607
G1 X116.057 Y181.583 E24.32754
G1 X116.245 Y181.306 E24.33906
G1 X116.493 Y181.083 E24.35054
G1 X116.787 Y180.924 E24.36205
G1 X117.111 Y180.84 E24.37357
G1 X117.399 Y180.833 E24.38349
G1 X117.4 Y119.167 E26.50629
G1 X117.088 Y119.157 E26.51704
G1 X116.766 Y119.067 E26.52855
G1 X116.475 Y118.904 E26.54003
G1 X116.23 Y118.676 E26.55155
G1 X116.047 Y118.397 E26.56304
G1 X115.935 Y118.082 E26.57454
G1 X115.9 Y117.774 E26.58522
G1 X115.899 Y115.15 E26.67554
G0 F6000 X116.299 Y115.149
G1 F1200 X116.339 Y114.87 E26.68525
G1 X116.455 Y114.613 E26.69495
G1 X116.638 Y114.398 E26.70467
G1 X116.874 Y114.244 E26.71437
G1 X117.144 Y114.161 E26.7241
G1 X117.299 Y114.149 E26.72945
G1 X122.7 Y114.15 E26.91537
G1 X122.979 Y114.19 E26.92508
G1 X123.237 Y114.306 E26.93482
G1 X123.451 Y114.49 E26.94453
G1 X123.605 Y114.726 E26.95423
G1 X123.688 Y114.995 E26.96392
G1 X123.7 Y115.15 E26.96927
G1 X123.701 Y162.681 E28.60549
G1 X123.676 Y162.903 E28.61318
G1 X123.325 Y164.447 E28.66769
G1 X122.996 Y166.01 E28.72267
G1 X122.696 Y167.563 E28.77712
G1 X122.422 Y169.12 E28.83155
G1 X122.172 Y170.682 E28.886
G1 X121.951 Y172.246 E28.94037
G1 X121.753 Y173.816 E28.99485
G1 X121.584 Y175.373 E29.04876
G1 X121.437 Y176.963 E29.10373
G1 X121.318 Y178.539 E29.15814
G1 X121.224 Y180.118 E29.21259
G1 X121.158 Y181.682 E29.26648
G1 X121.116 Y183.279 E29.32147
G1 X121.099 Y184.861 E29.37593
G1 X121.056 Y185.14 E29.38565
G1 X120.937 Y185.395 E29.39534
G1 X120.752 Y185.608 E29.40505
G1 X120.514 Y185.76 E29.41477
G1 X120.243 Y185.84 E29.4245
G1 X120.1 Y185.85 E29.42943
G1 X118.584 Y185.851 E29.48162
G1 X118.304 Y185.811 E29.49136
G1 X118.047 Y185.695 E29.50106
G1 X117.764 Y185.424 E29.51455
G1 X116.481 Y183.591 E29.59157
G1 X116.353 Y183.34 E29.60127
G1 X116.3 Y183.018 E29.61251
G1 X116.3 Y182.227 E29.63974
G1 X116.34 Y181.948 E29.64944
G1 X116.456 Y181.691 E29.65914
G1 X116.639 Y181.476 E29.66886
G1 X116.875 Y181.322 E29.67856
G1 X117.145 Y181.239 E29.68829
G1 X117.387 Y181.231 E29.69662
G1 X117.799 Y181.267 E29.71086
G1 X117.8 Y118.733 E31.86355
G1 X117.387 Y118.769 E31.87782
G1 X117.105 Y118.754 E31.88754
G1 X116.839 Y118.66 E31.89725
G1 X116.61 Y118.496 E31.90695
G1 X116.435 Y118.275 E31.91665
G1 X116.329 Y118.013 E31.92638
G1 X116.3 Y117.773 E31.9347
G1 X116.299 Y115.149 E32.02503
G0 F6000 X116.699 Y115.149
G1 F1200 X116.739 Y114.935 E32.03253
G1 X116.852 Y114.748 E32.04005
G1 X117.025 Y114.615 E32.04756
G1 X117.299 Y114.549 E32.05726
G1 X122.7 Y114.55 E32.24319
G1 X122.915 Y114.59 E32.25071
G1 X123.101 Y114.703 E32.25821
G1 X123.234 Y114.876 E32.26572
G1 X123.3 Y115.15 E32.27542
G1 X123.301 Y162.681 E33.91164
G1 X123.286 Y162.814 E33.91625
G1 X122.931 Y164.374 E33.97132
G1 X122.604 Y165.928 E34.02599
G1 X122.303 Y167.487 E34.08065
G1 X122.028 Y169.051 E34.13531
G1 X121.777 Y170.619 E34.18998
G1 X121.555 Y172.19 E34.24459
G1 X121.356 Y173.766 E34.29928
G1 X121.184 Y175.346 E34.35399
G1 X121.038 Y176.926 E34.40861
G1 X120.919 Y178.509 E34.46326
G1 X120.825 Y180.095 E34.51795
G1 X120.757 Y181.672 E34.57229
G1 X120.716 Y183.269 E34.62728
G1 X120.699 Y184.856 E34.68192
G1 X120.657 Y185.07 E34.68942
G1 X120.541 Y185.255 E34.69694
G1 X120.367 Y185.387 E34.70446
G1 X120.099 Y185.45 E34.71394
G1 X118.583 Y185.451 E34.76612
G1 X118.369 Y185.411 E34.77362
G1 X118.183 Y185.298 E34.78111
G1 X118.091 Y185.195 E34.78586
G1 X116.808 Y183.362 E34.86288
G1 X116.718 Y183.164 E34.87037
G1 X116.7 Y183.018 E34.87544
G1 X116.7 Y182.227 E34.90267
G1 X116.74 Y182.012 E34.91019
G1 X116.853 Y181.826 E34.91769
G1 X117.026 Y181.693 E34.9252
G1 X117.235 Y181.631 E34.9327
G1 X117.352 Y181.629 E34.93673
G1 X118.199 Y181.703 E34.966
G1 X118.2 Y118.297 E37.1487
G1 X117.352 Y118.371 E37.178
G1 X117.135 Y118.35 E37.18551
G1 X116.94 Y118.253 E37.19301
G1 X116.792 Y118.092 E37.20053
G1 X116.711 Y117.889 E37.20806
G1 X116.7 Y117.773 E37.21207
G1 X116.699 Y115.149 E37.3024
G0 F6000 X117.099 Y115.149
G1 F1200 X117.138 Y115.03 E37.30671
G1 X117.299 Y114.949 E37.31291
G1 X122.7 Y114.95 E37.49884
G1 X122.819 Y114.989 E37.50315
G1 X122.9 Y115.15 E37.50935
G1 X122.901 Y162.681 E39.14557
G1 X122.541 Y164.285 E39.20216
G1 X122.213 Y165.845 E39.25704
G1 X121.91 Y167.411 E39.31195
G1 X121.634 Y168.982 E39.36686
G1 X121.382 Y170.556 E39.42173
G1 X121.159 Y172.134 E39.47659
G1 X120.959 Y173.713 E39.53138
G1 X120.787 Y175.303 E39.58644
G1 X120.64 Y176.889 E39.64127
G1 X120.52 Y178.476 E39.69605
G1 X120.426 Y180.071 E39.75106
G1 X120.358 Y181.665 E39.80598
G1 X120.316 Y183.258 E39.86083
G1 X120.299 Y184.852 E39.91571
G1 X120.259 Y184.97 E39.92
G1 X120.099 Y185.05 E39.92616
G1 X118.583 Y185.051 E39.97834
G1 X118.464 Y185.012 E39.98265
G1 X118.419 Y184.966 E39.98487
G1 X117.136 Y183.133 E40.06189
G1 X117.1 Y183.018 E40.06604
G1 X117.1 Y182.227 E40.09327
G1 X117.139 Y182.108 E40.09758
G1 X117.241 Y182.036 E40.10188
G1 X117.317 Y182.028 E40.10451
G1 X118.599 Y182.14 E40.14881
G1 X118.6 Y117.86 E42.3616
G1 X117.317 Y117.972 E42.40593
G1 X117.196 Y117.944 E42.41021
G1 X117.115 Y117.849 E42.41451
G1 X117.1 Y117.773 E42.41717
G1 X117.099 Y115.149 E42.5075
G1 F2700 E37.5075
G0 F6000 X117.099 Y114.484
G0 X123.353 Y114.497
G0 X131.3 Y115.462
G1 F2700 E42.5075
G1 F1200 X131.34 Y115.13 E42.51901
G1 X131.457 Y114.818 E42.53048
G1 X131.707 Y114.475 E42.54509
G1 X132.018 Y114.162 E42.56028
G1 X132.28 Y113.955 E42.57178
G1 X132.584 Y113.816 E42.58329
G1 X133.011 Y113.749 E42.59816
G1 X136.7 Y113.75 E42.72516
G1 X137.032 Y113.79 E42.73667
G1 X137.345 Y113.907 E42.74817
G1 X137.621 Y114.095 E42.75967
G1 X137.844 Y114.344 E42.77117
G1 X138.003 Y114.638 E42.78268
G1 X138.087 Y114.961 E42.79417
G1 X138.1 Y115.15 E42.80069
G1 X138.1 Y117.15 E42.86954
G1 X138.06 Y117.482 E42.88105
G1 X137.943 Y117.794 E42.89252
G1 X137.801 Y117.988 E42.9008
G1 X137.801 Y125.062 E43.14431
G1 X137.882 Y124.981 E43.14826
G1 X138.285 Y124.7 E43.16517
G1 X138.443 Y124.627 E43.17116
G1 X138.761 Y124.524 E43.18267
G1 X139.094 Y124.499 E43.19416
G1 X139.468 Y124.568 E43.20725
G1 X139.653 Y124.629 E43.21396
G1 X139.956 Y124.771 E43.22548
G1 X140.216 Y124.98 E43.23696
G1 X140.438 Y125.277 E43.24973
G1 X140.52 Y125.424 E43.25552
G1 X140.646 Y125.733 E43.26701
G1 X140.697 Y126.106 E43.27997
G1 X140.7 Y173.852 E44.92359
G1 X140.625 Y174.305 E44.9394
G1 X140.571 Y174.463 E44.94514
G1 X140.426 Y174.764 E44.95664
G1 X140.214 Y175.022 E44.96814
G1 X139.94 Y175.226 E44.9799
G1 X139.784 Y175.315 E44.98608
G1 X139.476 Y175.445 E44.99759
G1 X139.146 Y175.498 E45.0091
G1 X138.775 Y175.463 E45.02192
G1 X138.589 Y175.42 E45.0285
G1 X138.274 Y175.306 E45.04003
G1 X137.915 Y175.047 E45.05527
G1 X137.818 Y174.95 E45.05999
G1 X137.801 Y182.002 E45.30275
G1 X137.896 Y182.123 E45.30804
G1 X138.035 Y182.427 E45.31955
G1 X138.1 Y182.849 E45.33425
G1 X138.101 Y184.85 E45.40313
G1 X138.061 Y185.182 E45.41464
G1 X137.944 Y185.495 E45.42615
G1 X137.756 Y185.771 E45.43764
G1 X137.508 Y185.995 E45.44915
G1 X137.214 Y186.154 E45.46065
G1 X136.891 Y186.238 E45.47214
