;FLAVOR:Marlin
;TIME:3624
;Filament used: 1.4998m
;Layer height: 0.16
;MINX:98.337
;MINY:113.314
;MINZ:0.16
;MAXX:172.729
;MAXY:186.699
;MAXZ:3.88
;Generated with Cura_SteamEngine 4.6.1
M140 S60
M105
M190 S60
M104 S230
M105
M109 S230
M82 ;absolute extrusion mode
M201 X500.00 Y500.00 Z100.00 E5000.00 ;Setup machine max acceleration
M203 X500.00 Y500.00 Z10.00 E50.00 ;Setup machine max feedrate
M204 P500.00 R1000.00 T500.00 ;Setup Print/Retract/Travel acceleration
M205 X8.00 Y8.00 Z0.40 E5.00 ;Setup Jerk
M220 S100 ;Reset Feedrate
M221 S100 ;Reset Flowrate

G28 ;Home

G92 E0 ;Reset Extruder
G1 Z2.0 F3000 ;Move Z Axis up
G1 X10.1 Y20 Z0.28 F5000.0 ;Move to start position
G1 X10.1 Y200.0 Z0.28 F1500.0 E15 ;Draw the first line
G1 X10.4 Y200.0 Z0.28 F5000.0 ;Move to side a little
G1 X10.4 Y20 Z0.28 F1500.0 E30 ;Draw the second line
G92 E0 ;Reset Extruder
G1 Z2.0 F3000 ;Move Z Axis up

G92 E0
G92 E0
G1 F2700 E-5
;LAYER_COUNT:27
;LAYER:0
M107
G0 F6000 X160.549 Y113.97 Z0.16
;TYPE:SKIRT
G1 F2700 E0
G1 F600 X160.999 Y113.991 E0.01323
G1 X161.896 Y114.073 E0.03969
G1 X162.909 Y114.264 E0.06997
G1 X163.17 Y114.327 E0.07786
G1 X164.036 Y114.577 E0.10434
G1 X164.81 Y114.874 E0.12869
G1 X165.014 Y114.962 E0.13522
G1 X165.825 Y115.355 E0.16169
G1 X166.699 Y115.887 E0.19175
G1 X166.989 Y116.084 E0.20205
G1 X167.711 Y116.623 E0.22851
G1 X168.383 Y117.224 E0.255
G1 X168.823 Y117.682 E0.27365
G1 X169.1 Y117.989 E0.2858
G1 X169.674 Y118.684 E0.31228
G1 X170.183 Y119.428 E0.33876
G1 X170.428 Y119.841 E0.35287
G1 X170.557 Y120.072 E0.36064
G1 X170.961 Y120.878 E0.38712
G1 X171.28 Y121.681 E0.4125
G1 X171.356 Y121.899 E0.41929
G1 X171.702 Y123.141 E0.45716
G1 X171.753 Y123.382 E0.4644
G1 X171.9 Y124.271 E0.49086
G1 X171.971 Y125.286 E0.52075
G1 X171.993 Y126.483 E0.55592
G1 X172.001 Y132.739 E0.73969
G1 X172.013 Y134.959 E0.80491
G1 X172.017 Y137.427 E0.87741
G1 X172.012 Y137.855 E0.88998
G1 X172.024 Y139.955 E0.95167
G1 X172.028 Y142.416 E1.02396
G1 X172.023 Y142.837 E1.03633
G1 X172.035 Y144.956 E1.09858
G1 X172.035 Y147.766 E1.18112
G1 X172.047 Y149.958 E1.24551
G1 X172.051 Y152.416 E1.31772
G1 X172.046 Y152.837 E1.33009
G1 X172.058 Y154.956 E1.39233
G1 X172.058 Y157.732 E1.47388
G1 X172.071 Y159.954 E1.53915
G1 X172.075 Y162.432 E1.61195
G1 X172.069 Y162.934 E1.62669
G1 X172.081 Y164.953 E1.686
G1 X172.089 Y170.338 E1.84419
G1 X172.085 Y173.852 E1.94741
G1 X172.078 Y174.334 E1.96157
G1 X172.068 Y174.66 E1.97116
G1 X172.05 Y175.045 E1.98248
G1 X171.968 Y175.943 E2.00897
G1 X171.836 Y176.696 E2.03142
G1 X171.793 Y176.897 E2.03746
G1 X171.566 Y177.77 E2.06396
G1 X171.395 Y178.274 E2.07959
G1 X171.319 Y178.481 E2.08607
G1 X170.972 Y179.312 E2.11252
G1 X170.707 Y179.834 E2.12972
G1 X170.602 Y180.027 E2.13617
G1 X170.136 Y180.799 E2.16266
G1 X169.631 Y181.493 E2.18788
G1 X169.453 Y181.717 E2.19628
G1 X168.862 Y182.397 E2.22275
G1 X168.165 Y183.063 E2.25106
G1 X167.92 Y183.276 E2.2606
G1 X167.214 Y183.837 E2.28709
G1 X166.462 Y184.333 E2.31355
G1 X165.963 Y184.612 E2.33035
G1 X165.659 Y184.771 E2.34043
G1 X164.842 Y185.153 E2.36692
G1 X163.671 Y185.557 E2.40331
G1 X163.34 Y185.649 E2.4134
G1 X162.462 Y185.852 E2.43987
G1 X161.569 Y185.976 E2.46635
G1 X160.901 Y186.016 E2.48601
G1 X159.441 Y186.053 E2.52891
G1 X152.806 Y186.059 E2.72382
G1 X140.054 Y186.043 E3.09841
G1 X139.419 Y186.033 E3.11707
G1 X138.297 Y185.953 E3.15011
G1 X136.928 Y185.779 E3.19065
G1 X134.338 Y185.482 E3.26723
G1 X131.781 Y185.263 E3.34262
G1 X129.155 Y185.112 E3.41989
G1 X127.883 Y185.054 E3.45729
G1 X125.331 Y184.974 E3.53229
G1 X123.629 Y184.961 E3.58229
G1 X118.945 Y184.967 E3.71989
G1 X116.126 Y184.964 E3.8027
G1 X113.563 Y184.998 E3.87799
G1 X112.076 Y185.064 E3.92172
G1 X110.617 Y185.117 E3.9646
G1 X109.716 Y185.11 E3.99107
G1 X108.828 Y185.024 E4.01728
G1 X108.495 Y184.977 E4.02716
G1 X107.609 Y184.812 E4.05363
G1 X106.348 Y184.43 E4.09234
G1 X106.132 Y184.349 E4.09911
G1 X105.303 Y183.996 E4.12558
G1 X104.508 Y183.57 E4.15207
G1 X103.507 Y182.891 E4.18761
G1 X103.239 Y182.685 E4.19754
G1 X102.55 Y182.105 E4.22399
G1 X101.914 Y181.466 E4.25048
G1 X101.338 Y180.772 E4.27697
G1 X100.987 Y180.28 E4.29472
G1 X100.801 Y180.002 E4.30455
G1 X100.333 Y179.231 E4.33104
G1 X99.936 Y178.422 E4.35751
G1 X99.68 Y177.778 E4.37787
G1 X99.608 Y177.577 E4.38414
G1 X99.342 Y176.716 E4.41062
G1 X99.153 Y175.835 E4.43708
G1 X99.041 Y174.908 E4.46451
G1 X99.01 Y174.493 E4.47674
G1 X98.988 Y173.387 E4.50923
G1 X99.003 Y172.969 E4.52152
G1 X99.094 Y171.03 E4.57854
G1 X99.141 Y168.323 E4.65807
G1 X99.144 Y167.31 E4.68783
G1 X99.155 Y166.639 E4.70754
G1 X99.237 Y165.512 E4.74074
G1 X99.506 Y163.419 E4.80273
G1 X99.789 Y160.858 E4.87841
G1 X99.998 Y158.307 E4.9536
G1 X100.133 Y155.798 E5.02741
G1 X100.199 Y153.202 E5.10369
G1 X100.202 Y151.492 E5.15393
G1 X100.198 Y150.559 E5.18133
G1 X100.206 Y148.92 E5.22948
G1 X100.2 Y147.594 E5.26843
G1 X100.203 Y145.499 E5.32997
G1 X100.152 Y142.922 E5.40569
G1 X100.029 Y140.388 E5.48021
G1 X99.834 Y137.855 E5.55484
G1 X99.541 Y135.095 E5.63637
G1 X99.42 Y134.098 E5.66587
G1 X99.352 Y133.218 E5.6918
G1 X99.282 Y131.15 E5.75259
G1 X99.06 Y127.516 E5.85953
G1 X99.01 Y126.906 E5.87751
G1 X98.977 Y126.005 E5.904
G1 X99.024 Y125.105 E5.93047
G1 X99.137 Y124.287 E5.95473
G1 X99.174 Y124.081 E5.96088
G1 X99.373 Y123.202 E5.98735
G1 X99.738 Y122.11 E6.02117
G1 X99.849 Y121.832 E6.02997
G1 X100.22 Y121.01 E6.05646
G1 X100.663 Y120.225 E6.08294
G1 X100.953 Y119.785 E6.09842
G1 X101.11 Y119.56 E6.10648
G1 X101.658 Y118.844 E6.13296
G1 X102.267 Y118.18 E6.15943
G1 X102.933 Y117.573 E6.1859
G1 X103.806 Y116.92 E6.21793
G1 X104.142 Y116.696 E6.22979
G1 X104.914 Y116.23 E6.25628
G1 X105.723 Y115.834 E6.28274
G1 X106.991 Y115.38 E6.3223
G1 X107.289 Y115.295 E6.3314
G1 X108.166 Y115.086 E6.35789
G1 X109.058 Y114.956 E6.38437
G1 X109.977 Y114.905 E6.4114
G1 X110.284 Y114.902 E6.42042
G1 X110.796 Y114.91 E6.43546
G1 X113.5 Y115.02 E6.51496
G1 X116.111 Y115.052 E6.59167
G1 X121.051 Y115.041 E6.73678
G1 X123.049 Y115.042 E6.79547
G1 X125.663 Y115.006 E6.87227
G1 X128.216 Y114.899 E6.94733
G1 X129.072 Y114.843 E6.97253
G1 X131.083 Y114.738 E7.03168
G1 X133.521 Y114.581 E7.10345
G1 X136.084 Y114.345 E7.17905
G1 X138.305 Y114.083 E7.24475
G1 X139.297 Y114.015 E7.27396
G1 X140.445 Y113.994 E7.30769
G1 X146.787 Y113.973 E7.49399
G1 X159.791 Y113.954 E7.87598
G1 X160.549 Y113.97 E7.89825
G0 F6000 X160.564 Y113.65
G1 F600 X161.014 Y113.671 E7.91149
G1 X161.925 Y113.754 E7.93836
G1 X162.984 Y113.953 E7.97001
G1 X163.245 Y114.016 E7.9779
G1 X164.125 Y114.269 E8.0048
G1 X164.937 Y114.58 E8.03034
G1 X165.141 Y114.668 E8.03687
G1 X165.965 Y115.067 E8.06376
G1 X166.879 Y115.622 E8.09517
G1 X167.169 Y115.819 E8.10547
G1 X167.903 Y116.366 E8.13236
G1 X168.586 Y116.975 E8.15924
G1 X169.061 Y117.467 E8.17933
G1 X169.338 Y117.774 E8.19148
G1 X169.921 Y118.48 E8.21837
G1 X170.44 Y119.234 E8.24526
G1 X170.707 Y119.685 E8.26066
G1 X170.836 Y119.916 E8.26843
G1 X171.247 Y120.734 E8.29532
G1 X171.582 Y121.576 E8.32194
G1 X171.658 Y121.794 E8.32872
G1 X172.015 Y123.074 E8.36776
G1 X172.066 Y123.315 E8.37499
G1 X172.216 Y124.218 E8.40188
G1 X172.291 Y125.28 E8.43316
G1 X172.313 Y126.483 E8.4685
G1 X172.321 Y132.741 E8.65233
G1 X172.333 Y134.957 E8.71743
G1 X172.337 Y137.43 E8.79008
G1 X172.332 Y137.857 E8.80262
G1 X172.344 Y139.954 E8.86422
G1 X172.348 Y142.419 E8.93663
G1 X172.343 Y142.838 E8.94894
G1 X172.355 Y144.954 E9.0111
G1 X172.355 Y147.768 E9.09376
G1 X172.367 Y149.956 E9.15804
G1 X172.371 Y152.419 E9.23039
G1 X172.366 Y152.838 E9.2427
G1 X172.378 Y154.954 E9.30486
G1 X172.378 Y157.734 E9.38652
G1 X172.391 Y159.952 E9.45168
G1 X172.395 Y162.436 E9.52464
G1 X172.389 Y162.936 E9.53933
G1 X172.401 Y164.951 E9.59852
G1 X172.409 Y170.337 E9.75674
G1 X172.405 Y173.856 E9.86011
G1 X172.398 Y174.338 E9.87427
G1 X172.388 Y174.675 E9.88418
G1 X172.37 Y175.06 E9.8955
G1 X172.287 Y175.972 E9.9224
G1 X172.149 Y176.763 E9.94599
G1 X172.106 Y176.964 E9.95202
G1 X171.876 Y177.85 E9.97891
G1 X171.696 Y178.384 E9.99547
G1 X171.62 Y178.591 E10.00194
G1 X171.267 Y179.436 E10.02885
G1 X170.988 Y179.987 E10.04699
G1 X170.883 Y180.18 E10.05344
G1 X170.411 Y180.965 E10.08035
G1 X169.882 Y181.692 E10.10676
G1 X169.704 Y181.916 E10.11517
G1 X169.104 Y182.607 E10.14205
G1 X168.375 Y183.305 E10.1717
G1 X168.13 Y183.518 E10.18123
G1 X167.414 Y184.088 E10.20812
G1 X166.65 Y184.593 E10.23502
G1 X166.111 Y184.896 E10.25318
G1 X165.807 Y185.055 E10.26326
G1 X164.978 Y185.443 E10.29015
G1 X163.756 Y185.865 E10.32812
G1 X163.425 Y185.957 E10.33822
G1 X162.534 Y186.164 E10.36509
G1 X161.627 Y186.291 E10.39199
G1 X160.91 Y186.336 E10.41309
G1 X159.441 Y186.373 E10.45626
G1 X152.806 Y186.379 E10.65117
G1 X140.049 Y186.363 E11.02591
G1 X139.414 Y186.353 E11.04456
G1 X138.257 Y186.27 E11.07864
G1 X136.931 Y186.101 E11.1179
G1 X134.31 Y185.801 E11.1954
G1 X131.771 Y185.583 E11.27026
G1 X129.122 Y185.431 E11.3482
G1 X127.855 Y185.373 E11.38546
G1 X125.319 Y185.294 E11.45999
G1 X123.626 Y185.281 E11.50972
G1 X118.945 Y185.287 E11.64723
G1 X116.129 Y185.284 E11.72995
G1 X113.55 Y185.318 E11.80572
G1 X112.087 Y185.384 E11.84874
G1 X110.628 Y185.437 E11.89162
G1 X109.713 Y185.43 E11.9185
G1 X108.783 Y185.341 E11.94595
G1 X108.45 Y185.294 E11.95583
G1 X107.55 Y185.127 E11.98272
G1 X106.668 Y184.881 E12.00961
G1 X106.235 Y184.73 E12.02308
G1 X106.019 Y184.649 E12.02986
G1 X105.177 Y184.29 E12.05675
G1 X104.369 Y183.859 E12.08365
G1 X103.312 Y183.145 E12.12112
G1 X103.044 Y182.939 E12.13105
G1 X102.343 Y182.35 E12.15795
G1 X101.697 Y181.702 E12.18482
G1 X101.109 Y181 E12.21172
G1 X100.721 Y180.458 E12.2313
G1 X100.535 Y180.18 E12.24113
G1 X100.059 Y179.397 E12.26805
G1 X99.654 Y178.577 E12.29491
G1 X99.379 Y177.886 E12.31676
G1 X99.307 Y177.685 E12.32303
G1 X99.036 Y176.811 E12.34991
G1 X98.843 Y175.916 E12.37681
G1 X98.722 Y174.932 E12.40593
G1 X98.691 Y174.517 E12.41815
G1 X98.668 Y173.376 E12.45168
G1 X98.684 Y172.954 E12.46408
G1 X98.774 Y171.043 E12.52028
G1 X98.821 Y168.318 E12.60034
G1 X98.824 Y167.305 E12.6301
G1 X98.835 Y166.634 E12.64981
G1 X98.919 Y165.471 E12.68407
G1 X99.193 Y163.34 E12.74718
G1 X99.47 Y160.835 E12.82121
G1 X99.678 Y158.296 E12.89605
G1 X99.814 Y155.773 E12.97027
G1 X99.879 Y153.194 E13.04605
G1 X99.882 Y151.492 E13.09605
G1 X99.878 Y150.558 E13.12349
G1 X99.886 Y148.919 E13.17163
G1 X99.88 Y147.594 E13.21056
G1 X99.883 Y145.504 E13.27195
G1 X99.832 Y142.945 E13.34714
G1 X99.708 Y140.394 E13.42216
G1 X99.515 Y137.875 E13.49637
G1 X99.23 Y135.19 E13.57569
G1 X99.102 Y134.136 E13.60688
G1 X99.032 Y133.229 E13.6336
G1 X98.961 Y131.145 E13.69486
G1 X98.742 Y127.56 E13.80036
G1 X98.691 Y126.932 E13.81887
G1 X98.657 Y126.017 E13.84577
G1 X98.703 Y125.103 E13.87265
G1 X98.822 Y124.23 E13.89853
G1 X98.859 Y124.024 E13.90468
G1 X99.06 Y123.131 E13.93157
G1 X99.441 Y121.991 E13.96688
G1 X99.552 Y121.713 E13.97567
G1 X99.928 Y120.878 E14.00257
G1 X100.376 Y120.08 E14.02946
G1 X100.69 Y119.602 E14.04626
G1 X100.847 Y119.377 E14.05432
G1 X101.404 Y118.65 E14.08122
G1 X102.021 Y117.974 E14.1081
G1 X102.695 Y117.355 E14.13499
G1 X103.629 Y116.654 E14.16929
G1 X103.965 Y116.43 E14.18115
G1 X104.748 Y115.956 E14.20804
G1 X105.569 Y115.552 E14.23492
G1 X106.423 Y115.222 E14.26181
G1 X106.903 Y115.072 E14.27659
G1 X107.201 Y114.987 E14.28569
G1 X108.092 Y114.775 E14.31259
G1 X108.997 Y114.641 E14.33947
G1 X109.974 Y114.586 E14.36821
G1 X110.281 Y114.583 E14.37723
G1 X110.809 Y114.591 E14.39274
G1 X113.482 Y114.7 E14.47133
G1 X116.114 Y114.732 E14.54865
G1 X121.05 Y114.721 E14.69365
G1 X123.044 Y114.722 E14.75222
G1 X125.646 Y114.686 E14.82866
G1 X128.221 Y114.579 E14.90437
G1 X129.055 Y114.523 E14.92893
G1 X131.133 Y114.414 E14.99005
G1 X133.471 Y114.264 E15.05887
G1 X136.052 Y114.026 E15.13501
G1 X138.267 Y113.765 E15.20053
G1 X139.291 Y113.695 E15.23068
G1 X140.444 Y113.674 E15.26455
G1 X146.786 Y113.653 E15.45085
G1 X159.795 Y113.634 E15.833
G1 X160.564 Y113.65 E15.85559
G0 F6000 X160.578 Y113.331
G1 F600 X161.028 Y113.352 E15.86883
G1 X161.954 Y113.435 E15.89614
G1 X163.059 Y113.642 E15.92916
G1 X163.32 Y113.705 E15.93705
G1 X164.213 Y113.961 E15.96434
G1 X165.064 Y114.286 E15.9911
G1 X165.268 Y114.374 E15.99762
G1 X166.104 Y114.779 E16.02491
G1 X167.059 Y115.357 E16.0577
G1 X167.349 Y115.554 E16.068
G1 X168.094 Y116.109 E16.09529
G1 X168.789 Y116.726 E16.12259
G1 X169.298 Y117.253 E16.14411
G1 X169.575 Y117.56 E16.15626
G1 X170.168 Y118.276 E16.18357
G1 X170.696 Y119.041 E16.21087
G1 X170.986 Y119.529 E16.22755
G1 X171.115 Y119.76 E16.23532
G1 X171.533 Y120.59 E16.26262
G1 X171.884 Y121.471 E16.29048
G1 X171.96 Y121.689 E16.29726
G1 X172.328 Y123.008 E16.33749
G1 X172.379 Y123.249 E16.34472
G1 X172.532 Y124.166 E16.37203
G1 X172.611 Y125.273 E16.40463
G1 X172.633 Y126.482 E16.44015
G1 X172.641 Y132.744 E16.6241
G1 X172.653 Y134.956 E16.68908
G1 X172.657 Y137.434 E16.76187
G1 X172.652 Y137.859 E16.77436
G1 X172.664 Y139.952 E16.83584
G1 X172.668 Y142.423 E16.90843
G1 X172.663 Y142.839 E16.92065
G1 X172.675 Y144.952 E16.98272
G1 X172.675 Y147.769 E17.06547
G1 X172.687 Y149.954 E17.12966
G1 X172.691 Y152.423 E17.20219
G1 X172.686 Y152.839 E17.21441
G1 X172.698 Y154.952 E17.27648
G1 X172.698 Y157.734 E17.3582
G1 X172.711 Y159.95 E17.4233
G1 X172.715 Y162.439 E17.49641
G1 X172.709 Y162.936 E17.51101
G1 X172.721 Y164.95 E17.57018
G1 X172.729 Y170.337 E17.72842
G1 X172.725 Y173.861 E17.83194
G1 X172.718 Y174.343 E17.8461
G1 X172.707 Y174.69 E17.8563
G1 X172.689 Y175.075 E17.86762
G1 X172.606 Y176.001 E17.89493
G1 X172.462 Y176.83 E17.91965
G1 X172.419 Y177.031 E17.92569
G1 X172.186 Y177.931 E17.953
G1 X171.996 Y178.494 E17.97045
G1 X171.92 Y178.701 E17.97693
G1 X171.563 Y179.559 E18.00423
G1 X171.269 Y180.14 E18.02335
G1 X171.164 Y180.333 E18.02981
G1 X170.685 Y181.13 E18.05712
G1 X170.132 Y181.891 E18.08476
G1 X169.954 Y182.115 E18.09316
G1 X169.346 Y182.817 E18.12044
G1 X168.585 Y183.546 E18.1514
G1 X168.34 Y183.759 E18.16094
G1 X167.613 Y184.338 E18.18824
G1 X166.839 Y184.853 E18.21555
G1 X166.259 Y185.179 E18.23509
G1 X165.955 Y185.338 E18.24517
G1 X165.114 Y185.733 E18.27246
G1 X163.842 Y186.174 E18.31201
G1 X163.511 Y186.266 E18.3221
G1 X162.606 Y186.476 E18.34939
G1 X161.686 Y186.607 E18.37669
G1 X160.919 Y186.656 E18.39927
G1 X159.442 Y186.693 E18.44267
G1 X152.807 Y186.699 E18.63757
G1 X140.044 Y186.683 E19.01249
G1 X139.409 Y186.673 E19.03115
G1 X138.216 Y186.588 E19.06628
G1 X136.853 Y186.415 E19.10664
G1 X134.246 Y186.116 E19.18373
G1 X131.758 Y185.902 E19.25708
G1 X129.093 Y185.75 E19.33549
G1 X127.86 Y185.694 E19.37175
G1 X125.306 Y185.614 E19.44681
G1 X123.625 Y185.601 E19.49619
G1 X118.946 Y185.607 E19.63364
G1 X116.133 Y185.604 E19.71627
G1 X113.57 Y185.638 E19.79157
G1 X112.099 Y185.704 E19.83482
G1 X110.64 Y185.757 E19.87771
G1 X109.711 Y185.751 E19.905
G1 X108.739 Y185.658 E19.93368
G1 X108.406 Y185.611 E19.94356
G1 X107.492 Y185.442 E19.97087
G1 X106.596 Y185.194 E19.99818
G1 X106.123 Y185.029 E20.01289
G1 X105.907 Y184.948 E20.01967
G1 X105.052 Y184.585 E20.04696
G1 X104.231 Y184.149 E20.07426
G1 X103.117 Y183.399 E20.11371
G1 X102.849 Y183.193 E20.12364
G1 X102.137 Y182.595 E20.15095
G1 X101.48 Y181.939 E20.17823
G1 X100.881 Y181.228 E20.20554
G1 X100.455 Y180.636 E20.22696
G1 X100.269 Y180.358 E20.23679
G1 X99.786 Y179.564 E20.26409
G1 X99.373 Y178.731 E20.2914
G1 X99.078 Y177.994 E20.31472
G1 X99.006 Y177.793 E20.32099
G1 X98.73 Y176.906 E20.34828
G1 X98.532 Y175.998 E20.37558
G1 X98.403 Y174.956 E20.40642
G1 X98.372 Y174.541 E20.41865
G1 X98.348 Y173.365 E20.4532
G1 X98.364 Y172.939 E20.46572
G1 X98.454 Y171.022 E20.5221
G1 X98.501 Y168.311 E20.60175
G1 X98.504 Y167.3 E20.63144
G1 X98.515 Y166.629 E20.65116
G1 X98.602 Y165.431 E20.68644
G1 X98.864 Y163.388 E20.74695
G1 X99.154 Y160.771 E20.82429
G1 X99.36 Y158.255 E20.89845
G1 X99.495 Y155.746 E20.97226
G1 X99.559 Y153.227 E21.04628
G1 X99.562 Y151.491 E21.09727
G1 X99.558 Y150.556 E21.12474
G1 X99.566 Y148.917 E21.17289
G1 X99.56 Y147.593 E21.21178
G1 X99.563 Y145.511 E21.27294
G1 X99.512 Y142.931 E21.34874
