;FLAVOR:Marlin
;TIME:1753
;Filament used: 1.84629m
;Layer height: 0.28
;MINX:97.066
;MINY:113.013
;MINZ:0.28
;MAXX:172.888
;MAXY:186.989
;MAXZ:3.92
;Generated with Cura_SteamEngine 4.6.1
M140 S50
M105
M190 S50
M104 S190
M105
M109 S190
M82 ;absolute extrusion mode
M201 X500.00 Y500.00 Z100.00 E5000.00 ;Setup machine max acceleration
M203 X500.00 Y500.00 Z10.00 E50.00 ;Setup machine max feedrate
M204 P500.00 R1000.00 T500.00 ;Setup Print/Retract/Travel acceleration
M205 X8.00 Y8.00 Z0.40 E5.00 ;Setup Jerk
M220 S100 ;Reset Feedrate
M221 S100 ;Reset Flowrate

G28 ;Home

G92 E0 ;Reset Extruder
G1 Z2.0 F3000 ;Move Z Axis up
G1 X10.1 Y20 Z0.28 F5000.0 ;Move to start position
G1 X10.1 Y200.0 Z0.28 F1500.0 E15 ;Draw the first line
G1 X10.4 Y200.0 Z0.28 F5000.0 ;Move to side a little
G1 X10.4 Y20 Z0.28 F1500.0 E30 ;Draw the second line
G92 E0 ;Reset Extruder
G1 Z2.0 F3000 ;Move Z Axis up

G92 E0
G92 E0
G1 F2700 E-5
;LAYER_COUNT:14
;LAYER:0
M107
G0 F6000 X160.486 Y113.829 Z0.28
;TYPE:SKIRT
G1 F2700 E0
G1 F1200 X160.874 Y113.847 E0.02604
G1 X161.773 Y113.929 E0.08657
G1 X162.389 Y114.032 E0.12845
G1 X162.691 Y114.092 E0.1491
G1 X163.568 Y114.307 E0.20964
G1 X164.214 Y114.519 E0.25523
G1 X164.484 Y114.618 E0.27452
G1 X165.318 Y114.967 E0.33514
G1 X165.94 Y115.286 E0.38201
G1 X166.322 Y115.499 E0.41134
G1 X167.091 Y115.974 E0.47194
G1 X167.815 Y116.514 E0.5325
G1 X168.393 Y117.025 E0.58423
G1 X168.543 Y117.168 E0.59813
G1 X169.169 Y117.82 E0.65874
G1 X169.734 Y118.524 E0.71926
G1 X170.235 Y119.276 E0.77985
G1 X170.48 Y119.705 E0.81298
G1 X170.649 Y120.018 E0.83683
G1 X171.048 Y120.842 E0.89822
G1 X171.172 Y121.131 E0.91931
G1 X171.491 Y121.976 E0.97987
G1 X171.734 Y122.846 E1.04044
G1 X171.894 Y123.701 E1.09876
G1 X171.96 Y124.16 E1.12985
G1 X172.062 Y125.396 E1.21301
G1 X172.088 Y126.753 E1.30402
G1 X172.082 Y132.018 E1.65705
G1 X172.063 Y132.986 E1.72197
G1 X172.02 Y133.931 E1.7854
G1 X171.962 Y134.936 E1.8529
G1 X171.885 Y137.621 E2.03301
G1 X171.881 Y140.052 E2.19601
G1 X171.889 Y140.782 E2.24497
G1 X171.881 Y145.036 E2.53021
G1 X171.889 Y145.765 E2.57909
G1 X171.881 Y150.036 E2.86547
G1 X171.889 Y150.765 E2.91436
G1 X171.881 Y155.036 E3.20074
G1 X171.889 Y155.765 E3.24962
G1 X171.881 Y160.036 E3.536
G1 X171.926 Y163.41 E3.76226
G1 X172.045 Y166.271 E3.95426
G1 X172.083 Y167.965 E4.06788
G1 X172.086 Y173.707 E4.45289
G1 X172.079 Y174.293 E4.49219
G1 X172.07 Y174.624 E4.51439
G1 X172.056 Y174.939 E4.53553
G1 X171.976 Y175.838 E4.59605
G1 X171.875 Y176.449 E4.63758
G1 X171.804 Y176.811 E4.66231
G1 X171.591 Y177.689 E4.72289
G1 X171.302 Y178.544 E4.78341
G1 X170.901 Y179.444 E4.84947
G1 X170.58 Y180.08 E4.89724
G1 X170.138 Y180.867 E4.95777
G1 X169.628 Y181.613 E5.01836
G1 X168.938 Y182.436 E5.09037
G1 X168.843 Y182.538 E5.09972
G1 X168.199 Y183.171 E5.16027
G1 X167.501 Y183.744 E5.22082
G1 X166.756 Y184.254 E5.28136
G1 X166.132 Y184.611 E5.32956
G1 X165.644 Y184.868 E5.36654
G1 X164.415 Y185.415 E5.45675
G1 X164.214 Y185.489 E5.47111
G1 X163.354 Y185.763 E5.53163
G1 X162.472 Y185.96 E5.59223
G1 X161.979 Y186.035 E5.62566
G1 X161.5 Y186.096 E5.65804
G1 X160.375 Y186.177 E5.73367
G1 X159.523 Y186.189 E5.7908
G1 X140.089 Y186.18 E7.0939
G1 X139.598 Y186.168 E7.12683
G1 X138.971 Y186.137 E7.16893
G1 X136.328 Y186.044 E7.34626
G1 X133.776 Y186.027 E7.51738
G1 X132.42 Y186.058 E7.60833
G1 X129.373 Y186.108 E7.81266
G1 X123.754 Y186.113 E8.18943
G1 X110.06 Y186.098 E9.10765
G1 X109.396 Y186.088 E9.15217
G1 X108.495 Y186.034 E9.2127
G1 X107.602 Y185.901 E9.27323
G1 X106.859 Y185.728 E9.32439
G1 X106.413 Y185.606 E9.35539
G1 X105.553 Y185.329 E9.41597
G1 X104.561 Y184.899 E9.48847
G1 X104.362 Y184.8 E9.50337
G1 X103.572 Y184.363 E9.56391
G1 X102.492 Y183.6 E9.65258
G1 X102.189 Y183.355 E9.6787
G1 X101.512 Y182.756 E9.73931
G1 X100.891 Y182.1 E9.79988
G1 X100.23 Y181.25 E9.87208
G1 X99.969 Y180.875 E9.90272
G1 X99.487 Y180.111 E9.96329
G1 X99.048 Y179.254 E10.02786
G1 X98.943 Y179.022 E10.04493
G1 X98.608 Y178.183 E10.10551
G1 X98.253 Y176.907 E10.19431
G1 X98.191 Y176.611 E10.21459
G1 X98.045 Y175.72 E10.27513
G1 X97.976 Y174.711 E10.34295
G1 X97.954 Y173.457 E10.42704
G1 X97.952 Y165.567 E10.95609
G1 X97.941 Y163.088 E11.12231
G1 X97.95 Y162.188 E11.18266
G1 X97.937 Y159.721 E11.34808
G1 X97.942 Y159.146 E11.38664
G1 X97.93 Y156.695 E11.55099
G1 X97.935 Y156.094 E11.59129
G1 X97.924 Y153.668 E11.75396
G1 X97.928 Y153.34 E11.77595
G1 X97.916 Y150.621 E11.95827
G1 X97.921 Y150.026 E11.99817
G1 X97.909 Y147.53 E12.16553
G1 X97.914 Y146.961 E12.20369
G1 X97.902 Y144.505 E12.36837
G1 X97.907 Y144.104 E12.39526
G1 X97.895 Y141.496 E12.57013
G1 X97.9 Y141.102 E12.59655
G1 X97.888 Y138.505 E12.77069
G1 X97.893 Y138.104 E12.79758
G1 X97.881 Y135.48 E12.97353
G1 X97.887 Y134.975 E13.00739
G1 X97.875 Y132.905 E13.14619
G1 X97.866 Y126.111 E13.60175
G1 X97.875 Y125.416 E13.64835
G1 X97.927 Y124.514 E13.70894
G1 X98.047 Y123.676 E13.7657
G1 X98.089 Y123.451 E13.78105
G1 X98.294 Y122.572 E13.84157
G1 X98.576 Y121.714 E13.90213
G1 X98.748 Y121.288 E13.93293
G1 X98.944 Y120.833 E13.96615
G1 X99.338 Y120.02 E14.02673
G1 X99.802 Y119.245 E14.08729
G1 X100.339 Y118.507 E14.14849
G1 X100.56 Y118.23 E14.17225
G1 X101.154 Y117.549 E14.23285
G1 X102.133 Y116.649 E14.32201
G1 X102.339 Y116.483 E14.33975
G1 X103.067 Y115.948 E14.40033
G1 X103.919 Y115.436 E14.46698
G1 X104.223 Y115.273 E14.49011
G1 X105.037 Y114.882 E14.55066
G1 X106.078 Y114.502 E14.62497
G1 X106.315 Y114.43 E14.64158
G1 X107.19 Y114.206 E14.70214
G1 X108.504 Y114.02 E14.79113
G1 X108.963 Y113.985 E14.82199
G1 X109.532 Y113.957 E14.86019
G1 X110.492 Y113.939 E14.92457
G1 X115.959 Y113.921 E15.29115
G1 X129.805 Y113.899 E16.21956
G1 X130.716 Y113.911 E16.28065
G1 X133.062 Y113.977 E16.43802
G1 X135.58 Y113.975 E16.60686
G1 X138.425 Y113.891 E16.7977
G1 X139.534 Y113.845 E16.87213
G1 X140.421 Y113.832 E16.93161
G1 X159.65 Y113.813 E18.22096
G1 X160.486 Y113.829 E18.27703
G0 F6000 X160.504 Y113.429
G1 F1200 X160.892 Y113.447 E18.30307
G1 X161.809 Y113.53 E18.36481
G1 X162.467 Y113.639 E18.40953
G1 X162.769 Y113.699 E18.43018
G1 X163.663 Y113.918 E18.49189
G1 X164.352 Y114.144 E18.54052
G1 X164.622 Y114.243 E18.5598
G1 X165.472 Y114.597 E18.62154
G1 X166.135 Y114.937 E18.6715
G1 X166.517 Y115.15 E18.70083
G1 X167.301 Y115.633 E18.76257
G1 X168.04 Y116.182 E18.8243
G1 X168.669 Y116.736 E18.8805
G1 X168.819 Y116.879 E18.8944
G1 X169.457 Y117.542 E18.95609
G1 X170.035 Y118.259 E19.01785
G1 X170.549 Y119.023 E19.07959
G1 X170.832 Y119.515 E19.11765
G1 X171.001 Y119.828 E19.1415
G1 X171.415 Y120.684 E19.20526
G1 X171.539 Y120.973 E19.22634
G1 X171.865 Y121.834 E19.28807
G1 X172.115 Y122.72 E19.3498
G1 X172.29 Y123.644 E19.41286
G1 X172.356 Y124.103 E19.44395
G1 X172.462 Y125.387 E19.53034
G1 X172.488 Y126.753 E19.62195
G1 X172.482 Y132.024 E19.97539
G1 X172.463 Y133.004 E20.04111
G1 X172.419 Y133.954 E20.10488
G1 X172.362 Y134.935 E20.17077
G1 X172.285 Y137.633 E20.35175
G1 X172.281 Y140.048 E20.51368
G1 X172.289 Y140.783 E20.56297
G1 X172.281 Y145.037 E20.84821
G1 X172.289 Y145.766 E20.89709
G1 X172.281 Y150.037 E21.18347
G1 X172.289 Y150.766 E21.23236
G1 X172.281 Y155.037 E21.51874
G1 X172.289 Y155.766 E21.56762
G1 X172.281 Y160.037 E21.854
G1 X172.326 Y163.388 E22.07872
G1 X172.445 Y166.261 E22.27152
G1 X172.483 Y167.964 E22.38574
G1 X172.486 Y173.712 E22.77116
G1 X172.47 Y174.642 E22.83353
G1 X172.456 Y174.957 E22.85467
G1 X172.375 Y175.874 E22.9164
G1 X172.268 Y176.526 E22.9607
G1 X172.197 Y176.888 E22.98544
G1 X171.981 Y177.783 E23.04717
G1 X171.687 Y178.656 E23.10894
G1 X171.258 Y179.624 E23.17993
G1 X170.937 Y180.26 E23.2277
G1 X170.487 Y181.063 E23.28942
G1 X169.969 Y181.824 E23.35115
G1 X169.231 Y182.708 E23.42837
G1 X169.136 Y182.81 E23.43771
G1 X168.48 Y183.456 E23.49945
G1 X167.77 Y184.043 E23.56122
G1 X167.012 Y184.565 E23.62293
G1 X166.318 Y184.965 E23.67664
G1 X165.83 Y185.222 E23.71362
G1 X164.998 Y185.615 E23.77532
G1 X164.352 Y185.864 E23.82174
G1 X163.475 Y186.145 E23.88349
G1 X162.577 Y186.348 E23.94522
G1 X162.029 Y186.432 E23.9824
G1 X161.55 Y186.493 E24.01477
G1 X160.382 Y186.577 E24.09329
G1 X159.523 Y186.589 E24.1509
G1 X140.089 Y186.58 E25.454
G1 X139.579 Y186.567 E25.4882
G1 X138.939 Y186.536 E25.53117
G1 X136.346 Y186.444 E25.70514
G1 X133.783 Y186.427 E25.877
G1 X132.427 Y186.457 E25.96795
G1 X129.373 Y186.508 E26.17275
G1 X123.754 Y186.513 E26.54952
G1 X110.054 Y186.498 E27.46814
G1 X109.39 Y186.488 E27.51267
G1 X108.471 Y186.434 E27.5744
G1 X107.56 Y186.301 E27.63613
G1 X106.753 Y186.113 E27.69169
G1 X106.307 Y185.991 E27.72269
G1 X105.431 Y185.71 E27.78438
G1 X104.383 Y185.257 E27.86093
G1 X104.184 Y185.158 E27.87584
G1 X103.378 Y184.713 E27.93757
G1 X102.614 Y184.199 E27.99931
G1 X102.24 Y183.911 E28.03097
G1 X101.937 Y183.666 E28.05709
G1 X101.247 Y183.056 E28.11885
G1 X100.613 Y182.389 E28.18055
G1 X99.902 Y181.478 E28.25804
G1 X99.641 Y181.103 E28.28867
G1 X99.148 Y180.326 E28.35038
G1 X98.684 Y179.419 E28.41869
G1 X98.579 Y179.187 E28.43576
G1 X98.236 Y178.332 E28.49753
G1 X97.969 Y177.451 E28.55926
G1 X97.861 Y176.989 E28.59107
G1 X97.799 Y176.693 E28.61135
G1 X97.65 Y175.785 E28.67305
G1 X97.576 Y174.719 E28.7447
G1 X97.554 Y173.457 E28.82933
G1 X97.552 Y165.567 E29.35838
G1 X97.541 Y163.084 E29.52487
G1 X97.55 Y162.188 E29.58495
G1 X97.537 Y159.717 E29.75064
G1 X97.542 Y159.144 E29.78906
G1 X97.53 Y156.691 E29.95354
G1 X97.535 Y156.092 E29.99371
G1 X97.524 Y153.664 E30.15652
G1 X97.528 Y153.338 E30.17838
G1 X97.516 Y150.617 E30.36083
G1 X97.521 Y150.024 E30.40059
G1 X97.509 Y147.526 E30.56809
G1 X97.514 Y146.96 E30.60604
G1 X97.502 Y144.5 E30.77099
G1 X97.507 Y144.101 E30.79775
G1 X97.495 Y141.491 E30.97276
G1 X97.5 Y141.099 E30.99905
G1 X97.488 Y138.5 E31.17332
G1 X97.493 Y138.101 E31.20007
G1 X97.481 Y135.475 E31.37615
G1 X97.487 Y134.974 E31.40975
G1 X97.475 Y132.907 E31.54835
G1 X97.466 Y126.106 E32.00437
G1 X97.475 Y125.411 E32.05098
G1 X97.527 Y124.492 E32.1127
G1 X97.654 Y123.603 E32.17291
G1 X97.696 Y123.378 E32.18826
G1 X97.904 Y122.481 E32.25
G1 X98.189 Y121.606 E32.31171
G1 X98.381 Y121.129 E32.34619
G1 X98.577 Y120.674 E32.3794
G1 X98.977 Y119.845 E32.44112
G1 X99.448 Y119.054 E32.50285
G1 X100.026 Y118.257 E32.56887
G1 X100.247 Y117.98 E32.59263
G1 X100.852 Y117.286 E32.65436
G1 X101.515 Y116.647 E32.7161
G1 X101.882 Y116.337 E32.74832
G1 X102.088 Y116.171 E32.76606
G1 X102.829 Y115.625 E32.82777
G1 X103.73 Y115.083 E32.89828
G1 X104.034 Y114.92 E32.92141
G1 X104.864 Y114.521 E32.98316
G1 X105.962 Y114.12 E33.06154
G1 X106.199 Y114.048 E33.07814
G1 X107.09 Y113.819 E33.13983
G1 X107.999 Y113.668 E33.20162
G1 X108.474 Y113.621 E33.23362
G1 X108.933 Y113.586 E33.26449
G1 X109.524 Y113.557 E33.30416
G1 X110.491 Y113.539 E33.36901
G1 X115.958 Y113.521 E33.73559
G1 X129.81 Y113.499 E34.6644
G1 X130.728 Y113.511 E34.72596
G1 X133.074 Y113.577 E34.88333
G1 X135.602 Y113.575 E35.05284
G1 X138.395 Y113.492 E35.2402
G1 X139.528 Y113.445 E35.31623
G1 X140.421 Y113.432 E35.37612
G1 X159.655 Y113.413 E36.66581
G1 X160.504 Y113.429 E36.72274
G0 F6000 X160.523 Y113.03
G1 F1200 X160.911 Y113.048 E36.74879
G1 X161.845 Y113.131 E36.81166
G1 X162.545 Y113.247 E36.85924
G1 X162.847 Y113.307 E36.87988
G1 X163.758 Y113.529 E36.94276
G1 X164.49 Y113.768 E36.99439
G1 X164.76 Y113.867 E37.01367
G1 X165.626 Y114.227 E37.07656
G1 X166.33 Y114.588 E37.12961
G1 X166.712 Y114.801 E37.15893
G1 X167.511 Y115.292 E37.22181
G1 X168.265 Y115.849 E37.28467
G1 X168.945 Y116.446 E37.34535
G1 X169.095 Y116.589 E37.35924
G1 X169.746 Y117.265 E37.42217
G1 X170.337 Y117.993 E37.48504
G1 X170.863 Y118.769 E37.5479
G1 X171.184 Y119.325 E37.59095
G1 X171.353 Y119.638 E37.6148
G1 X171.783 Y120.527 E37.68102
G1 X171.907 Y120.816 E37.70211
G1 X172.24 Y121.693 E37.76501
G1 X172.496 Y122.595 E37.82788
G1 X172.686 Y123.587 E37.8956
G1 X172.752 Y124.046 E37.9267
G1 X172.862 Y125.379 E38.01638
G1 X172.888 Y126.754 E38.10859
G1 X172.882 Y132.03 E38.46236
G1 X172.872 Y132.698 E38.50716
G1 X172.862 Y133.021 E38.52883
G1 X172.819 Y133.977 E38.593
G1 X172.761 Y134.975 E38.66003
G1 X172.685 Y137.608 E38.83665
G1 X172.681 Y140.043 E38.99992
G1 X172.689 Y140.784 E39.04961
G1 X172.681 Y144.995 E39.33197
G1 X172.689 Y145.767 E39.38374
G1 X172.681 Y149.964 E39.66516
G1 X172.689 Y150.767 E39.719
G1 X172.681 Y154.995 E40.0025
G1 X172.689 Y155.767 E40.05427
G1 X172.681 Y160.038 E40.34065
G1 X172.726 Y163.4 E40.5661
G1 X172.845 Y166.252 E40.7575
G1 X172.883 Y167.964 E40.87232
G1 X172.886 Y173.716 E41.25801
G1 X172.879 Y174.302 E41.2973
G1 X172.869 Y174.659 E41.32125
G1 X172.855 Y174.974 E41.34239
G1 X172.774 Y175.909 E41.40532
G1 X172.66 Y176.603 E41.45248
G1 X172.589 Y176.965 E41.47721
G1 X172.37 Y177.877 E41.5401
G1 X172.073 Y178.767 E41.60302
G1 X171.615 Y179.804 E41.67903
G1 X171.294 Y180.44 E41.7268
G1 X170.836 Y181.259 E41.78972
G1 X170.31 Y182.035 E41.85258
G1 X169.523 Y182.981 E41.93509
G1 X169.428 Y183.083 E41.94444
G1 X168.761 Y183.741 E42.00726
G1 X168.039 Y184.341 E42.07021
G1 X167.269 Y184.876 E42.13308
G1 X166.505 Y185.319 E42.19229
G1 X166.017 Y185.576 E42.22927
G1 X165.169 Y185.977 E42.29217
G1 X164.691 Y186.166 E42.32664
G1 X164.49 Y186.24 E42.341
G1 X163.597 Y186.526 E42.40387
G1 X162.683 Y186.735 E42.46674
G1 X162.08 Y186.829 E42.50766
G1 X161.601 Y186.89 E42.54004
G1 X160.388 Y186.977 E42.62158
G1 X159.523 Y186.989 E42.67959
G1 X140.089 Y186.98 E43.98269
G1 X139.559 Y186.967 E44.01823
G1 X138.903 Y186.935 E44.06227
G1 X136.329 Y186.844 E44.23497
G1 X133.789 Y186.827 E44.40529
G1 X132.434 Y186.857 E44.49617
G1 X129.374 Y186.908 E44.70138
G1 X123.755 Y186.913 E45.07815
G1 X110.048 Y186.898 E45.99723
G1 X109.384 Y186.888 E46.04176
G1 X108.448 Y186.834 E46.10463
G1 X107.52 Y186.7 E46.1675
G1 X106.648 Y186.499 E46.2275
G1 X106.202 Y186.377 E46.2585
G1 X105.308 Y186.091 E46.32144
G1 X104.204 Y185.616 E46.40203
G1 X104.005 Y185.517 E46.41693
G1 X103.184 Y185.063 E46.47984
G1 X102.405 Y184.542 E46.54268
G1 X101.989 Y184.222 E46.57787
G1 X101.686 Y183.977 E46.604
G1 X100.982 Y183.356 E46.66694
G1 X100.334 Y182.678 E46.72983
G1 X99.574 Y181.707 E46.81251
G1 X99.313 Y181.332 E46.84314
G1 X98.81 Y180.54 E46.90606
G1 X98.32 Y179.584 E46.97809
G1 X98.215 Y179.352 E46.99516
G1 X97.865 Y178.481 E47.0581
G1 X97.59 Y177.585 E47.12095
G1 X97.47 Y177.071 E47.15634
G1 X97.408 Y176.775 E47.17662
G1 X97.255 Y175.85 E47.23948
G1 X97.176 Y174.726 E47.31504
G1 X97.154 Y173.457 E47.40014
G1 X97.152 Y165.567 E47.92918
G1 X97.141 Y163.08 E48.09594
G1 X97.15 Y162.188 E48.15576
G1 X97.137 Y159.713 E48.32172
G1 X97.142 Y159.143 E48.35994
G1 X97.13 Y156.688 E48.52455
G1 X97.135 Y156.091 E48.56458
G1 X97.124 Y153.659 E48.72766
G1 X97.128 Y153.335 E48.74938
G1 X97.116 Y150.613 E48.9319
G1 X97.121 Y150.023 E48.97147
G1 X97.11 Y147.522 E49.13916
G1 X97.115 Y146.998 E49.1743
G1 X97.102 Y144.495 E49.34214
G1 X97.107 Y144.098 E49.36876
G1 X97.095 Y141.487 E49.54383
G1 X97.1 Y141.097 E49.56999
G1 X97.088 Y138.495 E49.74446
G1 X97.093 Y138.098 E49.77108
G1 X97.081 Y135.471 E49.94723
G1 X97.087 Y134.972 E49.98069
G1 X97.075 Y132.909 E50.11902
G1 X97.066 Y126.101 E50.57552
G1 X97.075 Y125.406 E50.62212
G1 X97.127 Y124.469 E50.68505
G1 X97.261 Y123.53 E50.74865
G1 X97.303 Y123.305 E50.76399
G1 X97.514 Y122.391 E50.82689
G1 X97.802 Y121.498 E50.88981
G1 X98.013 Y120.971 E50.92787
G1 X98.209 Y120.516 E50.96109
G1 X98.617 Y119.671 E51.02401
G1 X99.095 Y118.864 E51.0869
G1 X99.713 Y118.008 E51.15769
G1 X99.934 Y117.731 E51.18145
G1 X100.55 Y117.023 E51.24438
G1 X101.224 Y116.371 E51.30726
G1 X101.631 Y116.026 E51.34303
G1 X101.837 Y115.86 E51.36077
G1 X102.592 Y115.303 E51.42368
G1 X103.541 Y114.731 E51.49798
G1 X103.845 Y114.568 E51.52111
G1 X104.69 Y114.16 E51.58403
G1 X105.846 Y113.737 E51.66657
G1 X106.083 Y113.665 E51.68317
G1 X106.991 Y113.431 E51.74605
G1 X107.916 Y113.275 E51.80895
G1 X108.444 Y113.222 E51.84453
G1 X108.903 Y113.187 E51.87539
G1 X109.515 Y113.157 E51.91648
G1 X110.49 Y113.139 E51.98187
G1 X115.957 Y113.121 E52.34845
G1 X129.814 Y113.099 E53.27759
G1 X130.739 Y113.111 E53.33962
