;FLAVOR:Marlin
;TIME:1999
;Filament used: 2.39921m
;Layer height: 0.28
;MINX:67.5
;MINY:101.5
;MINZ:0.28
;MAXX:183.403
;MAXY:202.5
;MAXZ:5.88
;Generated with Cura_SteamEngine 4.6.1
M140 S50
M105
M190 S50
M104 S200
M105
M109 S200
M82 ;absolute extrusion mode
M201 X500.00 Y500.00 Z100.00 E5000.00 ;Setup machine max acceleration
M203 X500.00 Y500.00 Z10.00 E50.00 ;Setup machine max feedrate
M204 P500.00 R1000.00 T500.00 ;Setup Print/Retract/Travel acceleration
M205 X8.00 Y8.00 Z0.40 E5.00 ;Setup Jerk
M220 S100 ;Reset Feedrate
M221 S100 ;Reset Flowrate

G28 ;Home

G92 E0 ;Reset Extruder
G1 Z2.0 F3000 ;Move Z Axis up
G1 X10.1 Y20 Z0.28 F5000.0 ;Move to start position
G1 X10.1 Y200.0 Z0.28 F1500.0 E15 ;Draw the first line
G1 X10.4 Y200.0 Z0.28 F5000.0 ;Move to side a little
G1 X10.4 Y20 Z0.28 F1500.0 E30 ;Draw the second line
G92 E0 ;Reset Extruder
G1 Z2.0 F3000 ;Move Z Axis up

G92 E0
G92 E0
G1 F2700 E-5
;LAYER_COUNT:21
;LAYER:0
M107
G0 F6000 X105.148 Y102.311 Z0.28
;TYPE:SKIRT
G1 F2700 E0
G1 F1200 X106.05 Y102.364 E0.06059
G1 X106.577 Y102.432 E0.09622
G1 X107.172 Y102.525 E0.1366
G1 X108.057 Y102.704 E0.19714
G1 X108.923 Y102.961 E0.25771
G1 X109.818 Y103.317 E0.32229
G1 X110.005 Y103.402 E0.33607
G1 X110.427 Y103.606 E0.3675
G1 X110.783 Y103.788 E0.39431
G1 X111.568 Y104.234 E0.45484
G1 X112.311 Y104.748 E0.51542
G1 X113.183 Y105.492 E0.59228
G1 X113.946 Y106.223 E0.66314
G1 X115.169 Y107.43 E0.77835
G1 X117.038 Y109.172 E0.94967
G1 X118.93 Y110.839 E1.11875
G1 X120.912 Y112.486 E1.29154
G1 X122.896 Y114.044 E1.46069
G1 X124.934 Y115.553 E1.63072
G1 X127.028 Y117.013 E1.80189
G1 X129.135 Y118.396 E1.97089
G1 X131.296 Y119.727 E2.14107
G1 X133.506 Y121.005 E2.31225
G1 X135.741 Y122.213 E2.4826
G1 X137.998 Y123.352 E2.65211
G1 X140.331 Y124.448 E2.82495
G1 X142.607 Y125.44 E2.99143
G1 X144.988 Y126.398 E3.16352
G1 X147.393 Y127.288 E3.33546
G1 X149.763 Y128.09 E3.50323
G1 X152.198 Y128.836 E3.67399
G1 X154.65 Y129.514 E3.84458
G1 X157.143 Y130.128 E4.01673
G1 X159.609 Y130.66 E4.18589
G1 X162.093 Y131.124 E4.35533
G1 X164.621 Y131.522 E4.52692
G1 X167.102 Y131.842 E4.69466
G1 X169.662 Y132.098 E4.86717
G1 X172.224 Y132.282 E5.0394
G1 X172.771 Y132.311 E5.07613
G1 X173.111 Y132.335 E5.09898
G1 X174.008 Y132.439 E5.15953
G1 X174.893 Y132.621 E5.22012
G1 X175.758 Y132.881 E5.28068
G1 X176.596 Y133.216 E5.34119
G1 X177.402 Y133.625 E5.4018
G1 X178.168 Y134.102 E5.4623
G1 X178.889 Y134.646 E5.52287
G1 X179.559 Y135.252 E5.58344
G1 X180.173 Y135.914 E5.64398
G1 X180.726 Y136.628 E5.70454
G1 X181.214 Y137.388 E5.7651
G1 X181.632 Y138.188 E5.82562
G1 X181.978 Y139.023 E5.88623
G1 X182.249 Y139.884 E5.94675
G1 X182.443 Y140.766 E6.00731
G1 X182.558 Y141.662 E6.06788
G1 X182.588 Y142.196 E6.10374
G1 X182.602 Y142.801 E6.14432
G1 X182.603 Y157.058 E7.10028
G1 X182.593 Y157.775 E7.14837
G1 X182.54 Y158.677 E7.20895
G1 X182.408 Y159.57 E7.26948
G1 X182.198 Y160.448 E7.33001
G1 X181.91 Y161.305 E7.39063
G1 X181.548 Y162.132 E7.45117
G1 X181.114 Y162.924 E7.51172
G1 X180.612 Y163.675 E7.57229
G1 X180.046 Y164.378 E7.63281
G1 X179.419 Y165.028 E7.69337
G1 X178.737 Y165.621 E7.75397
G1 X178.006 Y166.15 E7.81447
G1 X177.231 Y166.613 E7.875
G1 X176.417 Y167.006 E7.93561
G1 X175.811 Y167.244 E7.97927
G1 X175.029 Y167.522 E8.03492
G1 X172.63 Y168.41 E8.20644
G1 X170.305 Y169.345 E8.37447
G1 X167.952 Y170.37 E8.54657
G1 X165.643 Y171.455 E8.71763
G1 X163.39 Y172.593 E8.88688
G1 X161.129 Y173.816 E9.05924
G1 X158.951 Y175.075 E9.22793
G1 X156.788 Y176.409 E9.39833
G1 X154.682 Y177.789 E9.56715
G1 X152.566 Y179.266 E9.74018
G1 X150.546 Y180.761 E9.90869
G1 X148.552 Y182.325 E10.07861
G1 X146.584 Y183.963 E10.2503
G1 X144.684 Y185.637 E10.42009
G1 X142.836 Y187.36 E10.58951
G1 X141.028 Y189.142 E10.75973
G1 X139.253 Y190.996 E10.93183
G1 X137.558 Y192.869 E11.10121
G1 X135.903 Y194.804 E11.27194
G1 X134.264 Y196.836 E11.44699
G1 X133.519 Y197.786 E11.52794
G1 X132.931 Y198.471 E11.58847
G1 X132.284 Y199.102 E11.64907
G1 X131.584 Y199.673 E11.70964
G1 X130.837 Y200.179 E11.77014
G1 X130.047 Y200.618 E11.83074
G1 X129.222 Y200.985 E11.89129
G1 X128.368 Y201.278 E11.95183
G1 X127.491 Y201.493 E12.01237
G1 X126.598 Y201.631 E12.07296
G1 X125.777 Y201.687 E12.12814
G1 X125.17 Y201.7 E12.16885
G1 X79.075 Y201.699 E15.25963
G1 X78.377 Y201.69 E15.30644
G1 X77.476 Y201.639 E15.36695
G1 X76.582 Y201.507 E15.42754
G1 X75.704 Y201.298 E15.48806
G1 X74.847 Y201.011 E15.54866
G1 X74.02 Y200.65 E15.60917
G1 X73.227 Y200.217 E15.66975
G1 X72.476 Y199.716 E15.73028
G1 X71.772 Y199.15 E15.79085
G1 X71.121 Y198.524 E15.85141
G1 X70.528 Y197.843 E15.91196
G1 X69.998 Y197.112 E15.9725
G1 X69.534 Y196.337 E16.03307
G1 X69.14 Y195.524 E16.09365
G1 X68.82 Y194.68 E16.15417
G1 X68.576 Y193.81 E16.21476
G1 X68.41 Y192.922 E16.27533
G1 X68.313 Y191.767 E16.35305
G1 X68.3 Y191.158 E16.39389
G1 X68.301 Y178.045 E17.27315
G1 X68.311 Y177.348 E17.31989
G1 X68.364 Y176.446 E17.38048
G1 X68.431 Y175.93 E17.41537
G1 X68.521 Y175.35 E17.45472
G1 X68.698 Y174.465 E17.51524
G1 X68.954 Y173.598 E17.57586
G1 X69.448 Y172.411 E17.66206
G1 X69.723 Y171.852 E17.70384
G1 X70.385 Y170.702 E17.79281
G1 X70.708 Y170.218 E17.83183
G1 X71.744 Y168.705 E17.95478
G1 X73.133 Y166.549 E18.12675
G1 X74.432 Y164.401 E18.29507
G1 X75.691 Y162.182 E18.46614
G1 X76.877 Y159.946 E18.63585
G1 X78.012 Y157.65 E18.80759
G1 X79.065 Y155.357 E18.97678
G1 X80.076 Y152.988 E19.14948
G1 X81.001 Y150.634 E19.31907
G1 X81.855 Y148.26 E19.48824
G1 X82.644 Y145.862 E19.65751
G1 X83.37 Y143.426 E19.82795
G1 X84.034 Y140.941 E20.00042
G1 X84.617 Y138.484 E20.16975
G1 X85.139 Y135.976 E20.34152
G1 X85.572 Y133.538 E20.50755
G1 X85.953 Y130.982 E20.68083
G1 X86.258 Y128.455 E20.8515
G1 X86.501 Y125.915 E21.02259
G1 X86.675 Y123.329 E21.19638
G1 X86.773 Y120.807 E21.36562
G1 X86.8 Y118.563 E21.51609
G1 X86.801 Y115.046 E21.75191
G1 X86.811 Y114.34 E21.79926
G1 X86.864 Y113.438 E21.85984
G1 X86.935 Y112.892 E21.89676
G1 X87.026 Y112.316 E21.93586
G1 X87.206 Y111.431 E21.99642
G1 X87.464 Y110.566 E22.05695
G1 X87.826 Y109.663 E22.12218
G1 X87.918 Y109.462 E22.137
G1 X88.117 Y109.053 E22.1675
G1 X88.297 Y108.702 E22.19395
G1 X88.744 Y107.917 E22.25452
G1 X89.259 Y107.175 E22.31508
G1 X90.004 Y106.304 E22.39194
G1 X90.648 Y105.645 E22.45372
G1 X91.318 Y105.04 E22.51425
G1 X92.04 Y104.497 E22.57482
G1 X92.973 Y103.927 E22.64814
G1 X93.55 Y103.62 E22.69196
G1 X93.762 Y103.513 E22.70788
G1 X94.586 Y103.142 E22.76848
G1 X95.439 Y102.846 E22.82902
G1 X96.597 Y102.572 E22.90881
G1 X97.139 Y102.477 E22.9457
G1 X98.026 Y102.361 E23.00569
G1 X98.247 Y102.342 E23.02056
G1 X99.023 Y102.305 E23.07265
G1 X99.541 Y102.3 E23.10739
G1 X104.45 Y102.301 E23.43655
G1 X105.148 Y102.311 E23.48335
G0 F6000 X105.154 Y101.911
G1 F1200 X106.073 Y101.964 E23.54508
G1 X106.639 Y102.037 E23.58334
G1 X107.234 Y102.13 E23.62372
G1 X108.137 Y102.312 E23.68549
G1 X109.02 Y102.571 E23.74719
G1 X109.983 Y102.953 E23.81666
G1 X110.17 Y103.038 E23.83043
G1 X110.609 Y103.25 E23.86312
G1 X110.965 Y103.432 E23.88993
G1 X111.766 Y103.886 E23.95167
G1 X112.524 Y104.408 E24.01338
G1 X113.46 Y105.203 E24.09572
G1 X114.227 Y105.938 E24.16695
G1 X115.457 Y107.152 E24.28283
G1 X117.294 Y108.864 E24.45121
G1 X119.222 Y110.562 E24.62347
G1 X121.13 Y112.149 E24.78988
G1 X123.136 Y113.723 E24.96085
G1 X125.179 Y115.236 E25.13131
G1 X127.231 Y116.667 E25.29906
G1 X129.359 Y118.064 E25.46975
G1 X131.527 Y119.399 E25.64047
G1 X133.69 Y120.65 E25.80801
G1 X135.933 Y121.861 E25.97893
G1 X138.17 Y122.991 E26.14698
G1 X140.482 Y124.077 E26.31825
G1 X142.78 Y125.078 E26.48632
G1 X145.128 Y126.023 E26.65604
G1 X147.523 Y126.91 E26.82729
G1 X149.903 Y127.715 E26.99575
G1 X152.316 Y128.455 E27.16499
G1 X154.738 Y129.124 E27.33347
G1 X157.226 Y129.737 E27.50528
G1 X159.689 Y130.268 E27.67423
G1 X162.157 Y130.729 E27.84258
G1 X164.668 Y131.125 E28.01303
G1 X167.16 Y131.446 E28.1815
G1 X169.691 Y131.699 E28.35206
G1 X172.272 Y131.884 E28.52556
G1 X172.799 Y131.912 E28.56095
G1 X173.139 Y131.936 E28.5838
G1 X174.054 Y132.041 E28.64556
G1 X174.956 Y132.225 E28.70729
G1 X175.839 Y132.486 E28.76903
G1 X176.696 Y132.823 E28.83077
G1 X177.52 Y133.233 E28.89249
G1 X178.306 Y133.712 E28.95421
G1 X179.047 Y134.259 E29.01596
G1 X179.738 Y134.867 E29.07768
G1 X180.373 Y135.533 E29.13938
G1 X180.949 Y136.252 E29.20115
G1 X181.459 Y137.018 E29.26286
G1 X181.902 Y137.826 E29.32465
G1 X182.272 Y138.668 E29.38631
G1 X182.568 Y139.54 E29.44806
G1 X182.788 Y140.434 E29.50979
G1 X182.929 Y141.344 E29.57154
G1 X182.988 Y142.183 E29.62794
G1 X182.997 Y142.475 E29.64752
G1 X183.002 Y142.8 E29.66932
G1 X183.003 Y157.064 E30.62575
G1 X182.993 Y157.781 E30.67384
G1 X182.94 Y158.7 E30.73556
G1 X182.808 Y159.611 E30.79728
G1 X182.597 Y160.507 E30.859
G1 X182.309 Y161.382 E30.92077
G1 X181.946 Y162.228 E30.9825
G1 X181.512 Y163.039 E31.04418
G1 X181.008 Y163.81 E31.10594
G1 X180.44 Y164.534 E31.16764
G1 X179.81 Y165.206 E31.22941
G1 X179.125 Y165.821 E31.29113
G1 X178.389 Y166.375 E31.3529
G1 X177.608 Y166.862 E31.41462
G1 X176.788 Y167.28 E31.47633
G1 X175.945 Y167.621 E31.53731
G1 X175.231 Y167.875 E31.58812
G1 X172.77 Y168.785 E31.76406
G1 X170.417 Y169.732 E31.93413
G1 X168.133 Y170.727 E32.10118
G1 X165.815 Y171.817 E32.27293
G1 X163.581 Y172.945 E32.44074
G1 X161.34 Y174.157 E32.61157
G1 X159.156 Y175.42 E32.78074
G1 X156.995 Y176.752 E32.95095
G1 X154.901 Y178.125 E33.11885
G1 X152.81 Y179.584 E33.28982
G1 X150.785 Y181.082 E33.45871
G1 X148.788 Y182.649 E33.62892
G1 X146.861 Y184.252 E33.79699
G1 X144.938 Y185.947 E33.96887
G1 X143.106 Y187.655 E34.13682
G1 X141.315 Y189.42 E34.30542
G1 X139.556 Y191.258 E34.47601
G1 X137.858 Y193.133 E34.64562
G1 X136.226 Y195.042 E34.81403
G1 X134.571 Y197.093 E34.99074
G1 X133.834 Y198.033 E35.07083
G1 X133.234 Y198.732 E35.1326
G1 X132.577 Y199.376 E35.19429
G1 X131.866 Y199.961 E35.25603
G1 X131.107 Y200.482 E35.31776
G1 X130.306 Y200.935 E35.37946
G1 X129.468 Y201.317 E35.44121
G1 X128.6 Y201.625 E35.50297
G1 X127.709 Y201.857 E35.5647
G1 X126.801 Y202.01 E35.62645
G1 X125.788 Y202.087 E35.69457
G1 X125.17 Y202.1 E35.73601
G1 X79.07 Y202.099 E38.82713
G1 X78.372 Y202.09 E38.87394
G1 X77.453 Y202.038 E38.93566
G1 X76.542 Y201.907 E38.99737
G1 X75.646 Y201.697 E39.05908
G1 X74.771 Y201.41 E39.12082
G1 X73.924 Y201.048 E39.18259
G1 X73.112 Y200.614 E39.24432
G1 X72.341 Y200.112 E39.30601
G1 X71.616 Y199.544 E39.36777
G1 X70.943 Y198.915 E39.42953
G1 X70.328 Y198.231 E39.49121
G1 X69.774 Y197.496 E39.55293
G1 X69.286 Y196.715 E39.61468
G1 X68.867 Y195.895 E39.67642
G1 X68.521 Y195.042 E39.73814
G1 X68.251 Y194.162 E39.79987
G1 X68.058 Y193.261 E39.86165
G1 X67.944 Y192.348 E39.92334
G1 X67.913 Y191.777 E39.96169
G1 X67.9 Y191.158 E40.0032
G1 X67.901 Y178.039 E40.88286
G1 X67.911 Y177.342 E40.9296
G1 X67.964 Y176.423 E40.99133
G1 X68.035 Y175.869 E41.02878
G1 X68.125 Y175.289 E41.06813
G1 X68.306 Y174.386 E41.12989
G1 X68.564 Y173.502 E41.19163
G1 X69.089 Y172.235 E41.28359
G1 X69.364 Y171.676 E41.32537
G1 X70.052 Y170.481 E41.41782
G1 X70.378 Y169.992 E41.45723
G1 X71.411 Y168.484 E41.5798
G1 X72.781 Y166.356 E41.7495
G1 X74.1 Y164.176 E41.92034
G1 X75.347 Y161.977 E42.08985
G1 X76.523 Y159.76 E42.25812
G1 X77.648 Y157.484 E42.42836
G1 X78.698 Y155.199 E42.59698
G1 X79.694 Y152.864 E42.76719
G1 X80.639 Y150.459 E42.94046
G1 X81.471 Y148.148 E43.10515
G1 X82.264 Y145.737 E43.27534
G1 X82.989 Y143.304 E43.44556
G1 X83.644 Y140.851 E43.61581
G1 X84.221 Y138.423 E43.78314
G1 X84.748 Y135.889 E43.95669
G1 X85.182 Y133.445 E44.12313
G1 X85.555 Y130.942 E44.29281
G1 X85.86 Y128.415 E44.46349
G1 X86.105 Y125.851 E44.63619
G1 X86.275 Y123.322 E44.80615
G1 X86.373 Y120.786 E44.97632
G1 X86.4 Y118.558 E45.12573
G1 X86.401 Y115.04 E45.36162
G1 X86.411 Y114.334 E45.40896
G1 X86.464 Y113.415 E45.47068
G1 X86.54 Y112.83 E45.51024
G1 X86.631 Y112.254 E45.54934
G1 X86.814 Y111.352 E45.61105
G1 X87.075 Y110.469 E45.67279
G1 X87.463 Y109.496 E45.74303
G1 X87.555 Y109.295 E45.75785
G1 X87.761 Y108.87 E45.78952
G1 X87.941 Y108.519 E45.81597
G1 X88.396 Y107.719 E45.87768
G1 X88.919 Y106.961 E45.93943
G1 X89.715 Y106.027 E46.02172
G1 X90.367 Y105.361 E46.08421
G1 X91.05 Y104.743 E46.14597
G1 X91.784 Y104.187 E46.20772
G1 X92.783 Y103.575 E46.28627
G1 X93.37 Y103.263 E46.33085
G1 X93.582 Y103.156 E46.34677
G1 X94.421 Y102.777 E46.4085
G1 X95.29 Y102.473 E46.47023
G1 X96.528 Y102.178 E46.55557
G1 X97.07 Y102.083 E46.59246
G1 X97.992 Y101.963 E46.65481
G1 X98.213 Y101.944 E46.66968
G1 X99.019 Y101.905 E46.72379
G1 X99.537 Y101.9 E46.75852
G1 X104.456 Y101.901 E47.08835
G1 X105.154 Y101.911 E47.13516
G0 F6000 X105.16 Y101.511
G1 F1200 X106.096 Y101.565 E47.19802
G1 X106.701 Y101.642 E47.23892
G1 X107.296 Y101.735 E47.2793
G1 X108.215 Y101.919 E47.34214
G1 X109.116 Y102.181 E47.40506
G1 X110.149 Y102.589 E47.47953
G1 X110.336 Y102.674 E47.49331
G1 X110.791 Y102.894 E47.52719
G1 X111.147 Y103.076 E47.554
G1 X111.963 Y103.538 E47.61688
G1 X112.737 Y104.068 E47.67978
G1 X113.736 Y104.914 E47.76756
G1 X114.508 Y105.653 E47.83921
G1 X115.728 Y106.857 E47.95415
G1 X117.585 Y108.588 E48.12437
G1 X119.459 Y110.238 E48.29179
G1 X121.408 Y111.86 E48.46181
G1 X123.375 Y113.403 E48.62944
G1 X125.416 Y114.914 E48.79972
G1 X127.456 Y116.337 E48.9665
G1 X129.557 Y117.716 E49.13501
G1 X131.726 Y119.052 E49.30582
G1 X133.89 Y120.303 E49.47342
G1 X136.11 Y121.503 E49.64264
G1 X138.355 Y122.636 E49.81125
G1 X140.633 Y123.706 E49.98001
G1 X142.941 Y124.712 E50.14883
G1 X145.291 Y125.658 E50.31869
G1 X147.642 Y126.528 E50.48678
G1 X150.011 Y127.329 E50.65446
G1 X152.425 Y128.069 E50.82376
G1 X154.869 Y128.744 E50.99377
G1 X157.309 Y129.346 E51.16228
G1 X159.774 Y129.878 E51.33137
G1 X162.221 Y130.334 E51.49827
G1 X164.71 Y130.726 E51.66722
G1 X167.215 Y131.049 E51.83658
G1 X169.726 Y131.3 E52.00579
G1 X172.276 Y131.484 E52.17722
G1 X172.828 Y131.513 E52.21428
G1 X173.168 Y131.537 E52.23714
G1 X174.099 Y131.643 E52.29997
G1 X175.019 Y131.828 E52.36289
G1 X175.919 Y132.091 E52.42576
G1 X176.794 Y132.429 E52.48866
G1 X177.637 Y132.84 E52.55154
G1 X178.441 Y133.322 E52.6144
G1 X179.202 Y133.871 E52.67732
G1 X179.913 Y134.482 E52.74018
G1 X180.57 Y135.152 E52.8031
G1 X181.167 Y135.875 E52.86597
G1 X181.7 Y136.647 E52.92887
G1 X182.166 Y137.461 E52.99176
G1 X182.56 Y138.312 E53.05464
G1 X182.881 Y139.193 E53.11751
G1 X183.125 Y140.098 E53.18036
G1 X183.292 Y141.021 E53.24326
G1 X183.388 Y142.171 E53.32064
G1 X183.397 Y142.463 E53.34022
G1 X183.402 Y142.8 E53.36282
G1 X183.403 Y157.069 E54.31959
G1 X183.393 Y157.786 E54.36768
G1 X183.34 Y158.723 E54.4306
G1 X183.207 Y159.651 E54.49347
G1 X182.996 Y160.565 E54.55636
G1 X182.708 Y161.457 E54.61921
G1 X182.344 Y162.322 E54.68214
G1 X181.909 Y163.153 E54.74503
G1 X181.404 Y163.943 E54.8079
G1 X180.834 Y164.688 E54.8708
G1 X180.202 Y165.381 E54.93369
G1 X179.514 Y166.018 E54.99656
G1 X178.774 Y166.594 E55.05944
G1 X177.987 Y167.105 E55.12236
G1 X177.16 Y167.547 E55.18523
G1 X176.079 Y167.998 E55.26377
G1 X175.329 Y168.265 E55.31715
G1 X172.933 Y169.151 E55.48844
G1 X170.578 Y170.099 E55.65866
G1 X168.284 Y171.098 E55.82643
G1 X165.986 Y172.178 E55.99669
G1 X163.773 Y173.296 E56.16294
G1 X161.539 Y174.503 E56.3332
G1 X159.345 Y175.772 E56.50315
G1 X157.245 Y177.067 E56.66858
G1 X155.104 Y178.471 E56.84025
G1 X153.031 Y179.917 E57.00973
G1 X151.047 Y181.386 E57.17526
G1 X149.046 Y182.956 E57.3458
G1 X147.116 Y184.562 E57.51415
G1 X145.211 Y186.239 E57.68433
G1 X143.377 Y187.95 E57.85251
G1 X141.602 Y189.699 E58.0196
G1 X139.84 Y191.539 E58.19042
G1 X138.144 Y193.413 E58.3599
G1 X136.534 Y195.296 E58.52602
G1 X134.877 Y197.351 E58.70302
G1 X134.148 Y198.28 E58.78221
G1 X133.539 Y198.992 E58.84503
G1 X132.87 Y199.65 E58.90795
G1 X132.148 Y200.249 E58.97085
G1 X131.378 Y200.784 E59.03372
G1 X130.565 Y201.252 E59.09662
G1 X129.715 Y201.648 E59.1595
G1 X128.835 Y201.971 E59.22235
G1 X127.93 Y202.218 E59.28526
G1 X127.007 Y202.386 E59.34816
G1 X125.799 Y202.487 E59.42944
G1 X125.17 Y202.5 E59.47163
G1 X79.065 Y202.499 E62.56308
G1 X78.367 Y202.49 E62.60989
