;FLAVOR:Marlin
;TIME:3610
;Filament used: 1.82605m
;Layer height: 0.16
;MINX:67.5
;MINY:101.5
;MINZ:0.16
;MAXX:183.388
;MAXY:202.5
;MAXZ:5.96
;Generated with Cura_SteamEngine 4.6.1
M140 S50
M105
M190 S50
M104 S200
M105
M109 S200
M82 ;absolute extrusion mode
M201 X500.00 Y500.00 Z100.00 E5000.00 ;Setup machine max acceleration
M203 X500.00 Y500.00 Z10.00 E50.00 ;Setup machine max feedrate
M204 P500.00 R1000.00 T500.00 ;Setup Print/Retract/Travel acceleration
M205 X8.00 Y8.00 Z0.40 E5.00 ;Setup Jerk
M220 S100 ;Reset Feedrate
M221 S100 ;Reset Flowrate

G28 ;Home

G92 E0 ;Reset Extruder
G1 Z2.0 F3000 ;Move Z Axis up
G1 X10.1 Y20 Z0.28 F5000.0 ;Move to start position
G1 X10.1 Y200.0 Z0.28 F1500.0 E15 ;Draw the first line
G1 X10.4 Y200.0 Z0.28 F5000.0 ;Move to side a little
G1 X10.4 Y20 Z0.28 F1500.0 E30 ;Draw the second line
G92 E0 ;Reset Extruder
G1 Z2.0 F3000 ;Move Z Axis up

G92 E0
G92 E0
G1 F2700 E-5
;LAYER_COUNT:42
;LAYER:0
M107
G0 F6000 X105.062 Y102.31 Z0.16
;TYPE:SKIRT
G1 F2700 E0
G1 F1200 X106.271 Y102.4 E0.03226
G1 X106.925 Y102.488 E0.04982
G1 X107.814 Y102.648 E0.07385
G1 X108.685 Y102.886 E0.09788
G1 X109.621 Y103.238 E0.12448
G1 X109.891 Y103.355 E0.13231
G1 X110.527 Y103.657 E0.15105
G1 X110.832 Y103.815 E0.16019
G1 X111.614 Y104.266 E0.18421
G1 X112.354 Y104.784 E0.20824
G1 X113.165 Y105.477 E0.23663
G1 X113.818 Y106.1 E0.26064
G1 X115.215 Y107.476 E0.31282
G1 X117.076 Y109.21 E0.3805
G1 X118.994 Y110.899 E0.4485
G1 X120.94 Y112.515 E0.5158
G1 X122.951 Y114.093 E0.58382
G1 X124.978 Y115.592 E0.6509
G1 X127.064 Y117.044 E0.71853
G1 X129.19 Y118.439 E0.78619
G1 X131.368 Y119.78 E0.85424
G1 X133.55 Y121.04 E0.92129
G1 X135.795 Y122.254 E0.9892
G1 X138.043 Y123.386 E1.05617
G1 X140.355 Y124.472 E1.12413
G1 X142.68 Y125.484 E1.1916
G1 X145.06 Y126.443 E1.25988
G1 X147.433 Y127.317 E1.32717
G1 X149.818 Y128.122 E1.39414
G1 X152.274 Y128.875 E1.4625
G1 X154.706 Y129.546 E1.52963
G1 X157.191 Y130.157 E1.59772
G1 X159.664 Y130.691 E1.66503
G1 X162.14 Y131.15 E1.73204
G1 X164.663 Y131.547 E1.8
G1 X167.167 Y131.869 E1.86717
G1 X169.731 Y132.125 E1.93573
G1 X172.269 Y132.306 E2.00344
G1 X172.744 Y132.331 E2.01609
G1 X173.088 Y132.355 E2.02527
G1 X173.985 Y132.457 E2.04929
G1 X174.87 Y132.639 E2.07333
G1 X175.735 Y132.898 E2.09736
G1 X176.574 Y133.233 E2.12139
G1 X177.38 Y133.64 E2.14542
G1 X178.146 Y134.118 E2.16944
G1 X178.868 Y134.661 E2.19348
G1 X179.538 Y135.266 E2.2175
G1 X180.153 Y135.928 E2.24155
G1 X180.706 Y136.641 E2.26555
G1 X181.195 Y137.401 E2.2896
G1 X181.614 Y138.201 E2.31363
G1 X181.96 Y139.035 E2.33766
G1 X182.232 Y139.896 E2.36168
G1 X182.426 Y140.778 E2.38571
G1 X182.542 Y141.674 E2.40975
G1 X182.573 Y142.216 E2.42419
G1 X182.587 Y142.821 E2.4403
G1 X182.588 Y157.058 E2.81912
G1 X182.578 Y157.775 E2.8382
G1 X182.525 Y158.677 E2.86224
G1 X182.393 Y159.57 E2.88626
G1 X182.183 Y160.448 E2.91028
G1 X181.895 Y161.305 E2.93433
G1 X181.533 Y162.132 E2.95836
G1 X181.099 Y162.924 E2.98239
G1 X180.597 Y163.675 E3.00642
G1 X180.031 Y164.378 E3.03044
G1 X179.404 Y165.028 E3.05447
G1 X178.722 Y165.621 E3.07851
G1 X177.991 Y166.15 E3.10252
G1 X177.216 Y166.613 E3.12654
G1 X176.402 Y167.006 E3.1506
G1 X175.8 Y167.242 E3.1678
G1 X175.078 Y167.499 E3.18819
G1 X172.617 Y168.41 E3.25802
G1 X170.285 Y169.349 E3.32491
G1 X167.941 Y170.372 E3.39296
G1 X165.633 Y171.456 E3.46081
G1 X163.371 Y172.599 E3.52824
G1 X161.167 Y173.791 E3.59491
G1 X158.954 Y175.07 E3.66292
G1 X156.778 Y176.412 E3.73095
G1 X154.647 Y177.81 E3.79876
G1 X152.571 Y179.26 E3.86614
G1 X150.548 Y180.758 E3.93312
G1 X148.53 Y182.342 E4.00138
G1 X146.581 Y183.964 E4.06885
G1 X144.674 Y185.644 E4.13647
G1 X142.81 Y187.382 E4.20429
G1 X141.032 Y189.136 E4.27074
G1 X139.254 Y190.993 E4.33915
G1 X137.557 Y192.87 E4.40648
G1 X135.884 Y194.827 E4.47499
G1 X134.269 Y196.831 E4.54347
G1 X133.522 Y197.783 E4.57567
G1 X132.934 Y198.468 E4.59969
G1 X132.287 Y199.099 E4.62373
G1 X131.587 Y199.669 E4.64775
G1 X130.839 Y200.176 E4.6718
G1 X130.05 Y200.615 E4.69582
G1 X129.225 Y200.981 E4.71984
G1 X128.37 Y201.274 E4.74389
G1 X127.493 Y201.49 E4.76792
G1 X126.601 Y201.627 E4.79193
G1 X125.902 Y201.679 E4.81058
G1 X125.575 Y201.692 E4.81929
G1 X125.17 Y201.7 E4.83007
G1 X79.075 Y201.699 E6.05657
G1 X78.377 Y201.69 E6.07514
G1 X77.476 Y201.639 E6.09916
G1 X76.582 Y201.507 E6.1232
G1 X75.704 Y201.298 E6.14722
G1 X74.847 Y201.011 E6.17126
G1 X74.02 Y200.65 E6.19527
G1 X73.227 Y200.217 E6.21931
G1 X72.476 Y199.716 E6.24334
G1 X71.772 Y199.15 E6.26737
G1 X71.121 Y198.524 E6.2914
G1 X70.528 Y197.843 E6.31543
G1 X69.998 Y197.112 E6.33945
G1 X69.534 Y196.337 E6.36349
G1 X69.14 Y195.524 E6.38753
G1 X68.82 Y194.68 E6.41154
G1 X68.576 Y193.81 E6.43559
G1 X68.41 Y192.922 E6.45962
G1 X68.313 Y191.767 E6.49046
G1 X68.3 Y191.158 E6.50667
G1 X68.301 Y178.045 E6.85559
G1 X68.311 Y177.348 E6.87413
G1 X68.364 Y176.446 E6.89817
G1 X68.431 Y175.926 E6.91213
G1 X68.522 Y175.341 E6.92788
G1 X68.7 Y174.456 E6.9519
G1 X68.956 Y173.59 E6.97593
G1 X69.465 Y172.373 E7.01103
G1 X69.747 Y171.805 E7.0279
G1 X70.384 Y170.702 E7.06179
G1 X70.613 Y170.358 E7.07279
G1 X71.688 Y168.793 E7.12331
G1 X73.067 Y166.658 E7.19093
G1 X74.392 Y164.474 E7.25891
G1 X75.639 Y162.282 E7.32601
G1 X76.841 Y160.021 E7.39414
G1 X77.967 Y157.749 E7.46161
G1 X79.027 Y155.452 E7.52892
G1 X80.023 Y153.123 E7.59632
G1 X80.968 Y150.729 E7.66481
G1 X81.819 Y148.373 E7.73146
G1 X82.621 Y145.945 E7.7995
G1 X83.341 Y143.538 E7.86635
G1 X84.002 Y141.078 E7.93413
G1 X84.601 Y138.569 E8.00276
G1 X85.117 Y136.102 E8.06982
G1 X85.564 Y133.603 E8.13737
G1 X85.939 Y131.112 E8.2044
G1 X86.246 Y128.591 E8.27197
G1 X86.51 Y125.805 E8.34644
G1 X86.677 Y123.277 E8.41385
G1 X86.775 Y120.705 E8.48233
G1 X86.8 Y118.607 E8.53816
G1 X86.801 Y115.045 E8.63294
G1 X86.811 Y114.34 E8.6517
G1 X86.864 Y113.439 E8.67572
G1 X86.933 Y112.906 E8.69002
G1 X87.019 Y112.357 E8.7048
G1 X87.198 Y111.472 E8.72883
G1 X87.455 Y110.606 E8.75286
G1 X87.664 Y110.052 E8.76862
G1 X87.748 Y109.848 E8.77449
G1 X88.111 Y109.064 E8.79748
G1 X88.303 Y108.691 E8.80864
G1 X88.751 Y107.907 E8.83267
G1 X89.267 Y107.166 E8.85669
G1 X89.993 Y106.317 E8.88642
G1 X90.501 Y105.791 E8.90587
G1 X90.65 Y105.644 E8.91144
G1 X91.321 Y105.039 E8.93548
G1 X92.042 Y104.495 E8.95951
G1 X92.972 Y103.928 E8.9885
G1 X93.565 Y103.613 E9.00636
G1 X93.77 Y103.51 E9.01247
G1 X94.594 Y103.14 E9.0365
G1 X95.447 Y102.845 E9.06052
G1 X96.555 Y102.583 E9.09081
G1 X97.154 Y102.476 E9.107
G1 X98.05 Y102.357 E9.13105
G1 X98.725 Y102.319 E9.14904
G1 X99.724 Y102.3 E9.17563
G1 X104.455 Y102.301 E9.30151
G1 X105.062 Y102.31 E9.31766
G0 F6000 X105.068 Y101.91
G1 F1200 X106.325 Y102.004 E9.3512
G1 X106.979 Y102.092 E9.36876
G1 X107.885 Y102.254 E9.39325
G1 X108.774 Y102.494 E9.41775
G1 X109.78 Y102.871 E9.44634
G1 X110.05 Y102.988 E9.45417
G1 X110.711 Y103.302 E9.47364
G1 X111.016 Y103.46 E9.48278
G1 X111.814 Y103.919 E9.50728
G1 X112.57 Y104.445 E9.53178
G1 X113.44 Y105.187 E9.56221
G1 X114.099 Y105.815 E9.58643
G1 X115.503 Y107.198 E9.63887
G1 X117.348 Y108.918 E9.70598
G1 X119.248 Y110.589 E9.77331
G1 X121.196 Y112.208 E9.8407
G1 X123.19 Y113.772 E9.90813
G1 X125.205 Y115.263 E9.97483
G1 X127.291 Y116.715 E10.04246
G1 X129.404 Y118.101 E10.1097
G1 X131.556 Y119.426 E10.17694
G1 X133.761 Y120.699 E10.24469
G1 X135.959 Y121.888 E10.31118
G1 X138.243 Y123.038 E10.37922
G1 X140.507 Y124.101 E10.44577
G1 X142.841 Y125.118 E10.51352
G1 X145.223 Y126.077 E10.58184
G1 X147.55 Y126.934 E10.64782
G1 X149.958 Y127.747 E10.71545
G1 X152.36 Y128.484 E10.7823
G1 X154.802 Y129.157 E10.8497
G1 X157.292 Y129.769 E10.91793
G1 X159.756 Y130.302 E10.98501
G1 X162.203 Y130.756 E11.05123
G1 X164.705 Y131.149 E11.11862
G1 X167.221 Y131.472 E11.18611
G1 X169.764 Y131.726 E11.25411
G1 X172.273 Y131.905 E11.32104
G1 X172.772 Y131.932 E11.33434
G1 X173.116 Y131.956 E11.34352
G1 X174.031 Y132.06 E11.36802
G1 X174.933 Y132.242 E11.3925
G1 X175.816 Y132.503 E11.417
G1 X176.673 Y132.839 E11.4415
G1 X177.498 Y133.248 E11.466
G1 X178.284 Y133.728 E11.4905
G1 X179.025 Y134.273 E11.51498
G1 X179.717 Y134.881 E11.53949
G1 X180.353 Y135.547 E11.56399
G1 X180.929 Y136.265 E11.58848
G1 X181.44 Y137.031 E11.61298
G1 X181.883 Y137.838 E11.63748
G1 X182.254 Y138.68 E11.66196
G1 X182.551 Y139.552 E11.68647
G1 X182.771 Y140.446 E11.71097
G1 X182.913 Y141.355 E11.73545
G1 X182.973 Y142.203 E11.75807
G1 X182.982 Y142.495 E11.76584
G1 X182.987 Y142.82 E11.77449
G1 X182.988 Y157.064 E12.1535
G1 X182.978 Y157.781 E12.17258
G1 X182.925 Y158.7 E12.19707
G1 X182.793 Y159.611 E12.22157
G1 X182.582 Y160.507 E12.24606
G1 X182.294 Y161.382 E12.27057
G1 X181.931 Y162.228 E12.29506
G1 X181.497 Y163.039 E12.31954
G1 X180.993 Y163.81 E12.34405
G1 X180.425 Y164.534 E12.36853
G1 X179.795 Y165.206 E12.39304
G1 X179.11 Y165.821 E12.41754
G1 X178.374 Y166.375 E12.44205
G1 X177.593 Y166.862 E12.46654
G1 X176.773 Y167.28 E12.49103
G1 X175.934 Y167.619 E12.51511
G1 X175.202 Y167.88 E12.53578
G1 X172.788 Y168.774 E12.60428
G1 X170.428 Y169.723 E12.67196
G1 X168.092 Y170.743 E12.73979
G1 X165.804 Y171.818 E12.80705
G1 X163.578 Y172.942 E12.8734
G1 X161.337 Y174.155 E12.94121
G1 X159.159 Y175.414 E13.00814
G1 X156.986 Y176.753 E13.07606
G1 X154.89 Y178.128 E13.14276
G1 X152.815 Y179.577 E13.2101
G1 X150.765 Y181.095 E13.27797
G1 X148.791 Y182.645 E13.34475
G1 X146.852 Y184.258 E13.41187
G1 X144.948 Y185.936 E13.47939
G1 X143.081 Y187.676 E13.5473
G1 X141.32 Y189.415 E13.61315
G1 X139.523 Y191.292 E13.6823
G1 X137.875 Y193.114 E13.74767
G1 X136.2 Y195.072 E13.81623
G1 X134.575 Y197.089 E13.88515
G1 X133.837 Y198.03 E13.91697
G1 X133.237 Y198.729 E13.94148
G1 X132.58 Y199.373 E13.96596
G1 X131.869 Y199.958 E13.99045
G1 X131.11 Y200.479 E14.01495
G1 X130.308 Y200.932 E14.03946
G1 X129.471 Y201.314 E14.06394
G1 X128.603 Y201.622 E14.08845
G1 X127.712 Y201.853 E14.11294
G1 X126.804 Y202.006 E14.13744
G1 X125.918 Y202.079 E14.16109
G1 X125.591 Y202.092 E14.1698
G1 X125.17 Y202.1 E14.18101
G1 X79.07 Y202.099 E15.40764
G1 X78.372 Y202.09 E15.42621
G1 X77.453 Y202.038 E15.45071
G1 X76.542 Y201.907 E15.47519
G1 X75.646 Y201.697 E15.49968
G1 X74.771 Y201.41 E15.52418
G1 X73.924 Y201.048 E15.54869
G1 X73.112 Y200.614 E15.57319
G1 X72.341 Y200.112 E15.59767
G1 X71.616 Y199.544 E15.62218
G1 X70.943 Y198.915 E15.64669
G1 X70.328 Y198.231 E15.67116
G1 X69.774 Y197.496 E15.69565
G1 X69.286 Y196.715 E15.72016
G1 X68.867 Y195.895 E15.74466
G1 X68.521 Y195.042 E15.76915
G1 X68.251 Y194.162 E15.79365
G1 X68.058 Y193.261 E15.81816
G1 X67.944 Y192.348 E15.84264
G1 X67.913 Y191.777 E15.85786
G1 X67.9 Y191.158 E15.87433
G1 X67.901 Y178.039 E16.22341
G1 X67.911 Y177.342 E16.24195
G1 X67.964 Y176.423 E16.26645
G1 X68.036 Y175.865 E16.28142
G1 X68.127 Y175.28 E16.29717
G1 X68.308 Y174.377 E16.32168
G1 X68.566 Y173.493 E16.34618
G1 X68.901 Y172.636 E16.37066
G1 X69.107 Y172.195 E16.38361
G1 X69.389 Y171.627 E16.40049
G1 X70.05 Y170.481 E16.43569
G1 X70.283 Y170.132 E16.44685
G1 X71.355 Y168.572 E16.49722
G1 X72.723 Y166.454 E16.56431
G1 X74.061 Y164.247 E16.63298
G1 X75.284 Y162.099 E16.69875
G1 X76.488 Y159.835 E16.76698
G1 X77.597 Y157.597 E16.83344
G1 X78.66 Y155.293 E16.90095
G1 X79.654 Y152.968 E16.96823
G1 X80.596 Y150.582 E17.03649
G1 X81.435 Y148.259 E17.10221
G1 X82.244 Y145.81 E17.17084
G1 X82.961 Y143.416 E17.23733
G1 X83.611 Y140.996 E17.304
G1 X84.206 Y138.5 E17.37228
G1 X84.725 Y136.021 E17.43967
G1 X85.169 Y133.539 E17.50676
G1 X85.545 Y131.041 E17.57398
G1 X85.85 Y128.531 E17.64125
G1 X86.111 Y125.776 E17.71489
G1 X86.28 Y123.234 E17.78267
G1 X86.375 Y120.724 E17.84951
G1 X86.4 Y118.607 E17.90584
G1 X86.401 Y115.04 E18.00075
G1 X86.411 Y114.335 E18.01951
G1 X86.464 Y113.416 E18.04401
G1 X86.538 Y112.845 E18.05933
G1 X86.624 Y112.296 E18.07411
G1 X86.806 Y111.393 E18.09862
G1 X87.065 Y110.51 E18.12311
G1 X87.294 Y109.9 E18.14045
G1 X87.378 Y109.696 E18.14632
G1 X87.755 Y108.881 E18.17021
G1 X87.947 Y108.508 E18.18137
G1 X88.404 Y107.708 E18.20589
G1 X88.928 Y106.951 E18.23038
G1 X89.704 Y106.041 E18.26221
G1 X90.22 Y105.506 E18.28198
G1 X90.369 Y105.359 E18.28755
G1 X91.052 Y104.742 E18.31204
G1 X91.786 Y104.186 E18.33654
G1 X92.782 Y103.576 E18.36762
G1 X93.385 Y103.255 E18.3858
G1 X93.59 Y103.152 E18.3919
G1 X94.43 Y102.775 E18.4164
G1 X95.299 Y102.472 E18.44089
G1 X96.485 Y102.189 E18.47333
G1 X97.084 Y102.082 E18.48952
G1 X97.996 Y101.96 E18.514
G1 X98.716 Y101.92 E18.53319
G1 X99.724 Y101.9 E18.56002
G1 X104.461 Y101.901 E18.68606
G1 X105.068 Y101.91 E18.70221
G0 F6000 X105.074 Y101.51
G1 F1200 X106.378 Y101.607 E18.73701
G1 X107.032 Y101.695 E18.75457
G1 X107.955 Y101.86 E18.77951
G1 X108.861 Y102.102 E18.80447
G1 X109.939 Y102.504 E18.83508
G1 X110.209 Y102.621 E18.84291
G1 X110.895 Y102.947 E18.86312
G1 X111.2 Y103.105 E18.87226
G1 X112.013 Y103.571 E18.89719
G1 X112.784 Y104.105 E18.92215
G1 X113.716 Y104.897 E18.95469
G1 X114.38 Y105.53 E18.9791
G1 X115.774 Y106.903 E19.03116
G1 X117.639 Y108.642 E19.09901
G1 X119.484 Y110.265 E19.1644
G1 X121.453 Y111.901 E19.23251
G1 X123.429 Y113.451 E19.29933
G1 X125.465 Y114.957 E19.36672
G1 X127.492 Y116.368 E19.43243
G1 X129.636 Y117.775 E19.50067
G1 X131.76 Y119.082 E19.56703
G1 X133.93 Y120.335 E19.6337
G1 X136.165 Y121.544 E19.70131
G1 X138.414 Y122.677 E19.76832
G1 X140.7 Y123.75 E19.83551
G1 X142.97 Y124.739 E19.9014
G1 X145.373 Y125.706 E19.97032
G1 X147.668 Y126.551 E20.03539
G1 X150.066 Y127.361 E20.10274
G1 X152.51 Y128.111 E20.17076
G1 X154.89 Y128.767 E20.23645
G1 X157.374 Y129.378 E20.30452
G1 X159.809 Y129.904 E20.3708
G1 X162.297 Y130.365 E20.43813
G1 X164.786 Y130.757 E20.50517
G1 X167.244 Y131.073 E20.57112
G1 X169.795 Y131.327 E20.63933
G1 X172.32 Y131.507 E20.70668
G1 X172.8 Y131.533 E20.71947
G1 X173.144 Y131.557 E20.72865
G1 X174.076 Y131.662 E20.75361
G1 X174.995 Y131.846 E20.77854
G1 X175.896 Y132.108 E20.80351
G1 X176.771 Y132.445 E20.82846
G1 X177.614 Y132.856 E20.85341
G1 X178.419 Y133.337 E20.87837
G1 X179.18 Y133.885 E20.90332
G1 X179.892 Y134.496 E20.92828
G1 X180.549 Y135.165 E20.95323
G1 X181.146 Y135.888 E20.97818
G1 X181.68 Y136.659 E21.00314
G1 X182.147 Y137.473 E21.02811
G1 X182.542 Y138.323 E21.05305
G1 X182.863 Y139.204 E21.078
G1 X183.108 Y140.11 E21.10297
G1 X183.276 Y141.033 E21.12793
G1 X183.373 Y142.191 E21.15885
G1 X183.382 Y142.483 E21.16662
G1 X183.387 Y142.82 E21.17559
G1 X183.388 Y157.069 E21.55473
G1 X183.378 Y157.786 E21.57381
G1 X183.325 Y158.723 E21.59878
G1 X183.192 Y159.651 E21.62373
G1 X182.981 Y160.565 E21.64869
G1 X182.693 Y161.457 E21.67363
G1 X182.329 Y162.322 E21.6986
G1 X181.894 Y163.153 E21.72356
G1 X181.389 Y163.943 E21.7485
G1 X180.819 Y164.688 E21.77346
G1 X180.187 Y165.381 E21.79842
G1 X179.499 Y166.018 E21.82337
G1 X178.759 Y166.594 E21.84832
G1 X177.972 Y167.105 E21.87329
G1 X177.145 Y167.547 E21.89824
G1 X176.069 Y167.996 E21.92926
G1 X175.371 Y168.245 E21.94898
G1 X172.909 Y169.156 E22.01883
G1 X170.559 Y170.102 E22.08624
G1 X168.273 Y171.1 E22.15261
G1 X165.99 Y172.172 E22.21971
G1 X163.755 Y173.301 E22.28634
G1 X161.521 Y174.51 E22.35393
G1 X159.373 Y175.752 E22.41995
G1 X157.209 Y177.086 E22.48759
G1 X155.108 Y178.464 E22.55445
G1 X153.036 Y179.911 E22.62169
G1 X151.027 Y181.399 E22.68821
G1 X149.027 Y182.969 E22.75587
G1 X147.109 Y184.565 E22.82226
G1 X145.201 Y186.245 E22.8899
G1 X143.387 Y187.936 E22.95589
G1 X141.589 Y189.711 E23.02312
G1 X139.842 Y191.536 E23.09034
G1 X138.159 Y193.398 E23.15712
G1 X136.5 Y195.337 E23.22502
G1 X134.881 Y197.347 E23.2937
G1 X134.151 Y198.277 E23.32515
G1 X133.541 Y198.989 E23.3501
G1 X132.873 Y199.647 E23.37505
G1 X132.151 Y200.246 E23.40001
G1 X131.381 Y200.781 E23.42496
G1 X130.568 Y201.249 E23.44992
G1 X129.718 Y201.645 E23.47487
G1 X128.837 Y201.968 E23.49984
G1 X127.932 Y202.214 E23.52479
G1 X127.01 Y202.382 E23.54973
G1 X125.934 Y202.478 E23.57847
G1 X125.607 Y202.491 E23.58718
G1 X125.17 Y202.5 E23.59881
G1 X79.065 Y202.499 E24.82558
G1 X78.367 Y202.49 E24.84415
G1 X77.431 Y202.438 E24.8691
G1 X76.502 Y202.306 E24.89406
G1 X75.588 Y202.096 E24.91902
G1 X74.695 Y201.809 E24.94398
