;FLAVOR:Marlin
;TIME:19762
;Filament used: 16.2055m
;Layer height: 0.2
;MINX:67.774
;MINY:95.651
;MINZ:0.2
;MAXX:232.241
;MAXY:207.654
;MAXZ:20
;Generated with Cura_SteamEngine 4.6.1
M140 S50
M105
M190 S50
M104 S200
M105
M109 S200
M82 ;absolute extrusion mode
M201 X500.00 Y500.00 Z100.00 E5000.00 ;Setup machine max acceleration
M203 X500.00 Y500.00 Z10.00 E50.00 ;Setup machine max feedrate
M204 P500.00 R1000.00 T500.00 ;Setup Print/Retract/Travel acceleration
M205 X8.00 Y8.00 Z0.40 E5.00 ;Setup Jerk
M220 S100 ;Reset Feedrate
M221 S100 ;Reset Flowrate

G28 ;Home

G92 E0 ;Reset Extruder
G1 Z2.0 F3000 ;Move Z Axis up
G1 X10.1 Y20 Z0.28 F5000.0 ;Move to start position
G1 X10.1 Y200.0 Z0.28 F1500.0 E15 ;Draw the first line
G1 X10.4 Y200.0 Z0.28 F5000.0 ;Move to side a little
G1 X10.4 Y20 Z0.28 F1500.0 E30 ;Draw the second line
G92 E0 ;Reset Extruder
G1 Z2.0 F3000 ;Move Z Axis up

G92 E0
G92 E0
G1 F2700 E-5
;LAYER_COUNT:100
;LAYER:0
M107
G0 F6000 X221.261 Y96.462 Z0.2
;TYPE:SKIRT
G1 F2700 E0
G1 F1200 X222.163 Y96.515 E0.03005
G1 X223.056 Y96.647 E0.06008
G1 X223.934 Y96.858 E0.09011
G1 X224.79 Y97.146 E0.12015
G1 X225.617 Y97.508 E0.15018
G1 X226.409 Y97.943 E0.18023
G1 X227.16 Y98.445 E0.21027
G1 X227.863 Y99.012 E0.24031
G1 X228.348 Y99.468 E0.26245
G1 X228.967 Y100.126 E0.2925
G1 X229.524 Y100.836 E0.32252
G1 X230.017 Y101.593 E0.35256
G1 X230.441 Y102.39 E0.38259
G1 X230.793 Y103.222 E0.41264
G1 X231.069 Y104.082 E0.44268
G1 X231.269 Y104.963 E0.47272
G1 X231.39 Y105.858 E0.50276
G1 X231.429 Y106.582 E0.52688
G1 X231.441 Y107.306 E0.55096
G1 X231.44 Y132.317 E1.38283
G1 X231.42 Y133.669 E1.4278
G1 X231.372 Y135.379 E1.4847
G1 X231.374 Y137.925 E1.56938
G1 X231.389 Y138.455 E1.58702
G1 X231.441 Y141.478 E1.68758
G1 X231.44 Y146.082 E1.84071
G1 X231.43 Y146.763 E1.86336
G1 X231.377 Y147.664 E1.89338
G1 X231.244 Y148.558 E1.92344
G1 X231.033 Y149.436 E1.95347
G1 X230.745 Y150.292 E1.98351
G1 X230.448 Y150.982 E2.0085
G1 X229.926 Y152.079 E2.0489
G1 X205.66 Y200.618 E3.85382
G1 X205.34 Y201.239 E3.87706
G1 X204.891 Y202.023 E3.90711
G1 X204.375 Y202.764 E3.93714
G1 X203.795 Y203.456 E3.96717
G1 X203.156 Y204.094 E3.9972
G1 X202.463 Y204.674 E4.02726
G1 X201.782 Y205.153 E4.05495
G1 X201.007 Y205.617 E4.085
G1 X200.194 Y206.01 E4.11503
G1 X199.35 Y206.331 E4.14506
G1 X198.48 Y206.575 E4.17512
G1 X197.593 Y206.742 E4.20514
G1 X196.309 Y206.842 E4.24797
G1 X195.619 Y206.851 E4.27092
G1 X112.166 Y206.852 E7.04658
G1 X111.365 Y206.854 E7.07322
G1 X102.801 Y206.85 E7.35806
G1 X102.102 Y206.84 E7.38131
G1 X101.201 Y206.787 E7.41133
G1 X100.4 Y206.672 E7.43825
G1 X99.562 Y206.506 E7.46666
G1 X90.111 Y204.418 E7.78858
G1 X87.583 Y203.897 E7.87443
G1 X86.499 Y203.708 E7.91103
G1 X85.097 Y203.447 E7.95846
G1 X84.586 Y203.338 E7.97584
G1 X83.693 Y203.12 E8.00641
G1 X82.931 Y202.914 E8.03267
G1 X81.812 Y202.54 E8.07191
G1 X80.854 Y202.153 E8.10627
G1 X80.211 Y201.874 E8.12959
G1 X79.198 Y201.366 E8.16728
G1 X78.342 Y200.87 E8.20018
G1 X77.73 Y200.495 E8.22405
G1 X76.767 Y199.826 E8.26305
G1 X75.936 Y199.169 E8.29829
G1 X75.407 Y198.728 E8.32119
G1 X74.571 Y197.948 E8.35922
G1 X73.872 Y197.211 E8.39301
G1 X73.405 Y196.694 E8.41618
G1 X72.673 Y195.784 E8.45502
G1 X72.078 Y194.944 E8.48926
G1 X71.698 Y194.379 E8.51191
G1 X71.101 Y193.371 E8.55087
G1 X70.626 Y192.445 E8.58549
G1 X70.341 Y191.855 E8.60728
G1 X69.886 Y190.75 E8.64703
G1 X69.544 Y189.751 E8.68215
G1 X69.341 Y189.106 E8.70464
G1 X69.057 Y187.985 E8.7431
G1 X68.874 Y187.016 E8.7759
G1 X68.76 Y186.324 E8.79922
G1 X68.636 Y185.164 E8.83803
G1 X68.587 Y184.06 E8.87478
G1 X68.574 Y183.37 E8.89773
G1 X68.619 Y182.197 E8.93678
G1 X68.691 Y181.452 E8.96167
G1 X68.726 Y181.143 E8.97201
G1 X68.809 Y180.492 E8.99384
G1 X69.019 Y179.358 E9.0322
G1 X69.263 Y178.379 E9.06576
G1 X69.453 Y177.689 E9.08956
G1 X69.821 Y176.599 E9.12783
G1 X70.196 Y175.674 E9.16102
G1 X70.471 Y175.042 E9.18395
G1 X70.982 Y174.026 E9.22177
G1 X71.48 Y173.17 E9.25471
G1 X71.857 Y172.556 E9.27868
G1 X72.52 Y171.602 E9.31732
G1 X73.157 Y170.797 E9.35146
G1 X73.611 Y170.252 E9.37505
G1 X74.393 Y169.414 E9.41317
G1 X75.132 Y168.712 E9.44708
G1 X75.649 Y168.245 E9.47025
G1 X76.559 Y167.513 E9.50909
G1 X77.402 Y166.916 E9.54345
G1 X78.967 Y165.866 E9.60613
G1 X79.382 Y165.596 E9.6226
G1 X81.505 Y164.127 E9.70846
G1 X83.553 Y162.623 E9.79298
G1 X85.547 Y161.07 E9.87704
G1 X87.503 Y159.455 E9.96141
G1 X89.43 Y157.77 E10.04654
G1 X91.289 Y156.051 E10.13076
G1 X93.083 Y154.295 E10.21425
G1 X94.878 Y152.435 E10.30023
G1 X96.569 Y150.58 E10.38371
G1 X98.222 Y148.661 E10.46795
G1 X99.853 Y146.656 E10.55392
G1 X101.373 Y144.673 E10.63702
G1 X102.867 Y142.609 E10.72176
G1 X104.301 Y140.503 E10.80651
G1 X105.666 Y138.371 E10.89071
G1 X106.98 Y136.186 E10.97551
G1 X108.23 Y133.968 E11.06019
G1 X109.397 Y131.751 E11.14352
G1 X110.528 Y129.449 E11.22882
G1 X111.578 Y127.148 E11.31295
G1 X112.574 Y124.789 E11.39811
G1 X113.489 Y122.444 E11.48184
G1 X114.355 Y120.021 E11.56742
G1 X115.134 Y117.633 E11.65096
G1 X115.9 Y115.008 E11.74191
G1 X116.383 Y113.44 E11.79648
G1 X116.588 Y112.822 E11.81814
G1 X116.882 Y112.043 E11.84583
G1 X117.313 Y111.037 E11.88223
G1 X117.599 Y110.408 E11.90521
G1 X118.009 Y109.603 E11.93526
G1 X118.488 Y108.838 E11.96528
G1 X119.033 Y108.118 E11.99532
G1 X119.64 Y107.449 E12.02536
G1 X120.304 Y106.837 E12.0554
G1 X121.019 Y106.285 E12.08544
G1 X121.78 Y105.799 E12.11547
G1 X122.581 Y105.382 E12.14551
G1 X123.416 Y105.038 E12.17554
G1 X124.278 Y104.769 E12.20558
G1 X124.832 Y104.639 E12.2245
G1 X125.056 Y104.593 E12.23211
G1 X125.948 Y104.45 E12.26216
G1 X126.849 Y104.387 E12.2922
G1 X127.752 Y104.404 E12.32224
G1 X128.65 Y104.501 E12.35228
G1 X129.113 Y104.583 E12.36792
G1 X129.522 Y104.665 E12.38179
G1 X132.057 Y105.14 E12.46757
G1 X134.544 Y105.533 E12.55132
G1 X137.103 Y105.864 E12.63714
G1 X139.638 Y106.119 E12.72188
G1 X142.148 Y106.3 E12.80558
G1 X144.668 Y106.41 E12.88947
G1 X147.429 Y106.451 E12.98132
G1 X152.708 Y106.451 E13.1569
G1 X155.313 Y106.414 E13.24355
G1 X157.879 Y106.305 E13.32897
G1 X160.386 Y106.127 E13.41256
G1 X162.927 Y105.876 E13.49749
G1 X165.435 Y105.555 E13.58158
G1 X167.94 Y105.161 E13.66593
G1 X170.427 Y104.699 E13.75006
G1 X172.948 Y104.156 E13.83583
G1 X175.373 Y103.561 E13.91888
G1 X177.839 Y102.884 E14.00393
G1 X180.266 Y102.141 E14.08835
G1 X182.668 Y101.33 E14.17267
G1 X185.081 Y100.44 E14.25822
G1 X187.388 Y99.514 E14.3409
G1 X189.753 Y98.485 E14.42668
G1 X190.793 Y97.993 E14.46495
G1 X192.089 Y97.398 E14.51238
G1 X192.926 Y97.058 E14.54243
G1 X193.789 Y96.793 E14.57245
G1 X194.673 Y96.606 E14.6025
G1 X195.569 Y96.498 E14.63252
G1 X196.044 Y96.472 E14.64834
G1 X196.92 Y96.451 E14.67749
G1 X220.563 Y96.452 E15.46386
G1 X221.261 Y96.462 E15.48708
G0 F6000 X221.267 Y96.062
G1 F1200 X222.186 Y96.115 E15.51769
G1 X223.097 Y96.248 E15.54831
G1 X223.993 Y96.459 E15.57893
G1 X224.867 Y96.747 E15.60954
G1 X225.714 Y97.11 E15.64019
G1 X226.525 Y97.545 E15.6708
G1 X227.295 Y98.049 E15.7014
G1 X228.019 Y98.618 E15.73203
G1 X228.512 Y99.068 E15.75423
G1 X228.628 Y99.181 E15.75962
G1 X229.258 Y99.852 E15.79023
G1 X229.829 Y100.574 E15.82085
G1 X230.334 Y101.344 E15.85147
G1 X230.771 Y102.154 E15.88209
G1 X231.136 Y102.999 E15.9127
G1 X231.426 Y103.873 E15.94333
G1 X231.64 Y104.769 E15.97397
G1 X231.774 Y105.679 E16.00456
G1 X231.829 Y106.575 E16.03442
G1 X231.841 Y107.306 E16.05873
G1 X231.84 Y132.323 E16.8908
G1 X231.82 Y133.68 E16.93594
G1 X231.772 Y135.39 E16.99284
G1 X231.774 Y137.913 E17.07675
G1 X231.789 Y138.448 E17.09456
G1 X231.841 Y141.478 E17.19535
G1 X231.84 Y146.088 E17.34868
G1 X231.83 Y146.769 E17.37133
G1 X231.776 Y147.688 E17.40195
G1 X231.643 Y148.599 E17.43257
G1 X231.432 Y149.495 E17.46319
G1 X231.143 Y150.369 E17.4938
G1 X230.809 Y151.153 E17.52215
G1 X230.283 Y152.258 E17.56285
G1 X206.016 Y200.801 E19.3679
G1 X205.696 Y201.422 E19.39114
G1 X205.239 Y202.222 E19.42178
G1 X204.714 Y202.978 E19.45239
G1 X204.126 Y203.687 E19.48303
G1 X203.479 Y204.341 E19.51363
G1 X202.777 Y204.937 E19.54426
G1 X202.117 Y205.41 E19.57126
G1 X202.002 Y205.486 E19.57585
G1 X201.213 Y205.96 E19.60646
G1 X200.385 Y206.364 E19.63711
G1 X199.526 Y206.694 E19.66771
G1 X198.641 Y206.948 E19.69833
G1 X197.738 Y207.125 E19.72894
G1 X196.822 Y207.222 E19.75958
G1 X196.315 Y207.242 E19.77645
G1 X195.619 Y207.251 E19.7996
G1 X112.167 Y207.252 E22.57523
G1 X111.366 Y207.254 E22.60187
G1 X102.795 Y207.25 E22.88694
G1 X102.096 Y207.24 E22.91019
G1 X101.177 Y207.187 E22.94081
G1 X100.328 Y207.066 E22.96933
G1 X99.475 Y206.896 E22.99826
G1 X90.076 Y204.819 E23.31842
G1 X87.499 Y204.288 E23.40593
G1 X86.426 Y204.101 E23.44215
G1 X85.024 Y203.84 E23.48959
G1 X84.493 Y203.727 E23.50764
G1 X83.589 Y203.506 E23.5386
G1 X82.827 Y203.3 E23.56485
G1 X81.664 Y202.912 E23.60563
G1 X80.695 Y202.52 E23.64039
G1 X80.052 Y202.241 E23.66371
G1 X78.999 Y201.713 E23.70289
G1 X78.133 Y201.211 E23.73618
G1 X77.521 Y200.836 E23.76005
G1 X76.52 Y200.141 E23.80058
G1 X75.928 Y199.677 E23.8256
G1 X75.68 Y199.476 E23.83622
G1 X75.151 Y199.035 E23.85912
G1 X74.282 Y198.224 E23.89866
G1 X73.575 Y197.479 E23.93282
G1 X73.108 Y196.962 E23.95599
G1 X72.347 Y196.017 E23.99635
G1 X71.746 Y195.168 E24.03094
G1 X71.366 Y194.603 E24.05359
G1 X70.746 Y193.555 E24.09409
G1 X70.266 Y192.619 E24.12908
G1 X69.981 Y192.029 E24.15087
G1 X69.508 Y190.881 E24.19217
G1 X69.163 Y189.871 E24.22766
G1 X68.96 Y189.226 E24.25015
G1 X68.665 Y188.062 E24.29009
G1 X68.479 Y187.081 E24.3233
G1 X68.365 Y186.389 E24.34663
G1 X68.237 Y185.183 E24.38697
G1 X68.187 Y184.068 E24.42409
G1 X68.174 Y183.378 E24.44704
G1 X68.221 Y182.158 E24.48765
G1 X68.329 Y181.092 E24.52329
G1 X68.412 Y180.441 E24.54511
G1 X68.631 Y179.263 E24.58497
G1 X68.877 Y178.273 E24.61889
G1 X69.067 Y177.583 E24.6427
G1 X69.449 Y176.45 E24.68247
G1 X69.829 Y175.515 E24.71603
G1 X70.104 Y174.883 E24.73896
G1 X70.636 Y173.827 E24.77829
G1 X71.139 Y172.961 E24.8116
G1 X71.516 Y172.347 E24.83556
G1 X72.205 Y171.356 E24.8757
G1 X72.65 Y170.788 E24.8997
G1 X72.85 Y170.541 E24.91027
G1 X73.304 Y169.996 E24.93387
G1 X74.116 Y169.125 E24.97347
G1 X74.864 Y168.415 E25.00777
G1 X75.381 Y167.948 E25.03095
G1 X76.326 Y167.187 E25.0713
G1 X77.179 Y166.584 E25.10604
G1 X78.748 Y165.531 E25.16889
G1 X79.175 Y165.253 E25.18584
G1 X81.287 Y163.792 E25.27125
G1 X83.3 Y162.314 E25.35432
G1 X85.31 Y160.748 E25.43906
G1 X87.231 Y159.162 E25.52192
G1 X89.16 Y157.476 E25.60713
G1 X91.003 Y155.771 E25.69064
G1 X92.798 Y154.013 E25.7742
G1 X94.577 Y152.17 E25.8594
G1 X96.287 Y150.295 E25.9438
G1 X97.925 Y148.393 E26.02729
G1 X99.524 Y146.428 E26.11155
G1 X101.052 Y144.435 E26.19508
G1 X102.54 Y142.378 E26.27952
G1 X103.977 Y140.268 E26.36443
G1 X105.326 Y138.161 E26.44764
G1 X106.641 Y135.974 E26.53251
G1 X107.862 Y133.806 E26.61527
G1 X109.049 Y131.552 E26.7
G1 X110.163 Y129.285 E26.78401
G1 X111.223 Y126.963 E26.86891
G1 X112.192 Y124.669 E26.95174
G1 X113.127 Y122.27 E27.03737
G1 X113.959 Y119.943 E27.11957
G1 X114.757 Y117.494 E27.20524
G1 X115.517 Y114.892 E27.2954
G1 X115.814 Y113.909 E27.32955
G1 X116.003 Y113.314 E27.35031
G1 X116.208 Y112.696 E27.37197
G1 X116.514 Y111.886 E27.40077
G1 X116.949 Y110.872 E27.43747
G1 X117.235 Y110.243 E27.46045
G1 X117.652 Y109.422 E27.49108
G1 X118.138 Y108.64 E27.5217
G1 X118.691 Y107.904 E27.55232
G1 X119.306 Y107.219 E27.58294
G1 X119.977 Y106.589 E27.61355
G1 X120.701 Y106.02 E27.64418
G1 X121.472 Y105.516 E27.67481
G1 X122.283 Y105.081 E27.70542
G1 X123.129 Y104.717 E27.73605
G1 X124.003 Y104.429 E27.76666
G1 X124.752 Y104.247 E27.7923
G1 X124.976 Y104.201 E27.7999
G1 X125.885 Y104.055 E27.83052
G1 X126.803 Y103.988 E27.86114
G1 X127.724 Y104.002 E27.89177
G1 X128.639 Y104.095 E27.92236
G1 X129.191 Y104.191 E27.941
G1 X129.5 Y104.253 E27.95148
G1 X132.162 Y104.752 E28.04156
G1 X134.621 Y105.14 E28.12436
G1 X137.123 Y105.464 E28.20827
G1 X139.671 Y105.72 E28.29345
G1 X142.161 Y105.9 E28.37648
G1 X144.691 Y106.01 E28.46071
G1 X147.435 Y106.051 E28.55198
G1 X152.702 Y106.051 E28.72716
G1 X155.326 Y106.014 E28.81445
G1 X157.835 Y105.907 E28.89797
G1 X160.355 Y105.729 E28.982
G1 X162.87 Y105.48 E29.06606
G1 X165.359 Y105.161 E29.14952
G1 X167.911 Y104.76 E29.23544
G1 X170.342 Y104.308 E29.31768
G1 X172.841 Y103.77 E29.4027
G1 X175.277 Y103.173 E29.48612
G1 X177.743 Y102.495 E29.57118
G1 X180.136 Y101.762 E29.65443
G1 X182.55 Y100.948 E29.73916
G1 X184.9 Y100.081 E29.82247
G1 X187.288 Y99.122 E29.90806
G1 X189.549 Y98.138 E29.99007
G1 X190.626 Y97.63 E30.02968
G1 X191.922 Y97.035 E30.07711
G1 X192.775 Y96.687 E30.10775
G1 X193.654 Y96.415 E30.13835
G1 X194.554 Y96.22 E30.16898
G1 X195.468 Y96.104 E30.19963
G1 X196.032 Y96.073 E30.21841
G1 X196.92 Y96.051 E30.24796
G1 X220.569 Y96.052 E31.03453
G1 X221.267 Y96.062 E31.05774
G0 F6000 X221.273 Y95.662
G1 F1200 X222.209 Y95.716 E31.08893
G1 X223.137 Y95.848 E31.1201
G1 X224.051 Y96.06 E31.15131
G1 X224.943 Y96.349 E31.1825
G1 X225.808 Y96.712 E31.2137
G1 X226.638 Y97.148 E31.24488
G1 X227.429 Y97.653 E31.27609
G1 X228.173 Y98.224 E31.30729
G1 X228.791 Y98.782 E31.33498
G1 X228.907 Y98.895 E31.34037
G1 X229.55 Y99.577 E31.37154
G1 X230.133 Y100.312 E31.40275
G1 X230.651 Y101.094 E31.43394
G1 X231.1 Y101.917 E31.46513
G1 X231.478 Y102.775 E31.49631
G1 X231.782 Y103.663 E31.52753
G1 X232.008 Y104.573 E31.55871
G1 X232.157 Y105.499 E31.58991
G1 X232.229 Y106.567 E31.62551
G1 X232.241 Y107.306 E31.65009
G1 X232.24 Y132.329 E32.48236
G1 X232.22 Y133.691 E32.52767
G1 X232.172 Y135.401 E32.58456
G1 X232.174 Y137.9 E32.66768
G1 X232.189 Y138.441 E32.68568
G1 X232.241 Y141.478 E32.78671
G1 X232.24 Y146.094 E32.94024
G1 X232.23 Y146.775 E32.96289
G1 X232.176 Y147.711 E32.99407
G1 X232.043 Y148.639 E33.02525
G1 X231.831 Y149.553 E33.05646
G1 X231.542 Y150.445 E33.08765
G1 X231.171 Y151.325 E33.11941
G1 X230.641 Y152.437 E33.16038
G1 X206.371 Y200.985 E34.96563
G1 X206.051 Y201.606 E34.98886
G1 X205.586 Y202.42 E35.02004
G1 X205.054 Y203.192 E35.05122
G1 X204.458 Y203.916 E35.08241
G1 X203.802 Y204.587 E35.11363
G1 X203.091 Y205.199 E35.14483
G1 X202.338 Y205.744 E35.17574
G1 X202.223 Y205.82 E35.18033
G1 X201.419 Y206.303 E35.21152
G1 X200.577 Y206.716 E35.24272
G1 X199.703 Y207.056 E35.27391
G1 X198.803 Y207.32 E35.3051
G1 X197.884 Y207.507 E35.3363
G1 X196.952 Y207.614 E35.3675
G1 X196.321 Y207.642 E35.38851
G1 X195.619 Y207.651 E35.41186
G1 X112.168 Y207.652 E38.18745
G1 X111.367 Y207.654 E38.21409
G1 X102.79 Y207.65 E38.49936
G1 X102.091 Y207.64 E38.52261
G1 X101.154 Y207.586 E38.55383
G1 X100.255 Y207.459 E38.58403
G1 X99.389 Y207.287 E38.61339
G1 X89.92 Y205.195 E38.93593
G1 X87.441 Y204.684 E39.02011
G1 X86.353 Y204.494 E39.05685
G1 X84.951 Y204.233 E39.10428
G1 X84.4 Y204.116 E39.12301
G1 X83.484 Y203.892 E39.15438
G1 X82.722 Y203.686 E39.18063
G1 X81.515 Y203.283 E39.22296
G1 X80.535 Y202.887 E39.25811
G1 X79.892 Y202.608 E39.28142
G1 X78.8 Y202.06 E39.32206
G1 X77.924 Y201.552 E39.35574
G1 X77.312 Y201.177 E39.37961
G1 X76.273 Y200.456 E39.42168
G1 X75.681 Y199.992 E39.44669
G1 X75.423 Y199.783 E39.45774
G1 X74.894 Y199.342 E39.48064
G1 X73.993 Y198.501 E39.52164
G1 X73.496 Y197.982 E39.54554
G1 X73.278 Y197.747 E39.5562
G1 X72.811 Y197.23 E39.57937
G1 X72.022 Y196.249 E39.62124
G1 X71.414 Y195.391 E39.65622
G1 X71.034 Y194.826 E39.67887
G1 X70.39 Y193.738 E39.72092
G1 X69.906 Y192.793 E39.75623
G1 X69.621 Y192.203 E39.77802
G1 X69.13 Y191.012 E39.82087
G1 X68.781 Y189.991 E39.85676
G1 X68.578 Y189.346 E39.87925
G1 X68.272 Y188.138 E39.9207
G1 X68.084 Y187.146 E39.95428
G1 X67.97 Y186.454 E39.9776
G1 X67.837 Y185.203 E40.01945
G1 X67.798 Y184.405 E40.04602
G1 X67.787 Y184.075 E40.057
G1 X67.774 Y183.385 E40.07996
G1 X67.823 Y182.12 E40.12206
G1 X67.932 Y181.042 E40.1581
G1 X68.015 Y180.391 E40.17993
G1 X68.242 Y179.168 E40.2213
G1 X68.412 Y178.473 E40.24509
G1 X68.492 Y178.167 E40.25561
G1 X68.682 Y177.477 E40.27942
G1 X69.078 Y176.301 E40.32069
G1 X69.462 Y175.355 E40.35465
G1 X69.737 Y174.723 E40.37757
G1 X70.289 Y173.627 E40.41839
G1 X70.798 Y172.751 E40.45208
G1 X71.175 Y172.137 E40.47605
