;FLAVOR:Marlin
;TIME:3728
;Filament used: 4.78478m
;Layer height: 0.28
;MINX:113.55
;MINY:117
;MINZ:0.28
;MAXX:186.75
;MAXY:202
;MAXZ:18.48
;Generated with Cura_SteamEngine 4.6.1
M140 S50
M105
M190 S50
M104 S200
M105
M109 S200
M82 ;absolute extrusion mode
M201 X500.00 Y500.00 Z100.00 E5000.00 ;Setup machine max acceleration
M203 X500.00 Y500.00 Z10.00 E50.00 ;Setup machine max feedrate
M204 P500.00 R1000.00 T500.00 ;Setup Print/Retract/Travel acceleration
M205 X8.00 Y8.00 Z0.40 E5.00 ;Setup Jerk
M220 S100 ;Reset Feedrate
M221 S100 ;Reset Flowrate

G28 ;Home

G92 E0 ;Reset Extruder
G1 Z2.0 F3000 ;Move Z Axis up
G1 X10.1 Y20 Z0.28 F5000.0 ;Move to start position
G1 X10.1 Y200.0 Z0.28 F1500.0 E15 ;Draw the first line
G1 X10.4 Y200.0 Z0.28 F5000.0 ;Move to side a little
G1 X10.4 Y20 Z0.28 F1500.0 E30 ;Draw the second line
G92 E0 ;Reset Extruder
G1 Z2.0 F3000 ;Move Z Axis up

G92 E0
G92 E0
G1 F2700 E-5
;LAYER_COUNT:66
;LAYER:0
M107
G0 F6000 X175.887 Y117.811 Z0.28
;TYPE:SKIRT
G1 F2700 E0
G1 F1200 X176.789 Y117.864 E0.06059
G1 X177.682 Y117.996 E0.12111
G1 X178.56 Y118.207 E0.18166
G1 X179.416 Y118.495 E0.24222
G1 X180.243 Y118.857 E0.30275
G1 X181.035 Y119.292 E0.36334
G1 X181.786 Y119.794 E0.42391
G1 X182.489 Y120.361 E0.48447
G1 X183.139 Y120.988 E0.54503
G1 X183.731 Y121.67 E0.60558
G1 X184.261 Y122.401 E0.66613
G1 X184.723 Y123.177 E0.72668
G1 X185.116 Y123.99 E0.78723
G1 X185.434 Y124.835 E0.84777
G1 X185.677 Y125.705 E0.90834
G1 X185.842 Y126.593 E0.9689
G1 X185.937 Y127.723 E1.04494
G1 X185.95 Y128.33 E1.08565
G1 X185.949 Y171.402 E3.97373
G1 X185.939 Y172.131 E4.02261
G1 X185.887 Y173.032 E4.08313
G1 X185.755 Y173.926 E4.14372
G1 X185.544 Y174.804 E4.20427
G1 X185.257 Y175.66 E4.26481
G1 X184.895 Y176.488 E4.3254
G1 X184.462 Y177.28 E4.38593
G1 X184.127 Y177.795 E4.42712
G1 X183.396 Y178.849 E4.51313
G1 X183.213 Y179.104 E4.53417
G1 X181.8 Y181.193 E4.70328
G1 X180.44 Y183.329 E4.87307
G1 X179.12 Y185.541 E5.04579
G1 X177.88 Y187.757 E5.21606
G1 X176.73 Y189.957 E5.38252
G1 X175.585 Y192.307 E5.5578
G1 X174.495 Y194.715 E5.73503
G1 X174.358 Y195.033 E5.75825
G1 X173.964 Y195.846 E5.81883
G1 X173.499 Y196.62 E5.87937
G1 X172.968 Y197.35 E5.9399
G1 X172.374 Y198.031 E6.00049
G1 X171.723 Y198.656 E6.061
G1 X171.018 Y199.221 E6.12158
G1 X170.266 Y199.722 E6.18217
G1 X169.473 Y200.154 E6.24272
G1 X168.645 Y200.514 E6.30326
G1 X167.789 Y200.8 E6.36378
G1 X166.91 Y201.008 E6.42434
G1 X166.016 Y201.139 E6.48493
G1 X165.309 Y201.185 E6.53244
G1 X164.67 Y201.2 E6.57529
G1 X135.557 Y201.199 E8.52739
G1 X134.876 Y201.189 E8.57306
G1 X133.975 Y201.136 E8.63358
G1 X133.081 Y201.003 E8.69418
G1 X132.203 Y200.792 E8.75473
G1 X131.347 Y200.504 E8.81529
G1 X130.52 Y200.141 E8.87585
G1 X129.729 Y199.706 E8.93638
G1 X128.978 Y199.204 E8.99695
G1 X128.276 Y198.637 E9.05745
G1 X127.626 Y198.01 E9.11801
G1 X127.034 Y197.327 E9.17862
G1 X126.504 Y196.596 E9.23916
G1 X125.928 Y195.602 E9.31619
G1 X125.818 Y195.385 E9.3325
G1 X125.565 Y194.848 E9.37231
G1 X124.493 Y192.387 E9.5523
G1 X123.403 Y190.072 E9.72387
G1 X122.271 Y187.828 E9.8924
G1 X121.057 Y185.584 E10.06347
G1 X119.782 Y183.379 E10.23426
G1 X118.473 Y181.256 E10.4015
G1 X117.054 Y179.094 E10.5749
G1 X116.767 Y178.68 E10.60868
G1 X116.111 Y177.71 E10.6872
G1 X115.638 Y176.94 E10.74779
G1 X115.236 Y176.132 E10.8083
G1 X114.907 Y175.291 E10.86886
G1 X114.653 Y174.424 E10.92943
G1 X114.477 Y173.538 E10.99
G1 X114.365 Y172.312 E11.07255
G1 X114.35 Y171.673 E11.11541
G1 X114.352 Y128.521 E14.00886
G1 X114.362 Y127.856 E14.05345
G1 X114.416 Y126.954 E14.11404
G1 X114.549 Y126.061 E14.17458
G1 X114.76 Y125.183 E14.23513
G1 X115.049 Y124.327 E14.29571
G1 X115.412 Y123.5 E14.35627
G1 X115.846 Y122.709 E14.41676
G1 X116.349 Y121.958 E14.47737
G1 X116.917 Y121.256 E14.53792
G1 X117.544 Y120.606 E14.59848
G1 X118.226 Y120.014 E14.65903
G1 X118.958 Y119.485 E14.71959
G1 X119.734 Y119.023 E14.78015
G1 X120.548 Y118.632 E14.8407
G1 X121.393 Y118.313 E14.90126
G1 X122.263 Y118.071 E14.96181
G1 X123.151 Y117.907 E15.02236
G1 X124.274 Y117.813 E15.09792
G1 X124.881 Y117.8 E15.13863
G1 X175.189 Y117.801 E18.51191
G1 X175.887 Y117.811 E18.55871
G0 F6000 X175.893 Y117.411
G1 F1200 X176.812 Y117.464 E18.62044
G1 X177.723 Y117.597 E18.68217
G1 X178.619 Y117.808 E18.74389
G1 X179.493 Y118.096 E18.8056
G1 X180.34 Y118.459 E18.86738
G1 X181.151 Y118.894 E18.92909
G1 X181.921 Y119.398 E18.9908
G1 X182.645 Y119.967 E19.05254
G1 X183.317 Y120.597 E19.11431
G1 X183.932 Y121.282 E19.17603
G1 X184.485 Y122.018 E19.23776
G1 X184.972 Y122.799 E19.29948
G1 X185.389 Y123.62 E19.36122
G1 X185.734 Y124.474 E19.42298
G1 X186.003 Y125.354 E19.48468
G1 X186.195 Y126.255 E19.54645
G1 X186.308 Y127.168 E19.60814
G1 X186.337 Y127.712 E19.64467
G1 X186.35 Y128.33 E19.68611
G1 X186.349 Y171.407 E22.57453
G1 X186.339 Y172.136 E22.62342
G1 X186.286 Y173.056 E22.68521
G1 X186.154 Y173.967 E22.74693
G1 X185.944 Y174.863 E22.80864
G1 X185.656 Y175.737 E22.87034
G1 X185.293 Y176.584 E22.93213
G1 X184.859 Y177.395 E22.99381
G1 X184.456 Y178.023 E23.04384
G1 X183.721 Y179.083 E23.13033
G1 X183.542 Y179.332 E23.15089
G1 X182.136 Y181.41 E23.31913
G1 X180.753 Y183.582 E23.49178
G1 X179.479 Y185.719 E23.6586
G1 X178.249 Y187.916 E23.82743
G1 X177.065 Y190.181 E23.99881
G1 X175.965 Y192.44 E24.16728
G1 X174.869 Y194.861 E24.34548
G1 X174.726 Y195.192 E24.36965
G1 X174.324 Y196.02 E24.43137
G1 X173.853 Y196.811 E24.4931
G1 X173.314 Y197.558 E24.55486
G1 X172.713 Y198.255 E24.61657
G1 X172.053 Y198.897 E24.67831
G1 X171.341 Y199.48 E24.74002
G1 X170.58 Y199.999 E24.80178
G1 X169.777 Y200.449 E24.8635
G1 X168.938 Y200.829 E24.92526
G1 X168.07 Y201.134 E24.98695
G1 X167.178 Y201.363 E25.0487
G1 X166.27 Y201.513 E25.11041
G1 X165.321 Y201.585 E25.17422
G1 X164.997 Y201.595 E25.19596
G1 X164.67 Y201.6 E25.21789
G1 X135.551 Y201.599 E27.17039
G1 X134.87 Y201.589 E27.21606
G1 X133.951 Y201.535 E27.27778
G1 X133.04 Y201.402 E27.33952
G1 X132.144 Y201.191 E27.40124
G1 X131.27 Y200.902 E27.46296
G1 X130.424 Y200.539 E27.52469
G1 X129.613 Y200.104 E27.5864
G1 X128.842 Y199.6 E27.64816
G1 X128.119 Y199.03 E27.7099
G1 X127.447 Y198.401 E27.77161
G1 X126.833 Y197.715 E27.83335
G1 X126.28 Y196.979 E27.89507
G1 X125.793 Y196.197 E27.95685
G1 X125.571 Y195.783 E27.98834
G1 X125.461 Y195.566 E28.00466
G1 X125.199 Y195.008 E28.04599
G1 X124.135 Y192.567 E28.22454
G1 X123.042 Y190.244 E28.39668
G1 X121.92 Y188.019 E28.56377
G1 X120.717 Y185.794 E28.73337
G1 X119.437 Y183.583 E28.90468
G1 X118.116 Y181.439 E29.07353
G1 X116.724 Y179.319 E29.24359
G1 X116.435 Y178.904 E29.2775
G1 X115.779 Y177.934 E29.35602
G1 X115.297 Y177.15 E29.41773
G1 X114.885 Y176.327 E29.47944
G1 X114.546 Y175.471 E29.54117
G1 X114.282 Y174.589 E29.60291
G1 X114.096 Y173.687 E29.66466
G1 X113.965 Y172.324 E29.75647
G1 X113.955 Y172.001 E29.77814
G1 X113.95 Y171.673 E29.80014
G1 X113.952 Y128.515 E32.69399
G1 X113.962 Y127.85 E32.73858
G1 X114.016 Y126.931 E32.80031
G1 X114.149 Y126.02 E32.86204
G1 X114.361 Y125.124 E32.92378
G1 X114.65 Y124.249 E32.98557
G1 X115.014 Y123.404 E33.04726
G1 X115.449 Y122.593 E33.10897
G1 X115.954 Y121.822 E33.17077
G1 X116.523 Y121.099 E33.23246
G1 X117.153 Y120.427 E33.29422
G1 X117.839 Y119.813 E33.35595
G1 X118.575 Y119.261 E33.41764
G1 X119.357 Y118.774 E33.47941
G1 X120.178 Y118.358 E33.54113
G1 X121.032 Y118.014 E33.60286
G1 X121.912 Y117.745 E33.66456
G1 X122.813 Y117.554 E33.72632
G1 X123.727 Y117.442 E33.78806
G1 X124.263 Y117.413 E33.82406
G1 X124.881 Y117.4 E33.8655
G1 X175.195 Y117.401 E37.23918
G1 X175.893 Y117.411 E37.28599
G0 F6000 X175.899 Y117.011
G1 F1200 X176.835 Y117.065 E37.34885
G1 X177.763 Y117.197 E37.4117
G1 X178.677 Y117.409 E37.47462
G1 X179.569 Y117.698 E37.53749
G1 X180.434 Y118.061 E37.60039
G1 X181.264 Y118.497 E37.66325
G1 X182.055 Y119.002 E37.72618
G1 X182.799 Y119.573 E37.78907
G1 X183.492 Y120.205 E37.85196
G1 X184.129 Y120.893 E37.91482
G1 X184.704 Y121.634 E37.97771
G1 X185.215 Y122.42 E38.04058
G1 X185.657 Y123.248 E38.10351
G1 X186.026 Y124.11 E38.16638
G1 X186.321 Y125 E38.22925
G1 X186.539 Y125.912 E38.29213
G1 X186.679 Y126.84 E38.35506
G1 X186.737 Y127.701 E38.41292
G1 X186.75 Y128.33 E38.4551
G1 X186.749 Y171.413 E41.34392
G1 X186.739 Y172.142 E41.39281
G1 X186.686 Y173.078 E41.45567
G1 X186.554 Y174.007 E41.51859
G1 X186.343 Y174.921 E41.58149
G1 X186.055 Y175.813 E41.64434
G1 X185.692 Y176.678 E41.70724
G1 X185.256 Y177.509 E41.77016
G1 X184.785 Y178.251 E41.82909
G1 X184.046 Y179.316 E41.91601
G1 X183.865 Y179.567 E41.93676
G1 X182.461 Y181.643 E42.10481
G1 X181.116 Y183.756 E42.27276
G1 X179.813 Y185.94 E42.44328
G1 X178.595 Y188.118 E42.61061
G1 X177.436 Y190.335 E42.77835
G1 X176.317 Y192.63 E42.94955
G1 X175.233 Y195.027 E43.12595
G1 X175.093 Y195.35 E43.14955
G1 X174.685 Y196.195 E43.21247
G1 X174.206 Y197.001 E43.27534
G1 X173.661 Y197.764 E43.33821
G1 X173.052 Y198.478 E43.40114
G1 X172.385 Y199.137 E43.46401
G1 X171.664 Y199.737 E43.5269
G1 X170.895 Y200.273 E43.58976
G1 X170.083 Y200.742 E43.65263
G1 X169.233 Y201.14 E43.71557
G1 X168.353 Y201.465 E43.77847
G1 X167.449 Y201.713 E43.84132
G1 X166.526 Y201.883 E43.90425
G1 X165.333 Y201.985 E43.98454
G1 X165.009 Y201.995 E44.00627
G1 X164.67 Y202 E44.02901
G1 X135.545 Y201.999 E45.98191
G1 X134.864 Y201.989 E46.02758
G1 X133.928 Y201.935 E46.09044
G1 X133 Y201.802 E46.1533
G1 X132.086 Y201.59 E46.21621
G1 X131.194 Y201.301 E46.27909
G1 X130.33 Y200.937 E46.34195
G1 X129.499 Y200.501 E46.40488
G1 X128.709 Y199.995 E46.46778
G1 X127.965 Y199.425 E46.53063
G1 X127.272 Y198.793 E46.59351
G1 X126.636 Y198.104 E46.65639
G1 X126.06 Y197.363 E46.71932
G1 X125.55 Y196.576 E46.7822
G1 X125.215 Y195.964 E46.82898
G1 X125.105 Y195.747 E46.8453
G1 X124.832 Y195.168 E46.88822
G1 X123.771 Y192.733 E47.06632
G1 X122.694 Y190.446 E47.23582
G1 X121.546 Y188.169 E47.4068
G1 X120.362 Y185.979 E47.57374
G1 X119.109 Y183.814 E47.74146
G1 X117.768 Y181.638 E47.91285
G1 X116.411 Y179.571 E48.07865
G1 X116.104 Y179.128 E48.11479
G1 X115.448 Y178.158 E48.19331
G1 X114.956 Y177.36 E48.25617
G1 X114.534 Y176.522 E48.31908
G1 X114.185 Y175.652 E48.38193
G1 X113.912 Y174.755 E48.4448
G1 X113.715 Y173.837 E48.50776
G1 X113.598 Y172.907 E48.57061
G1 X113.565 Y172.336 E48.60896
G1 X113.555 Y172.013 E48.63063
G1 X113.55 Y171.673 E48.65343
G1 X113.552 Y128.509 E51.54768
G1 X113.562 Y127.844 E51.59227
G1 X113.616 Y126.907 E51.65521
G1 X113.75 Y125.979 E51.71808
G1 X113.962 Y125.065 E51.78099
G1 X114.251 Y124.173 E51.84386
G1 X114.616 Y123.309 E51.90675
G1 X115.052 Y122.479 E51.96962
G1 X115.558 Y121.689 E52.03252
G1 X116.129 Y120.945 E52.09541
G1 X116.761 Y120.252 E52.1583
G1 X117.45 Y119.616 E52.22117
G1 X118.191 Y119.041 E52.28406
G1 X118.978 Y118.531 E52.34694
G1 X119.806 Y118.09 E52.40985
G1 X120.668 Y117.721 E52.47272
G1 X121.559 Y117.427 E52.53563
G1 X122.471 Y117.209 E52.5985
G1 X123.398 Y117.071 E52.66135
G1 X124.252 Y117.013 E52.71874
G1 X124.881 Y117 E52.76093
G1 X175.201 Y117.001 E56.13501
G1 X175.899 Y117.011 E56.18181
G1 F2700 E51.18181
;MESH:Covering_Trimmer_-_Double_Edge.stl
G0 F6000 X175.33 Y127.335
G0 X175.33 Y128.42
G0 X174.968 Y171.218
G0 X125.15 Y171.4
;TYPE:WALL-INNER
G1 F2700 E56.18181
G1 F1200 X125.15 Y171.201 E56.1946
G1 X125.151 Y168.1 E56.39387
G1 X131.95 Y168.1 E56.83076
G1 X131.95 Y165.9 E56.97213
G1 X125.349 Y165.9 E57.3963
G1 X125.15 Y165.9 E57.40909
G1 X125.15 Y165.701 E57.41736
G1 X125.151 Y165.009 E57.46183
G1 X131.95 Y165.009 E57.89872
G1 X131.95 Y162.809 E58.04009
G1 X125.349 Y162.809 E58.46426
G1 X125.15 Y162.809 E58.47705
G1 X125.15 Y162.61 E58.48532
G1 X125.151 Y161.918 E58.52979
G1 X131.95 Y161.918 E58.96668
G1 X131.95 Y159.718 E59.10805
G1 X125.349 Y159.718 E59.53222
G1 X125.15 Y159.718 E59.54501
G1 X125.15 Y159.519 E59.55328
G1 X125.151 Y158.827 E59.59775
G1 X131.95 Y158.827 E60.03465
G1 X131.95 Y156.627 E60.17601
G1 X125.151 Y156.627 E60.61291
G1 X125.15 Y155.935 E60.65738
G1 X125.15 Y155.736 E60.67016
G1 X125.349 Y155.736 E60.67844
G1 X131.95 Y155.736 E61.10261
G1 X131.95 Y153.536 E61.24398
G1 X125.349 Y153.536 E61.66815
G1 X125.15 Y153.536 E61.68093
G1 X125.15 Y153.337 E61.68921
G1 X125.151 Y152.645 E61.73367
G1 X131.95 Y152.645 E62.17057
G1 X131.95 Y150.445 E62.31194
G1 X125.349 Y150.445 E62.73611
G1 X125.15 Y150.445 E62.7489
G1 X125.15 Y150.246 E62.75717
G1 X125.151 Y149.555 E62.80157
G1 X131.95 Y149.555 E63.23847
G1 X131.95 Y147.355 E63.37983
G1 X125.151 Y147.355 E63.81673
G1 X125.15 Y146.663 E63.8612
G1 X125.15 Y146.464 E63.87398
G1 X125.349 Y146.464 E63.88226
G1 X131.95 Y146.464 E64.30643
G1 X131.95 Y144.264 E64.4478
G1 X125.349 Y144.264 E64.87197
G1 X125.15 Y144.264 E64.88475
G1 X125.15 Y144.065 E64.89303
G1 X125.151 Y143.373 E64.9375
G1 X131.95 Y143.373 E65.37439
G1 X131.95 Y141.173 E65.51576
G1 X125.151 Y141.173 E65.95265
G1 X125.15 Y140.481 E65.99712
G1 X125.15 Y140.282 E66.00991
G1 X125.349 Y140.282 E66.01818
G1 X131.95 Y140.282 E66.44235
G1 X131.95 Y138.082 E66.58372
G1 X125.349 Y138.082 E67.00789
G1 X125.15 Y138.082 E67.02068
G1 X125.15 Y137.883 E67.02895
G1 X125.151 Y137.191 E67.07342
G1 X131.95 Y137.191 E67.51031
G1 X131.95 Y134.991 E67.65168
G1 X125.349 Y134.991 E68.07585
G1 X125.15 Y134.991 E68.08864
G1 X125.15 Y134.792 E68.09691
G1 X125.151 Y134.1 E68.14138
G1 X131.95 Y134.1 E68.57827
G1 X131.95 Y131.9 E68.71964
G1 X125.151 Y131.9 E69.15654
G1 X125.151 Y128.6 E69.36859
G1 X175.15 Y128.6 E72.58146
G1 X175.15 Y171.4 E75.33172
G1 X125.349 Y171.4 E78.53186
G1 X125.15 Y171.4 E78.54014
G0 F6000 X124.75 Y171.8
;TYPE:WALL-OUTER
G1 F1200 X124.751 Y167.7 E78.8036
G1 X131.55 Y167.7 E79.24049
G1 X131.55 Y166.3 E79.33045
G1 X124.75 Y166.3 E79.76741
G1 X124.751 Y164.609 E79.87607
G1 X131.55 Y164.609 E80.31297
G1 X131.55 Y163.209 E80.40293
G1 X124.75 Y163.209 E80.83989
G1 X124.751 Y161.518 E80.94855
G1 X131.55 Y161.518 E81.38544
G1 X131.55 Y160.118 E81.47541
G1 X124.75 Y160.118 E81.91236
G1 X124.751 Y158.427 E82.02103
G1 X131.55 Y158.427 E82.45792
G1 X131.55 Y157.027 E82.54788
G1 X124.751 Y157.027 E82.98478
G1 X124.75 Y155.336 E83.09344
G1 X131.55 Y155.336 E83.5304
G1 X131.55 Y153.936 E83.62036
G1 X124.75 Y153.936 E84.05732
G1 X124.751 Y152.245 E84.16598
G1 X131.55 Y152.245 E84.60287
G1 X131.55 Y150.845 E84.69283
G1 X124.75 Y150.845 E85.12979
G1 X124.751 Y149.155 E85.23839
G1 X131.55 Y149.155 E85.67528
G1 X131.55 Y147.755 E85.76524
G1 X124.751 Y147.755 E86.20214
G1 X124.75 Y146.064 E86.3108
G1 X131.55 Y146.064 E86.74776
G1 X131.55 Y144.664 E86.83772
G1 X124.75 Y144.664 E87.27468
G1 X124.751 Y142.973 E87.38334
G1 X131.55 Y142.973 E87.82023
G1 X131.55 Y141.573 E87.9102
G1 X124.751 Y141.573 E88.34709
G1 X124.75 Y139.882 E88.45575
G1 X131.55 Y139.882 E88.89271
G1 X131.55 Y138.482 E88.98267
G1 X124.75 Y138.482 E89.41963
G1 X124.751 Y136.791 E89.52829
G1 X131.55 Y136.791 E89.96519
G1 X131.55 Y135.391 E90.05515
G1 X124.75 Y135.391 E90.49211
G1 X124.751 Y133.7 E90.60077
G1 X131.55 Y133.7 E91.03766
G1 X131.55 Y132.3 E91.12762
G1 X124.751 Y132.3 E91.56452
G1 X124.751 Y128.2 E91.82798
G1 X175.55 Y128.2 E95.09225
G1 X175.55 Y171.8 E97.89392
G1 X124.75 Y171.8 E101.15826
G0 F6000 X125.02 Y171.53
G0 X125.261 Y171.009
G0 X125.54 Y171.01
;TYPE:SKIN
G1 F1200 X125.541 Y168.49 E101.32019
G1 X132.34 Y168.49 E101.75708
G1 X132.34 Y165.51 E101.94858
G1 X125.54 Y165.51 E102.38553
G1 X125.541 Y165.399 E102.39267
G1 X132.34 Y165.399 E102.82956
G1 X132.34 Y162.419 E103.02105
G1 X125.54 Y162.419 E103.45801
G1 X125.541 Y162.308 E103.46514
G1 X132.34 Y162.308 E103.90204
G1 X132.34 Y159.328 E104.09353
G1 X125.54 Y159.328 E104.53049
G1 X125.541 Y159.217 E104.53762
G1 X132.34 Y159.217 E104.97451
G1 X132.34 Y156.237 E105.166
G1 X125.541 Y156.237 E105.6029
G1 X125.54 Y156.126 E105.61003
G1 X132.34 Y156.126 E106.04699
G1 X132.34 Y153.146 E106.23848
G1 X125.54 Y153.146 E106.67544
G1 X125.541 Y153.035 E106.68257
G1 X132.34 Y153.035 E107.11946
G1 X132.34 Y150.055 E107.31096
G1 X125.54 Y150.055 E107.74791
G1 X125.541 Y149.945 E107.75498
G1 X132.34 Y149.945 E108.19188
G1 X132.34 Y146.965 E108.38337
G1 X125.541 Y146.965 E108.82026
