;FLAVOR:Marlin
;TIME:18381
;Filament used: 14.018m
;Layer height: 0.16
;MINX:112.754
;MINY:101.7
;MINZ:0.16
;MAXX:187.246
;MAXY:198.3
;MAXZ:64.92
;Generated with Cura_SteamEngine 4.6.1
M140 S60
M105
M190 S60
M104 S220
M105
M109 S220
M82 ;absolute extrusion mode
M201 X500.00 Y500.00 Z100.00 E5000.00 ;Setup machine max acceleration
M203 X500.00 Y500.00 Z10.00 E50.00 ;Setup machine max feedrate
M204 P500.00 R1000.00 T500.00 ;Setup Print/Retract/Travel acceleration
M205 X8.00 Y8.00 Z0.40 E5.00 ;Setup Jerk
M220 S100 ;Reset Feedrate
M221 S100 ;Reset Flowrate

G28 ;Home

G92 E0 ;Reset Extruder
G1 Z2.0 F3000 ;Move Z Axis up
G1 X10.1 Y20 Z0.28 F5000.0 ;Move to start position
G1 X10.1 Y200.0 Z0.28 F1500.0 E15 ;Draw the first line
G1 X10.4 Y200.0 Z0.28 F5000.0 ;Move to side a little
G1 X10.4 Y20 Z0.28 F1500.0 E30 ;Draw the second line
G92 E0 ;Reset Extruder
G1 Z2.0 F3000 ;Move Z Axis up

G92 E0
G92 E0
G1 F2700 E-5
;LAYER_COUNT:329
;LAYER:0
M107
G0 F6000 X168.973 Y102.351 Z0.16
;TYPE:SKIRT
G1 F2700 E0
G1 F1200 X169.872 Y102.404 E0.0253
G1 X170.764 Y102.536 E0.05064
G1 X171.64 Y102.747 E0.07596
G1 X172.494 Y103.035 E0.10128
G1 X173.32 Y103.397 E0.12662
G1 X174.11 Y103.831 E0.15195
G1 X174.858 Y104.334 E0.17728
G1 X175.559 Y104.9 E0.20259
G1 X176.207 Y105.527 E0.22793
G1 X176.797 Y106.208 E0.25325
G1 X177.324 Y106.94 E0.27859
G1 X177.784 Y107.715 E0.30391
G1 X178.174 Y108.527 E0.32922
G1 X178.49 Y109.371 E0.35455
G1 X178.73 Y110.24 E0.37988
G1 X178.892 Y111.127 E0.40521
G1 X178.983 Y112.224 E0.43614
G1 X178.996 Y112.83 E0.45317
G1 X178.997 Y186.826 E2.53232
G1 X178.996 Y186.983 E2.53674
G1 X178.986 Y187.629 E2.55489
G1 X178.932 Y188.529 E2.58022
G1 X178.798 Y189.42 E2.60554
G1 X178.587 Y190.296 E2.63086
G1 X178.298 Y191.15 E2.65619
G1 X177.935 Y191.975 E2.68152
G1 X177.5 Y192.765 E2.70686
G1 X176.996 Y193.512 E2.73218
G1 X176.429 Y194.213 E2.75751
G1 X175.802 Y194.86 E2.78283
G1 X175.119 Y195.449 E2.80817
G1 X174.388 Y195.975 E2.83347
G1 X173.612 Y196.435 E2.85882
G1 X172.799 Y196.823 E2.88413
G1 X171.955 Y197.139 E2.90945
G1 X171.086 Y197.378 E2.93478
G1 X170.199 Y197.539 E2.96011
G1 X169.297 Y197.621 E2.98556
G1 X168.566 Y197.65 E3.00611
G1 X167.804 Y197.66 E3.02753
G1 X131.724 Y197.659 E4.04131
G1 X131.026 Y197.649 E4.06092
G1 X130.127 Y197.596 E4.08623
G1 X129.235 Y197.464 E4.11156
G1 X128.359 Y197.253 E4.13688
G1 X127.505 Y196.965 E4.1622
G1 X126.679 Y196.603 E4.18754
G1 X125.889 Y196.169 E4.21287
G1 X125.141 Y195.666 E4.2382
G1 X124.44 Y195.1 E4.26351
G1 X123.792 Y194.473 E4.28885
G1 X123.202 Y193.792 E4.31417
G1 X122.675 Y193.06 E4.33951
G1 X122.215 Y192.285 E4.36483
G1 X121.825 Y191.473 E4.39014
G1 X121.509 Y190.629 E4.41547
G1 X121.269 Y189.76 E4.4408
G1 X121.107 Y188.873 E4.46613
G1 X121.013 Y187.663 E4.50024
G1 X121.004 Y187.02 E4.5183
G1 X121.003 Y113.21 E6.59223
G1 X121.004 Y113.062 E6.59639
G1 X121.014 Y112.375 E6.61569
G1 X121.067 Y111.475 E6.64103
G1 X121.2 Y110.584 E6.66634
G1 X121.411 Y109.708 E6.69166
G1 X121.699 Y108.853 E6.71701
G1 X122.061 Y108.028 E6.74232
G1 X122.496 Y107.238 E6.76766
G1 X122.998 Y106.49 E6.79297
G1 X123.565 Y105.789 E6.81831
G1 X124.192 Y105.142 E6.84362
G1 X124.873 Y104.552 E6.86894
G1 X125.604 Y104.025 E6.89426
G1 X126.38 Y103.565 E6.91961
G1 X127.192 Y103.175 E6.94492
G1 X128.036 Y102.859 E6.97024
G1 X128.905 Y102.619 E6.99557
G1 X129.792 Y102.457 E7.02091
G1 X130.964 Y102.365 E7.05394
G1 X132.293 Y102.34 E7.09129
G1 X168.275 Y102.341 E8.10232
G1 X168.973 Y102.351 E8.12193
G0 F6000 X168.977 Y102.031
G1 F1200 X169.891 Y102.084 E8.14766
G1 X170.797 Y102.217 E8.17339
G1 X171.688 Y102.428 E8.19911
G1 X172.556 Y102.716 E8.22481
G1 X173.397 Y103.079 E8.25055
G1 X174.202 Y103.514 E8.27626
G1 X174.967 Y104.017 E8.30198
G1 X175.685 Y104.585 E8.32771
G1 X176.35 Y105.214 E8.35343
G1 X176.958 Y105.898 E8.37914
G1 X177.504 Y106.633 E8.40487
G1 X177.984 Y107.413 E8.4306
G1 X178.394 Y108.231 E8.45631
G1 X178.731 Y109.082 E8.48203
G1 X178.992 Y109.96 E8.50777
G1 X179.176 Y110.857 E8.5335
G1 X179.303 Y112.215 E8.57182
G1 X179.316 Y112.83 E8.58911
G1 X179.317 Y186.826 E10.66826
G1 X179.316 Y186.988 E10.67281
G1 X179.306 Y187.634 E10.69096
G1 X179.252 Y188.548 E10.71669
G1 X179.118 Y189.454 E10.74242
G1 X178.906 Y190.344 E10.76813
G1 X178.617 Y191.213 E10.79386
G1 X178.253 Y192.053 E10.81959
G1 X177.817 Y192.858 E10.84531
G1 X177.313 Y193.622 E10.87103
G1 X176.744 Y194.339 E10.89675
G1 X176.114 Y195.004 E10.92248
G1 X175.429 Y195.611 E10.9482
G1 X174.694 Y196.156 E10.97391
G1 X173.914 Y196.635 E10.99963
G1 X173.095 Y197.044 E11.02535
G1 X172.243 Y197.38 E11.05109
G1 X171.366 Y197.64 E11.07679
G1 X170.469 Y197.823 E11.10251
G1 X169.312 Y197.941 E11.13519
G1 X168.902 Y197.96 E11.14672
G1 X168.571 Y197.97 E11.15603
G1 X167.804 Y197.98 E11.17758
G1 X131.72 Y197.979 E12.19148
G1 X131.022 Y197.969 E12.21109
G1 X130.108 Y197.916 E12.23681
G1 X129.202 Y197.783 E12.26254
G1 X128.311 Y197.572 E12.28827
G1 X127.443 Y197.284 E12.31397
G1 X126.602 Y196.921 E12.33971
G1 X125.797 Y196.486 E12.36542
G1 X125.032 Y195.983 E12.39114
G1 X124.314 Y195.415 E12.41687
G1 X123.649 Y194.786 E12.44259
G1 X123.041 Y194.102 E12.4683
G1 X122.495 Y193.367 E12.49403
G1 X122.015 Y192.587 E12.51976
G1 X121.605 Y191.769 E12.54547
G1 X121.268 Y190.918 E12.57119
G1 X121.007 Y190.04 E12.59693
G1 X120.823 Y189.143 E12.62266
G1 X120.718 Y188.234 E12.64837
G1 X120.694 Y187.668 E12.66428
G1 X120.684 Y187.02 E12.68249
G1 X120.683 Y113.21 E14.75642
G1 X120.684 Y113.057 E14.76072
G1 X120.694 Y112.37 E14.78002
G1 X120.747 Y111.457 E14.80572
G1 X120.88 Y110.551 E14.83145
G1 X121.092 Y109.66 E14.85718
G1 X121.38 Y108.791 E14.88291
G1 X121.743 Y107.951 E14.90862
G1 X122.178 Y107.145 E14.93435
G1 X122.681 Y106.381 E14.96006
G1 X123.25 Y105.663 E14.9858
G1 X123.879 Y104.998 E15.01152
G1 X124.563 Y104.39 E15.03723
G1 X125.298 Y103.845 E15.06294
G1 X126.078 Y103.365 E15.08868
G1 X126.896 Y102.955 E15.11439
G1 X127.748 Y102.619 E15.14012
G1 X128.625 Y102.357 E15.16584
G1 X129.522 Y102.174 E15.19156
G1 X130.431 Y102.069 E15.21727
G1 X130.958 Y102.045 E15.2321
G1 X132.293 Y102.02 E15.26961
G1 X168.279 Y102.021 E16.28075
G1 X168.977 Y102.031 E16.30037
G0 F6000 X168.982 Y101.711
G1 F1200 X169.909 Y101.764 E16.32646
G1 X170.829 Y101.897 E16.35258
G1 X171.734 Y102.109 E16.37869
G1 X172.618 Y102.397 E16.40482
G1 X173.473 Y102.76 E16.43092
G1 X174.294 Y103.196 E16.45704
G1 X175.074 Y103.7 E16.48313
G1 X175.809 Y104.27 E16.50927
G1 X176.491 Y104.901 E16.53537
G1 X177.117 Y105.588 E16.56149
G1 X177.681 Y106.326 E16.58759
G1 X178.18 Y107.11 E16.6137
G1 X178.61 Y107.934 E16.63981
G1 X178.967 Y108.792 E16.66593
G1 X179.249 Y109.677 E16.69203
G1 X179.454 Y110.584 E16.71815
G1 X179.58 Y111.505 E16.74427
G1 X179.623 Y112.206 E16.76401
G1 X179.636 Y112.83 E16.78154
G1 X179.637 Y186.826 E18.8607
G1 X179.636 Y186.993 E18.86539
G1 X179.626 Y187.639 E18.88354
G1 X179.571 Y188.567 E18.90966
G1 X179.437 Y189.486 E18.93576
G1 X179.225 Y190.391 E18.96187
G1 X178.936 Y191.274 E18.98798
G1 X178.571 Y192.129 E19.0141
G1 X178.135 Y192.95 E19.04022
G1 X177.629 Y193.729 E19.06632
G1 X177.059 Y194.463 E19.09243
G1 X176.427 Y195.145 E19.11856
G1 X175.74 Y195.77 E19.14466
G1 X175.001 Y196.333 E19.17076
G1 X174.216 Y196.831 E19.19688
G1 X173.392 Y197.26 E19.22299
G1 X172.533 Y197.616 E19.24911
G1 X171.648 Y197.897 E19.2752
G1 X170.741 Y198.101 E19.30132
G1 X169.82 Y198.226 E19.32744
G1 X169.327 Y198.26 E19.34133
G1 X168.576 Y198.29 E19.36244
G1 X167.804 Y198.3 E19.38414
G1 X131.715 Y198.299 E20.39817
G1 X131.017 Y198.289 E20.41779
G1 X130.09 Y198.236 E20.44388
G1 X129.17 Y198.103 E20.46999
G1 X128.265 Y197.891 E20.49611
G1 X127.381 Y197.603 E20.52224
G1 X126.526 Y197.24 E20.54834
G1 X125.705 Y196.804 E20.57446
G1 X124.925 Y196.3 E20.60055
G1 X124.19 Y195.73 E20.62668
G1 X123.508 Y195.099 E20.65279
G1 X122.882 Y194.412 E20.67891
G1 X122.318 Y193.674 E20.705
G1 X121.819 Y192.89 E20.73112
G1 X121.389 Y192.066 E20.75723
G1 X121.032 Y191.208 E20.78334
G1 X120.75 Y190.323 E20.80944
G1 X120.545 Y189.416 E20.83557
G1 X120.419 Y188.495 E20.86169
G1 X120.374 Y187.674 E20.88479
G1 X120.364 Y187.02 E20.90317
G1 X120.363 Y113.21 E22.9771
G1 X120.364 Y113.053 E22.98151
G1 X120.374 Y112.366 E23.00081
G1 X120.428 Y111.438 E23.02693
G1 X120.561 Y110.518 E23.05305
G1 X120.772 Y109.613 E23.07916
G1 X121.061 Y108.73 E23.10527
G1 X121.424 Y107.875 E23.13137
G1 X121.86 Y107.054 E23.15749
G1 X122.365 Y106.274 E23.1836
G1 X122.935 Y105.54 E23.20971
G1 X123.565 Y104.857 E23.23582
G1 X124.253 Y104.232 E23.26194
G1 X124.991 Y103.667 E23.28805
G1 X125.775 Y103.169 E23.31415
G1 X126.599 Y102.739 E23.34026
G1 X127.457 Y102.382 E23.36638
G1 X128.343 Y102.1 E23.3925
G1 X129.249 Y101.896 E23.4186
G1 X130.17 Y101.77 E23.44472
G1 X130.951 Y101.725 E23.4667
G1 X132.293 Y101.7 E23.50441
G1 X168.284 Y101.701 E24.51569
G1 X168.982 Y101.711 E24.53531
G1 F2700 E19.53531
;MESH:HIVE_Drawer.stl
G0 F6000 X168.542 Y111.835
G0 X168.542 Y112.794
G0 X137.314 Y153.964
G0 X137.318 Y155.011
G0 X137.242 Y155.115
G0 X137.342 Y155.015
;TYPE:WALL-OUTER
G1 F2700 E24.53531
G1 F1200 X137.342 Y155.431 E24.547
G1 X137.131 Y155.489 E24.55314
G1 X137.101 Y155.49 E24.55399
G1 X137.074 Y155.489 E24.55475
G1 X137.07 Y155.488 E24.55486
G1 X137.063 Y155.439 E24.55625
G1 X137.062 Y155.015 E24.56817
G1 X137.342 Y155.015 E24.57603
G0 F6000 X137.242 Y155.015
G0 X137.308 Y155.043
G0 X137.308 Y154.512
G0 X137.089 Y154.079
G0 X136.41 Y154.079
G0 X136.286 Y154.392
G0 X136.286 Y155.163
G0 X136.479 Y155.802
G0 X136.54 Y155.868
G0 X137.288 Y156.593
;TYPE:WALL-INNER
G1 F1200 X139.785 Y156.592 E24.6462
G1 X139.797 Y156.591 E24.64653
G1 X139.786 Y156.797 E24.65034
G1 X140.676 Y156.987 E24.67592
G1 X140.992 Y157.006 E24.68481
G1 X141.244 Y156.981 E24.69193
G1 X141.401 Y156.944 E24.69646
G1 X141.552 Y156.885 E24.70101
G1 X141.68 Y156.813 E24.70514
G1 X141.941 Y156.631 E24.71408
G1 X141.965 Y156.591 E24.71539
G1 X143.419 Y156.591 E24.75625
G1 X143.455 Y156.503 E24.75892
G1 X143.565 Y156.545 E24.76223
G1 X143.704 Y156.584 E24.76628
G1 X143.835 Y156.603 E24.77
G1 X144.036 Y156.619 E24.77567
G1 X144.267 Y156.605 E24.78217
G1 X144.321 Y156.591 E24.78374
G1 X145.63 Y156.591 E24.82052
G1 X145.704 Y156.606 E24.82264
G1 X145.935 Y156.619 E24.82914
G1 X146.089 Y156.607 E24.83348
G1 X146.274 Y156.578 E24.83874
G1 X146.453 Y156.518 E24.84405
G1 X146.506 Y156.489 E24.84574
G1 X146.652 Y156.545 E24.85014
G1 X146.791 Y156.584 E24.85419
G1 X146.922 Y156.603 E24.85791
G1 X147.123 Y156.619 E24.86358
G1 X147.354 Y156.605 E24.87008
G1 X147.408 Y156.591 E24.87165
G1 X148.741 Y156.591 E24.9091
G1 X148.794 Y156.603 E24.91063
G1 X149.016 Y156.618 E24.91688
G1 X149.199 Y156.605 E24.92204
G1 X149.351 Y156.575 E24.92639
G1 X149.505 Y156.524 E24.93095
G1 X149.531 Y156.532 E24.93171
G1 X149.66 Y156.576 E24.93554
G1 X149.798 Y156.603 E24.93949
G1 X150.018 Y156.626 E24.94571
G1 X150.244 Y156.602 E24.9521
G1 X150.292 Y156.591 E24.95348
G1 X151.375 Y156.591 E24.98391
G1 X151.489 Y156.591 E24.98711
G1 X151.375 Y156.888 E24.99324
G1 X151.489 Y156.888 E24.99364
G1 X153.259 Y156.888 E25.04337
G1 X153.438 Y156.422 E25.0574
G1 X153.45 Y156.391 E25.05833
G1 X153.671 Y156.511 E25.06319
G1 X153.835 Y156.563 E25.06803
G1 X153.981 Y156.6 E25.07226
G1 X154.123 Y156.614 E25.07627
G1 X154.134 Y156.616 E25.07658
G1 X154.281 Y156.621 E25.08071
G1 X154.547 Y156.602 E25.08821
G1 X154.831 Y156.522 E25.0965
G1 X154.925 Y156.476 E25.09944
G1 X155.07 Y156.53 E25.10379
G1 X155.321 Y156.593 E25.11106
G1 X155.551 Y156.621 E25.11757
G1 X155.859 Y156.611 E25.12623
G1 X155.945 Y156.591 E25.12871
G1 X156.67 Y156.591 E25.14908
G1 X156.784 Y156.591 E25.15228
G1 X156.67 Y156.888 E25.15841
G1 X156.784 Y156.888 E25.15881
G1 X158.554 Y156.888 E25.20854
G1 X158.698 Y156.512 E25.21985
G1 X158.704 Y156.498 E25.22028
G1 X158.799 Y156.55 E25.22203
G1 X159.022 Y156.604 E25.22848
G1 X159.204 Y156.623 E25.23362
G1 X159.384 Y156.615 E25.23869
G1 X159.515 Y156.591 E25.24243
G1 X160.349 Y156.591 E25.26586
G1 X160.38 Y156.598 E25.26675
G1 X160.535 Y156.62 E25.27115
G1 X160.688 Y156.621 E25.27545
G1 X160.887 Y156.599 E25.28108
G1 X161.076 Y156.545 E25.2866
G1 X161.218 Y156.476 E25.29104
G1 X161.336 Y156.533 E25.29472
G1 X161.522 Y156.588 E25.30017
G1 X161.814 Y156.626 E25.30844
G1 X162.049 Y156.603 E25.31508
G1 X162.183 Y156.576 E25.31892
G1 X162.344 Y156.523 E25.32368
G1 X162.415 Y156.485 E25.32594
G1 X162.49 Y156.527 E25.32836
G1 X162.531 Y156.551 E25.32969
G1 X162.771 Y156.607 E25.33662
G1 X162.957 Y156.623 E25.34186
G1 X163.148 Y156.613 E25.34724
G1 X163.234 Y156.591 E25.34973
G1 X163.99 Y156.591 E25.37098
G1 X164.042 Y156.603 E25.37247
G1 X164.23 Y156.615 E25.37777
G1 X164.444 Y156.599 E25.3838
G1 X165.246 Y156.434 E25.4068
G1 X165.246 Y153.9 E25.47801
G1 X164.867 Y153.9 E25.48865
G1 X164.867 Y153.587 E25.49745
G1 X163.084 Y153.587 E25.54755
G1 X163.084 Y153.9 E25.55634
G1 X162.102 Y153.9 E25.58394
G1 X161.827 Y153.863 E25.59173
G1 X161.486 Y153.909 E25.6014
G1 X161.398 Y153.94 E25.60402
G1 X161.288 Y153.978 E25.60729
G1 X161.243 Y154.003 E25.60874
G1 X161.138 Y153.953 E25.61201
G1 X161.138 Y153.836 E25.61459
G1 X161.138 Y153.472 E25.62482
G1 X157.982 Y153.472 E25.7135
G1 X157.875 Y153.752 E25.72192
G1 X157.865 Y153.777 E25.72268
G1 X157.848 Y153.765 E25.72275
G1 X157.625 Y153.657 E25.72776
G1 X157.4 Y153.586 E25.73439
G1 X157.121 Y153.545 E25.74232
G1 X156.792 Y153.537 E25.75156
G1 X155.981 Y153.537 E25.77435
G1 X155.846 Y153.514 E25.7782
G1 X155.705 Y153.508 E25.78216
G1 X155.451 Y153.517 E25.78931
G1 X155.168 Y153.579 E25.79745
G1 X155.009 Y153.634 E25.80217
G1 X154.945 Y153.662 E25.80414
G1 X154.841 Y153.613 E25.80737
G1 X154.697 Y153.566 E25.81162
G1 X154.555 Y153.531 E25.81573
G1 X154.551 Y153.53 E25.81585
G1 X154.555 Y153.517
G1 X154.559 Y153.507
G1 X154.573 Y153.472
G1 X154.551 Y153.472
G1 X152.821 Y153.472 E25.86446
G1 X152.687 Y153.472 E25.86822
G1 X152.504 Y153.948 E25.88255
G1 X152.497 Y153.943 E25.88279
G1 X152.247 Y153.884 E25.89001
G1 X152.126 Y153.874 E25.89342
G1 X152.038 Y153.867 E25.8959
G1 X151.775 Y153.893 E25.90333
G1 X151.695 Y153.92 E25.9057
G1 X151.639 Y153.898 E25.90739
G1 X151.485 Y153.88 E25.91175
G1 X151.593 Y153.819 E25.91204
G1 X151.625 Y153.8
G1 X151.697 Y153.758 E25.91275
G1 X151.905 Y153.638 E25.91759
G1 X151.981 Y153.594 E25.91986
G1 X152.563 Y153.258 E25.93874
G1 X152.679 Y153.191 E25.94209
G1 X154.148 Y152.342 E25.98976
G1 X154.148 Y147.658 E26.12138
G1 X150.092 Y145.315 E26.25299
G1 X146.035 Y147.658 E26.38463
G1 X146.035 Y152.342 E26.51624
G1 X148.497 Y153.763 E26.59611
G1 X148.511 Y153.771 E26.59657
G1 X148.59 Y153.817 E26.59914
G1 X148.694 Y153.877 E26.60251
G1 X148.737 Y153.902 E26.60391
G1 X148.676 Y153.91
G1 X148.508 Y153.961 E26.60622
G1 X148.362 Y154.03 E26.60988
G1 X148.348 Y154.039 E26.61034
G1 X148.241 Y154.106 E26.61389
G1 X148.033 Y154.27 E26.62133
G1 X148.018 Y154.247
G1 X147.794 Y154.074 E26.62928
G1 X147.64 Y153.986 E26.63426
G1 X147.409 Y153.9 E26.64119
G1 X147.073 Y153.865 E26.65068
G1 X146.749 Y153.906 E26.65986
G1 X146.565 Y153.965 E26.66529
G1 X146.538 Y153.979 E26.66614
G1 X146.407 Y153.934 E26.67003
G1 X146.15 Y153.885 E26.67739
G1 X145.975 Y153.874 E26.68231
G1 X145.828 Y153.878 E26.68644
G1 X145.661 Y153.904 E26.69119
G1 X145.66 Y153.9 E26.69131
G1 X144.322 Y153.9 E26.72891
G1 X143.986 Y153.865 E26.7384
G1 X143.719 Y153.9 E26.74596
G1 X141.286 Y153.9 E26.81433
G1 X141.162 Y153.877 E26.81787
G1 X140.983 Y153.868 E26.82291
G1 X140.812 Y153.879 E26.82772
G1 X140.615 Y153.928 E26.83342
G1 X140.46 Y153.986 E26.83807
G1 X140.423 Y154.007 E26.83927
G1 X140.309 Y153.943 E26.84294
G1 X140.068 Y153.883 E26.84992
G1 X139.87 Y153.868 E26.8555
G1 X139.688 Y153.879 E26.86062
G1 X139.603 Y153.9 E26.86308
G1 X138.486 Y153.9 E26.89447
G1 X138.486 Y153.472 E26.9065
G1 X136.702 Y153.472 E26.95662
G1 X136.702 Y153.587 E26.95985
G1 X135.918 Y153.587 E26.98188
G1 X135.918 Y153.9 E26.99068
G1 X135.794 Y153.9 E26.99416
G1 X135.794 Y155.655 E27.04347
G1 X135.934 Y155.655 E27.04741
G1 X135.961 Y155.814 E27.05194
G1 X136.053 Y156.029 E27.05851
G1 X136.21 Y156.28 E27.06683
