;FLAVOR:Marlin
;TIME:22196
;Filament used: 15.493m
;Layer height: 0.16
;MINX:112.754
;MINY:101.7
;MINZ:0.16
;MAXX:187.246
;MAXY:198.3
;MAXZ:64.92
;Generated with Cura_SteamEngine 4.6.1
M140 S60
M105
M190 S60
M104 S220
M105
M109 S220
M82 ;absolute extrusion mode
M201 X500.00 Y500.00 Z100.00 E5000.00 ;Setup machine max acceleration
M203 X500.00 Y500.00 Z10.00 E50.00 ;Setup machine max feedrate
M204 P500.00 R1000.00 T500.00 ;Setup Print/Retract/Travel acceleration
M205 X8.00 Y8.00 Z0.40 E5.00 ;Setup Jerk
M220 S100 ;Reset Feedrate
M221 S100 ;Reset Flowrate

G28 ;Home

G92 E0 ;Reset Extruder
G1 Z2.0 F3000 ;Move Z Axis up
G1 X10.1 Y20 Z0.28 F5000.0 ;Move to start position
G1 X10.1 Y200.0 Z0.28 F1500.0 E15 ;Draw the first line
G1 X10.4 Y200.0 Z0.28 F5000.0 ;Move to side a little
G1 X10.4 Y20 Z0.28 F1500.0 E30 ;Draw the second line
G92 E0 ;Reset Extruder
G1 Z2.0 F3000 ;Move Z Axis up

G92 E0
G92 E0
G1 F2700 E-5
;LAYER_COUNT:329
;LAYER:0
M107
G0 F6000 X168.973 Y102.351 Z0.16
;TYPE:SKIRT
G1 F2700 E0
G1 F1200 X169.872 Y102.404 E0.023
G1 X170.764 Y102.536 E0.04604
G1 X171.64 Y102.747 E0.06905
G1 X172.494 Y103.035 E0.09207
G1 X173.32 Y103.397 E0.11511
G1 X174.11 Y103.831 E0.13814
G1 X174.858 Y104.334 E0.16116
G1 X175.559 Y104.9 E0.18417
G1 X176.207 Y105.527 E0.20721
G1 X176.797 Y106.208 E0.23022
G1 X177.324 Y106.94 E0.25326
G1 X177.784 Y107.715 E0.27628
G1 X178.174 Y108.527 E0.29929
G1 X178.49 Y109.371 E0.32231
G1 X178.73 Y110.24 E0.34534
G1 X178.892 Y111.127 E0.36837
G1 X178.983 Y112.215 E0.39626
G1 X178.996 Y112.82 E0.41172
G1 X178.997 Y186.763 E2.3005
G1 X178.987 Y187.6 E2.32189
G1 X178.936 Y188.5 E2.34491
G1 X178.805 Y189.392 E2.36794
G1 X178.595 Y190.268 E2.39095
G1 X178.309 Y191.123 E2.41398
G1 X177.948 Y191.949 E2.43701
G1 X177.515 Y192.74 E2.46004
G1 X177.014 Y193.489 E2.48306
G1 X176.449 Y194.191 E2.50608
G1 X175.823 Y194.84 E2.52911
G1 X175.142 Y195.43 E2.55213
G1 X174.412 Y195.959 E2.57516
G1 X173.638 Y196.42 E2.59817
G1 X172.826 Y196.811 E2.62119
G1 X171.982 Y197.129 E2.64423
G1 X171.114 Y197.37 E2.66724
G1 X170.228 Y197.534 E2.69025
G1 X169.745 Y197.59 E2.70267
G1 X169.425 Y197.619 E2.71088
G1 X168.508 Y197.66 E2.73433
G1 X131.739 Y197.659 E3.67355
G1 X131.041 Y197.65 E3.69138
G1 X130.141 Y197.599 E3.71441
G1 X129.249 Y197.467 E3.73744
G1 X128.373 Y197.258 E3.76044
G1 X127.518 Y196.971 E3.78348
G1 X126.692 Y196.61 E3.80651
G1 X125.902 Y196.177 E3.82952
G1 X125.153 Y195.676 E3.85254
G1 X124.451 Y195.11 E3.87557
G1 X123.802 Y194.485 E3.89859
G1 X123.211 Y193.804 E3.92162
G1 X122.683 Y193.074 E3.94463
G1 X122.222 Y192.299 E3.96767
G1 X121.831 Y191.487 E3.99069
G1 X121.513 Y190.644 E4.0137
G1 X121.272 Y189.775 E4.03674
G1 X121.109 Y188.889 E4.05975
G1 X121.013 Y187.665 E4.09111
G1 X121.004 Y187.025 E4.10746
G1 X121.003 Y113.174 E5.99389
G1 X121.013 Y112.372 E6.01438
G1 X121.065 Y111.472 E6.03741
G1 X121.197 Y110.58 E6.06044
G1 X121.407 Y109.704 E6.08345
G1 X121.694 Y108.849 E6.10649
G1 X122.056 Y108.024 E6.1295
G1 X122.489 Y107.233 E6.15254
G1 X122.991 Y106.484 E6.17557
G1 X123.557 Y105.783 E6.19858
G1 X124.183 Y105.135 E6.2216
G1 X124.864 Y104.544 E6.24463
G1 X125.595 Y104.017 E6.26765
G1 X126.369 Y103.556 E6.29066
G1 X127.182 Y103.165 E6.31371
G1 X128.026 Y102.848 E6.33674
G1 X128.894 Y102.608 E6.35974
G1 X129.781 Y102.445 E6.38278
G1 X130.886 Y102.353 E6.4111
G1 X131.492 Y102.34 E6.42658
G1 X168.275 Y102.341 E7.36616
G1 X168.973 Y102.351 E7.38399
G0 F6000 X168.977 Y102.031
G1 F1200 X169.891 Y102.084 E7.40738
G1 X170.797 Y102.217 E7.43077
G1 X171.688 Y102.428 E7.45416
G1 X172.556 Y102.716 E7.47752
G1 X173.397 Y103.079 E7.50092
G1 X174.202 Y103.514 E7.52429
G1 X174.967 Y104.017 E7.54768
G1 X175.685 Y104.585 E7.57106
G1 X176.35 Y105.214 E7.59444
G1 X176.958 Y105.898 E7.61782
G1 X177.504 Y106.633 E7.64121
G1 X177.984 Y107.413 E7.6646
G1 X178.394 Y108.231 E7.68797
G1 X178.731 Y109.082 E7.71135
G1 X178.992 Y109.96 E7.73475
G1 X179.176 Y110.857 E7.75814
G1 X179.303 Y112.206 E7.79275
G1 X179.316 Y112.82 E7.80844
G1 X179.317 Y186.763 E9.69722
G1 X179.307 Y187.604 E9.71871
G1 X179.256 Y188.518 E9.74209
G1 X179.124 Y189.424 E9.76548
G1 X178.915 Y190.315 E9.78886
G1 X178.628 Y191.185 E9.81226
G1 X178.267 Y192.026 E9.83563
G1 X177.833 Y192.832 E9.85902
G1 X177.331 Y193.597 E9.88239
G1 X176.764 Y194.316 E9.90578
G1 X176.136 Y194.982 E9.92916
G1 X175.453 Y195.591 E9.95254
G1 X174.719 Y196.139 E9.97594
G1 X173.94 Y196.62 E9.99932
G1 X173.122 Y197.031 E10.02271
G1 X172.272 Y197.369 E10.04607
G1 X171.395 Y197.632 E10.06946
G1 X170.498 Y197.817 E10.09285
G1 X169.774 Y197.908 E10.11149
G1 X169.454 Y197.937 E10.1197
G1 X168.508 Y197.98 E10.14389
G1 X131.735 Y197.979 E11.08321
G1 X131.037 Y197.97 E11.10104
G1 X130.123 Y197.918 E11.12443
G1 X129.217 Y197.787 E11.14781
G1 X128.326 Y197.577 E11.17119
G1 X127.457 Y197.29 E11.19457
G1 X126.616 Y196.929 E11.21795
G1 X125.809 Y196.495 E11.24135
G1 X125.044 Y195.993 E11.26473
G1 X124.326 Y195.426 E11.2881
G1 X123.659 Y194.798 E11.3115
G1 X123.05 Y194.114 E11.33489
G1 X122.503 Y193.38 E11.35827
G1 X122.022 Y192.601 E11.38166
G1 X121.611 Y191.783 E11.40504
G1 X121.273 Y190.933 E11.42841
G1 X121.011 Y190.056 E11.45179
G1 X120.826 Y189.159 E11.47519
G1 X120.72 Y188.25 E11.49856
G1 X120.694 Y187.671 E11.51337
G1 X120.684 Y187.025 E11.52987
G1 X120.683 Y113.174 E13.4163
G1 X120.693 Y112.367 E13.43692
G1 X120.745 Y111.453 E13.4603
G1 X120.877 Y110.547 E13.48369
G1 X121.088 Y109.656 E13.50708
G1 X121.375 Y108.787 E13.53046
G1 X121.737 Y107.947 E13.55382
G1 X122.171 Y107.141 E13.5772
G1 X122.674 Y106.376 E13.60059
G1 X123.242 Y105.658 E13.62398
G1 X123.87 Y104.992 E13.64736
G1 X124.554 Y104.383 E13.67075
G1 X125.288 Y103.837 E13.69412
G1 X126.067 Y103.356 E13.71751
G1 X126.886 Y102.946 E13.7409
G1 X127.737 Y102.608 E13.76429
G1 X128.614 Y102.346 E13.78767
G1 X129.51 Y102.162 E13.81104
G1 X130.42 Y102.056 E13.83444
G1 X130.877 Y102.033 E13.84613
G1 X131.492 Y102.02 E13.86184
G1 X168.279 Y102.021 E14.80152
G1 X168.977 Y102.031 E14.81935
G0 F6000 X168.982 Y101.711
G1 F1200 X169.909 Y101.764 E14.84307
G1 X170.829 Y101.897 E14.86681
G1 X171.734 Y102.109 E14.89056
G1 X172.618 Y102.397 E14.9143
G1 X173.473 Y102.76 E14.93803
G1 X174.294 Y103.196 E14.96178
G1 X175.074 Y103.7 E14.9855
G1 X175.809 Y104.27 E15.00926
G1 X176.491 Y104.901 E15.03299
G1 X177.117 Y105.588 E15.05673
G1 X177.681 Y106.326 E15.08046
G1 X178.18 Y107.11 E15.1042
G1 X178.61 Y107.934 E15.12794
G1 X178.967 Y108.792 E15.15168
G1 X179.249 Y109.677 E15.1754
G1 X179.454 Y110.584 E15.19916
G1 X179.58 Y111.505 E15.2229
G1 X179.622 Y112.197 E15.24061
G1 X179.636 Y112.82 E15.25653
G1 X179.637 Y186.763 E17.14531
G1 X179.627 Y187.608 E17.1669
G1 X179.575 Y188.536 E17.19064
G1 X179.444 Y189.456 E17.21438
G1 X179.234 Y190.361 E17.23811
G1 X178.947 Y191.245 E17.26185
G1 X178.585 Y192.101 E17.28559
G1 X178.151 Y192.923 E17.30933
G1 X177.648 Y193.704 E17.33306
G1 X177.079 Y194.439 E17.3568
G1 X176.45 Y195.123 E17.38054
G1 X175.764 Y195.75 E17.40428
G1 X175.026 Y196.315 E17.42802
G1 X174.243 Y196.815 E17.45175
G1 X173.42 Y197.246 E17.47548
G1 X172.562 Y197.605 E17.49924
G1 X171.677 Y197.888 E17.52298
G1 X170.771 Y198.095 E17.54671
G1 X169.803 Y198.227 E17.57167
G1 X169.483 Y198.256 E17.57988
G1 X168.508 Y198.3 E17.60481
G1 X131.731 Y198.299 E18.54423
G1 X131.033 Y198.29 E18.56206
G1 X130.105 Y198.238 E18.5858
G1 X129.185 Y198.107 E18.60954
G1 X128.28 Y197.897 E18.63327
G1 X127.396 Y197.609 E18.65702
G1 X126.54 Y197.247 E18.68076
G1 X125.718 Y196.813 E18.70451
G1 X124.937 Y196.31 E18.72824
G1 X124.202 Y195.741 E18.75198
G1 X123.519 Y195.111 E18.77571
G1 X122.892 Y194.425 E18.79945
G1 X122.327 Y193.688 E18.82317
G1 X121.827 Y192.904 E18.84693
G1 X121.396 Y192.081 E18.87066
G1 X121.037 Y191.224 E18.89439
G1 X120.754 Y190.338 E18.91815
G1 X120.548 Y189.432 E18.94188
G1 X120.42 Y188.512 E18.96561
G1 X120.374 Y187.676 E18.987
G1 X120.364 Y187.025 E19.00363
G1 X120.363 Y113.174 E20.89006
G1 X120.373 Y112.363 E20.91078
G1 X120.426 Y111.435 E20.93452
G1 X120.558 Y110.515 E20.95826
G1 X120.768 Y109.61 E20.982
G1 X121.056 Y108.726 E21.00574
G1 X121.419 Y107.871 E21.02947
G1 X121.854 Y107.05 E21.0532
G1 X122.357 Y106.269 E21.07693
G1 X122.926 Y105.534 E21.10068
G1 X123.557 Y104.851 E21.12443
G1 X124.243 Y104.225 E21.14815
G1 X124.981 Y103.66 E21.17189
G1 X125.765 Y103.16 E21.19564
G1 X126.588 Y102.73 E21.21936
G1 X127.446 Y102.372 E21.24311
G1 X128.331 Y102.089 E21.26685
G1 X129.237 Y101.884 E21.29057
G1 X130.158 Y101.757 E21.31432
G1 X130.868 Y101.713 E21.33249
G1 X131.492 Y101.7 E21.34844
G1 X168.284 Y101.701 E22.28824
G1 X168.982 Y101.711 E22.30607
G1 F2700 E17.30607
;MESH:HIVE_Deep_Drawer.stl
G0 F6000 X168.542 Y111.835
G0 X168.542 Y112.794
G0 X137.314 Y153.964
G0 X137.318 Y155.011
G0 X137.242 Y155.115
G0 X137.342 Y155.015
;TYPE:WALL-OUTER
G1 F2700 E22.30607
G1 F1200 X137.342 Y155.431 E22.3167
G1 X137.131 Y155.489 E22.32229
G1 X137.101 Y155.49 E22.32306
G1 X137.074 Y155.489 E22.32375
G1 X137.07 Y155.488 E22.32385
G1 X137.063 Y155.439 E22.32512
G1 X137.062 Y155.015 E22.33595
G1 X137.342 Y155.015 E22.3431
G0 F6000 X137.242 Y155.015
G0 X137.308 Y155.043
G0 X137.308 Y154.512
G0 X137.089 Y154.079
G0 X136.41 Y154.079
G0 X136.286 Y154.392
G0 X136.286 Y155.163
G0 X136.479 Y155.802
G0 X136.54 Y155.868
G0 X137.288 Y156.593
;TYPE:WALL-INNER
G1 F1200 X139.785 Y156.592 E22.40688
G1 X139.797 Y156.591 E22.40719
G1 X139.786 Y156.797 E22.41065
G1 X140.676 Y156.987 E22.4339
G1 X140.992 Y157.006 E22.44199
G1 X141.244 Y156.981 E22.44845
G1 X141.401 Y156.944 E22.45258
G1 X141.552 Y156.885 E22.45672
G1 X141.68 Y156.813 E22.46047
G1 X141.941 Y156.631 E22.4686
G1 X141.965 Y156.591 E22.46979
G1 X143.419 Y156.591 E22.50693
G1 X143.455 Y156.503 E22.50936
G1 X143.565 Y156.545 E22.51236
G1 X143.704 Y156.584 E22.51605
G1 X143.835 Y156.603 E22.51943
G1 X144.036 Y156.619 E22.52458
G1 X144.267 Y156.605 E22.53049
G1 X144.321 Y156.591 E22.53192
G1 X145.63 Y156.591 E22.56536
G1 X145.704 Y156.606 E22.56729
G1 X145.935 Y156.619 E22.5732
G1 X146.089 Y156.607 E22.57714
G1 X146.274 Y156.578 E22.58192
G1 X146.453 Y156.518 E22.58675
G1 X146.506 Y156.489 E22.58829
G1 X146.652 Y156.545 E22.59228
G1 X146.791 Y156.584 E22.59597
G1 X146.922 Y156.603 E22.59935
G1 X147.123 Y156.619 E22.6045
G1 X147.354 Y156.605 E22.61042
G1 X147.408 Y156.591 E22.61184
G1 X148.741 Y156.591 E22.64589
G1 X148.794 Y156.603 E22.64728
G1 X149.016 Y156.618 E22.65296
G1 X149.199 Y156.605 E22.65765
G1 X149.351 Y156.575 E22.66161
G1 X149.505 Y156.524 E22.66575
G1 X149.531 Y156.532 E22.66644
G1 X149.66 Y156.576 E22.66993
G1 X149.798 Y156.603 E22.67352
G1 X150.018 Y156.626 E22.67917
G1 X150.244 Y156.602 E22.68497
G1 X150.292 Y156.591 E22.68623
G1 X151.375 Y156.591 E22.71389
G1 X151.489 Y156.591 E22.71681
G1 X151.375 Y156.888 E22.72238
G1 X151.489 Y156.888 E22.72274
G1 X153.259 Y156.888 E22.76795
G1 X153.438 Y156.422 E22.7807
G1 X153.45 Y156.391 E22.78155
G1 X153.671 Y156.511 E22.78597
G1 X153.835 Y156.563 E22.79036
G1 X153.981 Y156.6 E22.79421
G1 X154.123 Y156.614 E22.79786
G1 X154.134 Y156.616 E22.79814
G1 X154.281 Y156.621 E22.8019
G1 X154.547 Y156.602 E22.80871
G1 X154.831 Y156.522 E22.81625
G1 X154.925 Y156.476 E22.81892
G1 X155.07 Y156.53 E22.82287
G1 X155.321 Y156.593 E22.82948
G1 X155.551 Y156.621 E22.8354
G1 X155.859 Y156.611 E22.84327
G1 X155.945 Y156.591 E22.84553
G1 X156.67 Y156.591 E22.86405
G1 X156.784 Y156.591 E22.86696
G1 X156.67 Y156.888 E22.87253
G1 X156.784 Y156.888 E22.87289
G1 X158.554 Y156.888 E22.9181
G1 X158.698 Y156.512 E22.92839
G1 X158.704 Y156.498 E22.92878
G1 X158.799 Y156.55 E22.93037
G1 X159.022 Y156.604 E22.93623
G1 X159.204 Y156.623 E22.94091
G1 X159.384 Y156.615 E22.94551
G1 X159.515 Y156.591 E22.94891
G1 X160.349 Y156.591 E22.97021
G1 X160.38 Y156.598 E22.97103
G1 X160.535 Y156.62 E22.97503
G1 X160.688 Y156.621 E22.97893
G1 X160.887 Y156.599 E22.98405
G1 X161.076 Y156.545 E22.98907
G1 X161.218 Y156.476 E22.9931
G1 X161.336 Y156.533 E22.99645
G1 X161.522 Y156.588 E23.0014
G1 X161.814 Y156.626 E23.00893
G1 X162.049 Y156.603 E23.01496
G1 X162.183 Y156.576 E23.01845
G1 X162.344 Y156.523 E23.02278
G1 X162.415 Y156.485 E23.02484
G1 X162.49 Y156.527 E23.02703
G1 X162.531 Y156.551 E23.02824
G1 X162.771 Y156.607 E23.03454
G1 X162.957 Y156.623 E23.03931
G1 X163.148 Y156.613 E23.04419
G1 X163.234 Y156.591 E23.04646
G1 X163.99 Y156.591 E23.06577
G1 X164.042 Y156.603 E23.06714
G1 X164.23 Y156.615 E23.07195
G1 X164.444 Y156.599 E23.07743
G1 X165.246 Y156.434 E23.09834
G1 X165.246 Y153.9 E23.16307
G1 X164.867 Y153.9 E23.17275
G1 X164.867 Y153.587 E23.18075
G1 X163.084 Y153.587 E23.22629
G1 X163.084 Y153.9 E23.23429
G1 X162.102 Y153.9 E23.25937
G1 X161.827 Y153.863 E23.26646
G1 X161.486 Y153.909 E23.27525
G1 X161.398 Y153.94 E23.27763
G1 X161.288 Y153.978 E23.28061
G1 X161.243 Y154.003 E23.28192
G1 X161.138 Y153.953 E23.28489
G1 X161.138 Y153.836 E23.28724
G1 X161.138 Y153.472 E23.29654
G1 X157.982 Y153.472 E23.37716
G1 X157.875 Y153.752 E23.38482
G1 X157.865 Y153.777 E23.3855
G1 X157.848 Y153.765 E23.38557
G1 X157.625 Y153.657 E23.39013
G1 X157.4 Y153.586 E23.39615
G1 X157.121 Y153.545 E23.40336
G1 X156.792 Y153.537 E23.41176
G1 X155.981 Y153.537 E23.43248
G1 X155.846 Y153.514 E23.43598
G1 X155.705 Y153.508 E23.43958
G1 X155.451 Y153.517 E23.44607
G1 X155.168 Y153.579 E23.45347
G1 X155.009 Y153.634 E23.45777
G1 X154.945 Y153.662 E23.45956
G1 X154.841 Y153.613 E23.46249
G1 X154.697 Y153.566 E23.46636
G1 X154.555 Y153.531 E23.4701
G1 X154.551 Y153.53 E23.4702
G1 X154.555 Y153.517
G1 X154.559 Y153.507
G1 X154.573 Y153.472
G1 X154.551 Y153.472
G1 X152.821 Y153.472 E23.51439
G1 X152.687 Y153.472 E23.51782
G1 X152.504 Y153.948 E23.53084
G1 X152.497 Y153.943 E23.53106
G1 X152.247 Y153.884 E23.53762
G1 X152.126 Y153.874 E23.54072
G1 X152.038 Y153.867 E23.54298
G1 X151.775 Y153.893 E23.54973
G1 X151.695 Y153.92 E23.55189
G1 X151.639 Y153.898 E23.55342
G1 X151.485 Y153.88 E23.55738
G1 X151.593 Y153.819 E23.55765
G1 X151.625 Y153.8
G1 X151.697 Y153.758 E23.55829
G1 X151.905 Y153.638 E23.5627
G1 X151.981 Y153.594 E23.56475
G1 X152.563 Y153.258 E23.58192
G1 X152.679 Y153.191 E23.58497
G1 X154.148 Y152.342 E23.62831
G1 X154.148 Y147.658 E23.74795
G1 X150.092 Y145.315 E23.8676
G1 X146.035 Y147.658 E23.98728
G1 X146.035 Y152.342 E24.10692
G1 X148.497 Y153.763 E24.17954
G1 X148.511 Y153.771 E24.17995
G1 X148.59 Y153.817 E24.18228
G1 X148.694 Y153.877 E24.18535
G1 X148.737 Y153.902 E24.18662
G1 X148.676 Y153.91
G1 X148.508 Y153.961 E24.18872
G1 X148.362 Y154.03 E24.19205
G1 X148.348 Y154.039 E24.19247
G1 X148.241 Y154.106 E24.19569
G1 X148.033 Y154.27 E24.20246
G1 X148.018 Y154.247
G1 X147.794 Y154.074 E24.20969
G1 X147.64 Y153.986 E24.21422
G1 X147.409 Y153.9 E24.22051
G1 X147.073 Y153.865 E24.22914
G1 X146.749 Y153.906 E24.23748
G1 X146.565 Y153.965 E24.24242
G1 X146.538 Y153.979 E24.2432
G1 X146.407 Y153.934 E24.24674
G1 X146.15 Y153.885 E24.25342
G1 X145.975 Y153.874 E24.2579
G1 X145.828 Y153.878 E24.26165
G1 X145.661 Y153.904 E24.26597
G1 X145.66 Y153.9 E24.26608
G1 X144.322 Y153.9 E24.30025
G1 X143.986 Y153.865 E24.30888
G1 X143.719 Y153.9 E24.31576
G1 X141.286 Y153.9 E24.37791
G1 X141.162 Y153.877 E24.38113
G1 X140.983 Y153.868 E24.38571
G1 X140.812 Y153.879 E24.39009
G1 X140.615 Y153.928 E24.39527
G1 X140.46 Y153.986 E24.3995
G1 X140.423 Y154.007 E24.40059
G1 X140.309 Y153.943 E24.40393
G1 X140.068 Y153.883 E24.41027
G1 X139.87 Y153.868 E24.41534
G1 X139.688 Y153.879 E24.42
G1 X139.603 Y153.9 E24.42224
G1 X138.486 Y153.9 E24.45077
G1 X138.486 Y153.472 E24.4617
G1 X136.702 Y153.472 E24.50727
G1 X136.702 Y153.587 E24.51021
G1 X135.918 Y153.587 E24.53023
G1 X135.918 Y153.9 E24.53823
G1 X135.794 Y153.9 E24.5414
G1 X135.794 Y155.655 E24.58623
G1 X135.934 Y155.655 E24.5898
G1 X135.961 Y155.814 E24.59392
G1 X136.053 Y156.029 E24.5999
G1 X136.21 Y156.28 E24.60746
G1 X136.446 Y156.451 E24.6149
G1 X136.656 Y156.554 E24.62088
G1 X136.874 Y156.603 E24.62659
G1 X137.074 Y156.616 E24.6317
G1 X137.288 Y156.593 E24.6372
G0 F6000 X137.272 Y156.273
G1 F1200 X139.796 Y156.273 E24.70168
G1 X140.119 Y156.272 E24.70993
