;FLAVOR:Marlin
;TIME:18373
;Filament used: 12.7231m
;Layer height: 0.16
;MINX:112.754
;MINY:101.7
;MINZ:0.16
;MAXX:187.246
;MAXY:198.3
;MAXZ:64.92
;Generated with Cura_SteamEngine 4.6.1
M140 S60
M105
M190 S60
M104 S220
M105
M109 S220
M82 ;absolute extrusion mode
M201 X500.00 Y500.00 Z100.00 E5000.00 ;Setup machine max acceleration
M203 X500.00 Y500.00 Z10.00 E50.00 ;Setup machine max feedrate
M204 P500.00 R1000.00 T500.00 ;Setup Print/Retract/Travel acceleration
M205 X8.00 Y8.00 Z0.40 E5.00 ;Setup Jerk
M220 S100 ;Reset Feedrate
M221 S100 ;Reset Flowrate

G28 ;Home

G92 E0 ;Reset Extruder
G1 Z2.0 F3000 ;Move Z Axis up
G1 X10.1 Y20 Z0.28 F5000.0 ;Move to start position
G1 X10.1 Y200.0 Z0.28 F1500.0 E15 ;Draw the first line
G1 X10.4 Y200.0 Z0.28 F5000.0 ;Move to side a little
G1 X10.4 Y20 Z0.28 F1500.0 E30 ;Draw the second line
G92 E0 ;Reset Extruder
G1 Z2.0 F3000 ;Move Z Axis up

G92 E0
G92 E0
G1 F2700 E-5
;LAYER_COUNT:329
;LAYER:0
M107
G0 F6000 X168.973 Y102.351 Z0.16
;TYPE:SKIRT
G1 F2700 E0
G1 F1200 X169.872 Y102.404 E0.02109
G1 X170.764 Y102.536 E0.0422
G1 X171.64 Y102.747 E0.0633
G1 X172.494 Y103.035 E0.0844
G1 X173.32 Y103.397 E0.10552
G1 X174.11 Y103.831 E0.12662
G1 X174.858 Y104.334 E0.14773
G1 X175.559 Y104.9 E0.16883
G1 X176.207 Y105.527 E0.18994
G1 X176.797 Y106.208 E0.21104
G1 X177.324 Y106.94 E0.23216
G1 X177.784 Y107.715 E0.25326
G1 X178.174 Y108.527 E0.27435
G1 X178.49 Y109.371 E0.29545
G1 X178.73 Y110.24 E0.31656
G1 X178.892 Y111.127 E0.33768
G1 X178.983 Y112.224 E0.36345
G1 X178.996 Y112.83 E0.37764
G1 X178.997 Y186.826 E2.11027
G1 X178.996 Y186.983 E2.11395
G1 X178.986 Y187.629 E2.12907
G1 X178.932 Y188.529 E2.15019
G1 X178.798 Y189.42 E2.17128
G1 X178.587 Y190.296 E2.19238
G1 X178.298 Y191.15 E2.21349
G1 X177.935 Y191.975 E2.2346
G1 X177.5 Y192.765 E2.25571
G1 X176.996 Y193.512 E2.27681
G1 X176.429 Y194.213 E2.29793
G1 X175.802 Y194.86 E2.31902
G1 X175.119 Y195.449 E2.34014
G1 X174.388 Y195.975 E2.36123
G1 X173.612 Y196.435 E2.38235
G1 X172.799 Y196.823 E2.40344
G1 X171.955 Y197.139 E2.42454
G1 X171.086 Y197.378 E2.44565
G1 X170.199 Y197.539 E2.46676
G1 X169.297 Y197.621 E2.48796
G1 X168.566 Y197.65 E2.50509
G1 X167.804 Y197.66 E2.52294
G1 X131.724 Y197.659 E3.36776
G1 X131.026 Y197.649 E3.3841
G1 X130.127 Y197.596 E3.40519
G1 X129.235 Y197.464 E3.4263
G1 X128.359 Y197.253 E3.4474
G1 X127.505 Y196.965 E3.4685
G1 X126.679 Y196.603 E3.48962
G1 X125.889 Y196.169 E3.51073
G1 X125.141 Y195.666 E3.53183
G1 X124.44 Y195.1 E3.55293
G1 X123.792 Y194.473 E3.57404
G1 X123.202 Y193.792 E3.59514
G1 X122.675 Y193.06 E3.61626
G1 X122.215 Y192.285 E3.63736
G1 X121.825 Y191.473 E3.65845
G1 X121.509 Y190.629 E3.67956
G1 X121.269 Y189.76 E3.70067
G1 X121.107 Y188.873 E3.72178
G1 X121.013 Y187.663 E3.7502
G1 X121.004 Y187.02 E3.76525
G1 X121.003 Y113.21 E5.49352
G1 X121.004 Y113.062 E5.49699
G1 X121.014 Y112.375 E5.51308
G1 X121.067 Y111.475 E5.53419
G1 X121.2 Y110.584 E5.55528
G1 X121.411 Y109.708 E5.57638
G1 X121.699 Y108.853 E5.59751
G1 X122.061 Y108.028 E5.6186
G1 X122.496 Y107.238 E5.63972
G1 X122.998 Y106.49 E5.66081
G1 X123.565 Y105.789 E5.68192
G1 X124.192 Y105.142 E5.70302
G1 X124.873 Y104.552 E5.72412
G1 X125.604 Y104.025 E5.74522
G1 X126.38 Y103.565 E5.76634
G1 X127.192 Y103.175 E5.78743
G1 X128.036 Y102.859 E5.80853
G1 X128.905 Y102.619 E5.82964
G1 X129.792 Y102.457 E5.85076
G1 X130.964 Y102.365 E5.87828
G1 X132.293 Y102.34 E5.90941
G1 X168.275 Y102.341 E6.75193
G1 X168.973 Y102.351 E6.76828
G0 F6000 X168.977 Y102.031
G1 F1200 X169.891 Y102.084 E6.78971
G1 X170.797 Y102.217 E6.81116
G1 X171.688 Y102.428 E6.8326
G1 X172.556 Y102.716 E6.85401
G1 X173.397 Y103.079 E6.87546
G1 X174.202 Y103.514 E6.89688
G1 X174.967 Y104.017 E6.91832
G1 X175.685 Y104.585 E6.93976
G1 X176.35 Y105.214 E6.96119
G1 X176.958 Y105.898 E6.98262
G1 X177.504 Y106.633 E7.00406
G1 X177.984 Y107.413 E7.0255
G1 X178.394 Y108.231 E7.04693
G1 X178.731 Y109.082 E7.06836
G1 X178.992 Y109.96 E7.08981
G1 X179.176 Y110.857 E7.11125
G1 X179.303 Y112.215 E7.14318
G1 X179.316 Y112.83 E7.15759
G1 X179.317 Y186.826 E8.89021
G1 X179.316 Y186.988 E8.89401
G1 X179.306 Y187.634 E8.90914
G1 X179.252 Y188.548 E8.93057
G1 X179.118 Y189.454 E8.95202
G1 X178.906 Y190.344 E8.97344
G1 X178.617 Y191.213 E8.99488
G1 X178.253 Y192.053 E9.01632
G1 X177.817 Y192.858 E9.03776
G1 X177.313 Y193.622 E9.05919
G1 X176.744 Y194.339 E9.08062
G1 X176.114 Y195.004 E9.10207
G1 X175.429 Y195.611 E9.1235
G1 X174.694 Y196.156 E9.14493
G1 X173.914 Y196.635 E9.16636
G1 X173.095 Y197.044 E9.18779
G1 X172.243 Y197.38 E9.20924
G1 X171.366 Y197.64 E9.23066
G1 X170.469 Y197.823 E9.25209
G1 X169.312 Y197.941 E9.27933
G1 X168.902 Y197.96 E9.28894
G1 X168.571 Y197.97 E9.29669
G1 X167.804 Y197.98 E9.31465
G1 X131.72 Y197.979 E10.15956
G1 X131.022 Y197.969 E10.17591
G1 X130.108 Y197.916 E10.19735
G1 X129.202 Y197.783 E10.21879
G1 X128.311 Y197.572 E10.24023
G1 X127.443 Y197.284 E10.26164
G1 X126.602 Y196.921 E10.28309
G1 X125.797 Y196.486 E10.30451
G1 X125.032 Y195.983 E10.32595
G1 X124.314 Y195.415 E10.34739
G1 X123.649 Y194.786 E10.36882
G1 X123.041 Y194.102 E10.39025
G1 X122.495 Y193.367 E10.41169
G1 X122.015 Y192.587 E10.43313
G1 X121.605 Y191.769 E10.45456
G1 X121.268 Y190.918 E10.47599
G1 X121.007 Y190.04 E10.49744
G1 X120.823 Y189.143 E10.51888
G1 X120.718 Y188.234 E10.54031
G1 X120.694 Y187.668 E10.55357
G1 X120.684 Y187.02 E10.56874
G1 X120.683 Y113.21 E12.29702
G1 X120.684 Y113.057 E12.3006
G1 X120.694 Y112.37 E12.31669
G1 X120.747 Y111.457 E12.3381
G1 X120.88 Y110.551 E12.35954
G1 X121.092 Y109.66 E12.38099
G1 X121.38 Y108.791 E12.40242
G1 X121.743 Y107.951 E12.42385
G1 X122.178 Y107.145 E12.4453
G1 X122.681 Y106.381 E12.46671
G1 X123.25 Y105.663 E12.48817
G1 X123.879 Y104.998 E12.5096
G1 X124.563 Y104.39 E12.53103
G1 X125.298 Y103.845 E12.55245
G1 X126.078 Y103.365 E12.5739
G1 X126.896 Y102.955 E12.59532
G1 X127.748 Y102.619 E12.61677
G1 X128.625 Y102.357 E12.6382
G1 X129.522 Y102.174 E12.65963
G1 X130.431 Y102.069 E12.68106
G1 X130.958 Y102.045 E12.69341
G1 X132.293 Y102.02 E12.72468
G1 X168.279 Y102.021 E13.56729
G1 X168.977 Y102.031 E13.58364
G0 F6000 X168.982 Y101.711
G1 F1200 X169.909 Y101.764 E13.60538
G1 X170.829 Y101.897 E13.62715
G1 X171.734 Y102.109 E13.64891
G1 X172.618 Y102.397 E13.67068
G1 X173.473 Y102.76 E13.69243
G1 X174.294 Y103.196 E13.7142
G1 X175.074 Y103.7 E13.73594
G1 X175.809 Y104.27 E13.75772
G1 X176.491 Y104.901 E13.77948
G1 X177.117 Y105.588 E13.80124
G1 X177.681 Y106.326 E13.82299
G1 X178.18 Y107.11 E13.84475
G1 X178.61 Y107.934 E13.86651
G1 X178.967 Y108.792 E13.88827
G1 X179.249 Y109.677 E13.91002
G1 X179.454 Y110.584 E13.93179
G1 X179.58 Y111.505 E13.95356
G1 X179.623 Y112.206 E13.97001
G1 X179.636 Y112.83 E13.98462
G1 X179.637 Y186.826 E15.71725
G1 X179.636 Y186.993 E15.72116
G1 X179.626 Y187.639 E15.73628
G1 X179.571 Y188.567 E15.75805
G1 X179.437 Y189.486 E15.7798
G1 X179.225 Y190.391 E15.80156
G1 X178.936 Y191.274 E15.82332
G1 X178.571 Y192.129 E15.84508
G1 X178.135 Y192.95 E15.86685
G1 X177.629 Y193.729 E15.8886
G1 X177.059 Y194.463 E15.91036
G1 X176.427 Y195.145 E15.93213
G1 X175.74 Y195.77 E15.95388
G1 X175.001 Y196.333 E15.97563
G1 X174.216 Y196.831 E15.9974
G1 X173.392 Y197.26 E16.01915
G1 X172.533 Y197.616 E16.04093
G1 X171.648 Y197.897 E16.06267
G1 X170.741 Y198.101 E16.08444
G1 X169.82 Y198.226 E16.1062
G1 X169.327 Y198.26 E16.11777
G1 X168.576 Y198.29 E16.13537
G1 X167.804 Y198.3 E16.15345
G1 X131.715 Y198.299 E16.99848
G1 X131.017 Y198.289 E17.01482
G1 X130.09 Y198.236 E17.03656
G1 X129.17 Y198.103 E17.05833
G1 X128.265 Y197.891 E17.08009
G1 X127.381 Y197.603 E17.10186
G1 X126.526 Y197.24 E17.12361
G1 X125.705 Y196.804 E17.14538
G1 X124.925 Y196.3 E17.16712
G1 X124.19 Y195.73 E17.1889
G1 X123.508 Y195.099 E17.21066
G1 X122.882 Y194.412 E17.23242
G1 X122.318 Y193.674 E17.25417
G1 X121.819 Y192.89 E17.27593
G1 X121.389 Y192.066 E17.29769
G1 X121.032 Y191.208 E17.31945
G1 X120.75 Y190.323 E17.3412
G1 X120.545 Y189.416 E17.36298
G1 X120.419 Y188.495 E17.38474
G1 X120.374 Y187.674 E17.40399
G1 X120.364 Y187.02 E17.41931
G1 X120.363 Y113.21 E19.14758
G1 X120.364 Y113.053 E19.15126
G1 X120.374 Y112.366 E19.16735
G1 X120.428 Y111.438 E19.18911
G1 X120.561 Y110.518 E19.21088
G1 X120.772 Y109.613 E19.23264
G1 X121.061 Y108.73 E19.25439
G1 X121.424 Y107.875 E19.27614
G1 X121.86 Y107.054 E19.29791
G1 X122.365 Y106.274 E19.31966
G1 X122.935 Y105.54 E19.34143
G1 X123.565 Y104.857 E19.36318
G1 X124.253 Y104.232 E19.38495
G1 X124.991 Y103.667 E19.40671
G1 X125.775 Y103.169 E19.42846
G1 X126.599 Y102.739 E19.45022
G1 X127.457 Y102.382 E19.47198
G1 X128.343 Y102.1 E19.49375
G1 X129.249 Y101.896 E19.5155
G1 X130.17 Y101.77 E19.53726
G1 X130.951 Y101.725 E19.55558
G1 X132.293 Y101.7 E19.58701
G1 X168.284 Y101.701 E20.42974
G1 X168.982 Y101.711 E20.44609
G1 F2700 E15.44609
;MESH:HIVE_Drawer.stl
G0 F6000 X169.489 Y111.847
G0 X169.501 Y153.275
G0 X161.334 Y153.276
G0 X159.866 Y153.984
G0 X159.874 Y154.872
G0 X159.821 Y155.806
G0 X159.576 Y156.039
G0 X158.704 Y156.498
;TYPE:WALL-INNER
G1 F2700 E20.44609
G1 F1200 X158.799 Y156.55 E20.44862
G1 X159.022 Y156.604 E20.454
G1 X159.204 Y156.623 E20.45828
G1 X159.384 Y156.615 E20.4625
G1 X159.515 Y156.591 E20.46562
G1 X160.349 Y156.591 E20.48515
G1 X160.38 Y156.598 E20.48589
G1 X160.535 Y156.62 E20.48956
G1 X160.688 Y156.621 E20.49314
G1 X160.887 Y156.599 E20.49783
G1 X161.076 Y156.545 E20.50243
G1 X161.218 Y156.476 E20.50613
G1 X161.336 Y156.533 E20.5092
G1 X161.522 Y156.588 E20.51374
G1 X161.814 Y156.626 E20.52063
G1 X162.049 Y156.603 E20.52616
G1 X162.183 Y156.576 E20.52936
G1 X162.344 Y156.523 E20.53333
G1 X162.415 Y156.485 E20.53522
G1 X162.49 Y156.527 E20.53723
G1 X162.531 Y156.551 E20.53834
G1 X162.771 Y156.607 E20.54411
G1 X162.957 Y156.623 E20.54848
G1 X163.148 Y156.613 E20.55296
G1 X163.234 Y156.591 E20.55504
G1 X163.99 Y156.591 E20.57274
G1 X164.042 Y156.603 E20.57399
G1 X164.23 Y156.615 E20.5784
G1 X164.444 Y156.599 E20.58343
G1 X165.246 Y156.434 E20.6026
G1 X165.246 Y153.9 E20.66193
G1 X164.867 Y153.9 E20.67081
G1 X164.867 Y153.587 E20.67814
G1 X163.084 Y153.587 E20.71989
G1 X163.084 Y153.9 E20.72721
G1 X162.102 Y153.9 E20.75021
G1 X161.827 Y153.863 E20.75671
G1 X161.486 Y153.909 E20.76476
G1 X161.398 Y153.94 E20.76695
G1 X161.288 Y153.978 E20.76967
G1 X161.243 Y154.003 E20.77088
G1 X161.138 Y153.953 E20.7736
G1 X161.138 Y153.836 E20.77576
G1 X161.138 Y153.472 E20.78428
G1 X157.982 Y153.472 E20.85818
G1 X157.875 Y153.752 E20.8652
G1 X157.865 Y153.777 E20.86583
G1 X157.848 Y153.765 E20.86589
G1 X157.625 Y153.657 E20.87007
G1 X157.4 Y153.586 E20.87559
G1 X157.121 Y153.545 E20.88219
G1 X156.792 Y153.537 E20.8899
G1 X155.981 Y153.537 E20.90889
G1 X155.846 Y153.514 E20.9121
G1 X155.705 Y153.508 E20.9154
G1 X155.451 Y153.517 E20.92135
G1 X155.168 Y153.579 E20.92813
G1 X155.009 Y153.634 E20.93207
G1 X154.945 Y153.662 E20.93371
G1 X154.841 Y153.613 E20.9364
G1 X154.697 Y153.566 E20.93995
G1 X154.555 Y153.531 E20.94337
G1 X154.551 Y153.53 E20.94347
G1 X154.555 Y153.517
G1 X154.559 Y153.507
G1 X154.573 Y153.472
G1 X154.551 Y153.472
G1 X152.821 Y153.472 E20.98398
G1 X152.687 Y153.472 E20.98712
G1 X152.504 Y153.948 E20.99906
G1 X152.497 Y153.943 E20.99926
G1 X152.247 Y153.884 E21.00527
G1 X152.126 Y153.874 E21.00812
G1 X152.038 Y153.867 E21.01018
G1 X151.775 Y153.893 E21.01637
G1 X151.695 Y153.92 E21.01835
G1 X151.639 Y153.898 E21.01976
G1 X151.485 Y153.88 E21.02339
G1 X151.593 Y153.819 E21.02363
G1 X151.625 Y153.8
G1 X151.697 Y153.758 E21.02422
G1 X151.905 Y153.638 E21.02826
G1 X151.981 Y153.594 E21.03014
G1 X152.563 Y153.258 E21.04588
G1 X152.679 Y153.191 E21.04867
G1 X154.148 Y152.342 E21.0884
G1 X154.148 Y147.658 E21.19808
G1 X150.092 Y145.315 E21.30775
G1 X146.035 Y147.658 E21.41745
G1 X146.035 Y152.342 E21.52713
G1 X148.497 Y153.763 E21.59369
G1 X148.511 Y153.771 E21.59407
G1 X148.59 Y153.817 E21.59621
G1 X148.694 Y153.877 E21.59902
G1 X148.737 Y153.902 E21.60019
G1 X148.676 Y153.91
G1 X148.508 Y153.961 E21.60211
G1 X148.362 Y154.03 E21.60517
G1 X148.348 Y154.039 E21.60554
G1 X148.241 Y154.106 E21.6085
G1 X148.033 Y154.27 E21.6147
G1 X148.018 Y154.247
G1 X147.794 Y154.074 E21.62133
G1 X147.64 Y153.986 E21.62548
G1 X147.409 Y153.9 E21.63125
G1 X147.073 Y153.865 E21.63916
G1 X146.749 Y153.906 E21.64681
G1 X146.565 Y153.965 E21.65134
G1 X146.538 Y153.979 E21.65205
G1 X146.407 Y153.934 E21.65529
G1 X146.15 Y153.885 E21.66142
G1 X145.975 Y153.874 E21.66552
G1 X145.828 Y153.878 E21.66897
G1 X145.661 Y153.904 E21.67292
G1 X145.66 Y153.9 E21.67302
G1 X144.322 Y153.9 E21.70435
G1 X143.986 Y153.865 E21.71226
G1 X143.719 Y153.9 E21.71857
G1 X141.286 Y153.9 E21.77553
G1 X141.162 Y153.877 E21.77849
G1 X140.983 Y153.868 E21.78268
G1 X140.812 Y153.879 E21.7867
G1 X140.615 Y153.928 E21.79145
G1 X140.46 Y153.986 E21.79533
G1 X140.423 Y154.007 E21.79632
G1 X140.309 Y153.943 E21.79938
G1 X140.068 Y153.883 E21.8052
G1 X139.87 Y153.868 E21.80985
G1 X139.688 Y153.879 E21.81412
G1 X139.603 Y153.9 E21.81617
G1 X138.486 Y153.9 E21.84232
G1 X138.486 Y153.472 E21.85234
G1 X136.702 Y153.472 E21.89412
G1 X136.702 Y153.587 E21.89681
G1 X135.918 Y153.587 E21.91517
G1 X135.918 Y153.9 E21.92249
G1 X135.794 Y153.9 E21.9254
G1 X135.794 Y155.655 E21.96649
G1 X135.934 Y155.655 E21.96977
G1 X135.961 Y155.814 E21.97355
G1 X136.053 Y156.029 E21.97902
G1 X136.21 Y156.28 E21.98595
G1 X136.446 Y156.451 E21.99278
G1 X136.656 Y156.554 E21.99826
G1 X136.874 Y156.603 E22.00349
G1 X137.074 Y156.616 E22.00818
G1 X137.288 Y156.593 E22.01322
G1 X139.785 Y156.592 E22.07169
G1 X139.797 Y156.591 E22.07197
G1 X139.786 Y156.797 E22.07514
G1 X140.676 Y156.987 E22.09645
G1 X140.992 Y157.006 E22.10387
G1 X141.244 Y156.981 E22.1098
G1 X141.401 Y156.944 E22.11357
G1 X141.552 Y156.885 E22.11737
G1 X141.68 Y156.813 E22.12081
G1 X141.941 Y156.631 E22.12826
G1 X141.965 Y156.591 E22.12935
G1 X143.419 Y156.591 E22.1634
G1 X143.455 Y156.503 E22.16562
G1 X143.565 Y156.545 E22.16838
G1 X143.704 Y156.584 E22.17176
G1 X143.835 Y156.603 E22.17486
G1 X144.036 Y156.619 E22.17958
G1 X144.267 Y156.605 E22.185
G1 X144.321 Y156.591 E22.18631
G1 X145.63 Y156.591 E22.21696
G1 X145.704 Y156.606 E22.21872
G1 X145.935 Y156.619 E22.22414
G1 X146.089 Y156.607 E22.22776
G1 X146.274 Y156.578 E22.23214
G1 X146.453 Y156.518 E22.23656
G1 X146.506 Y156.489 E22.23798
G1 X146.652 Y156.545 E22.24164
G1 X146.791 Y156.584 E22.24502
G1 X146.922 Y156.603 E22.24812
G1 X147.123 Y156.619 E22.25284
G1 X147.354 Y156.605 E22.25826
G1 X147.408 Y156.591 E22.25957
G1 X148.741 Y156.591 E22.29078
G1 X148.794 Y156.603 E22.29205
G1 X149.016 Y156.618 E22.29726
G1 X149.199 Y156.605 E22.30156
G1 X149.351 Y156.575 E22.30518
G1 X149.505 Y156.524 E22.30898
G1 X149.531 Y156.532 E22.30962
G1 X149.66 Y156.576 E22.31281
G1 X149.798 Y156.603 E22.3161
G1 X150.018 Y156.626 E22.32128
G1 X150.244 Y156.602 E22.3266
G1 X150.292 Y156.591 E22.32776
G1 X151.375 Y156.591 E22.35312
G1 X151.489 Y156.591 E22.35579
G1 X151.375 Y156.888 E22.36089
G1 X151.489 Y156.888 E22.36122
G1 X153.259 Y156.888 E22.40267
G1 X153.438 Y156.422 E22.41436
G1 X153.45 Y156.391 E22.41513
G1 X153.671 Y156.511 E22.41918
G1 X153.835 Y156.563 E22.42321
G1 X153.981 Y156.6 E22.42674
G1 X154.123 Y156.614 E22.43008
G1 X154.134 Y156.616 E22.43034
G1 X154.281 Y156.621 E22.43379
G1 X154.547 Y156.602 E22.44003
G1 X154.831 Y156.522 E22.44694
G1 X154.925 Y156.476 E22.44939
G1 X155.07 Y156.53 E22.45301
G1 X155.321 Y156.593 E22.45907
G1 X155.551 Y156.621 E22.4645
G1 X155.859 Y156.611 E22.47171
G1 X155.945 Y156.591 E22.47378
G1 X156.67 Y156.591 E22.49076
G1 X156.784 Y156.591 E22.49343
G1 X156.67 Y156.888 E22.49853
G1 X156.784 Y156.888 E22.49886
G1 X158.554 Y156.888 E22.54031
G1 X158.698 Y156.512 E22.54974
G1 X158.704 Y156.498
G0 F6000 X158.916 Y156.249
G1 F1200 X159.076 Y156.288 E22.55359
G1 X159.213 Y156.302 E22.55682
G1 X159.348 Y156.296 E22.55998
G1 X159.485 Y156.271 E22.56324
G1 X160.386 Y156.271 E22.58434
G1 X160.438 Y156.283 E22.58559
G1 X160.559 Y156.3 E22.58845
G1 X160.672 Y156.301 E22.59109
G1 X160.825 Y156.284 E22.5947
G1 X160.961 Y156.245 E22.59801
