;FLAVOR:Marlin
;TIME:1923
;Filament used: 2.22283m
;Layer height: 0.28
;MINX:64.723
;MINY:132
;MINZ:0.28
;MAXX:215.276
;MAXY:189.31
;MAXZ:6.44
;Generated with Cura_SteamEngine 4.6.1
M140 S50
M105
M190 S50
M104 S200
M105
M109 S200
M82 ;absolute extrusion mode
M201 X500.00 Y500.00 Z100.00 E5000.00 ;Setup machine max acceleration
M203 X500.00 Y500.00 Z10.00 E50.00 ;Setup machine max feedrate
M204 P500.00 R1000.00 T500.00 ;Setup Print/Retract/Travel acceleration
M205 X8.00 Y8.00 Z0.40 E5.00 ;Setup Jerk
M220 S100 ;Reset Feedrate
M221 S100 ;Reset Flowrate

G28 ;Home

G92 E0 ;Reset Extruder
G1 Z2.0 F3000 ;Move Z Axis up
G1 X10.1 Y20 Z0.28 F5000.0 ;Move to start position
G1 X10.1 Y200.0 Z0.28 F1500.0 E15 ;Draw the first line
G1 X10.4 Y200.0 Z0.28 F5000.0 ;Move to side a little
G1 X10.4 Y20 Z0.28 F1500.0 E30 ;Draw the second line
G92 E0 ;Reset Extruder
G1 Z2.0 F3000 ;Move Z Axis up

G92 E0
G92 E0
G1 F2700 E-5
;LAYER_COUNT:23
;LAYER:0
M107
G0 F6000 X157.513 Y132.822 Z0.28
;TYPE:SKIRT
G1 F2700 E0
G1 F1200 X158.198 Y132.857 E0.04599
G1 X158.937 Y132.92 E0.09572
G1 X159.89 Y133.047 E0.16019
G1 X160.403 Y133.14 E0.19515
G1 X161.172 Y133.31 E0.24796
G1 X161.679 Y133.443 E0.2831
G1 X162.386 Y133.656 E0.33261
G1 X162.884 Y133.826 E0.3679
G1 X163.616 Y134.108 E0.42049
G1 X164.107 Y134.319 E0.45633
G1 X164.804 Y134.65 E0.50807
G1 X165.269 Y134.893 E0.54325
G1 X165.93 Y135.27 E0.59427
G1 X166.366 Y135.541 E0.62869
G1 X166.872 Y135.877 E0.66942
G1 X167.06 Y136.01 E0.68486
G1 X167.355 Y136.227 E0.70942
G1 X167.667 Y136.465 E0.73573
G1 X168.147 Y136.855 E0.7772
G1 X170.511 Y138.896 E0.98661
G1 X172.474 Y140.495 E1.15638
G1 X174.504 Y142.054 E1.32801
G1 X176.565 Y143.548 E1.49869
G1 X178.657 Y144.975 E1.66849
G1 X180.794 Y146.346 E1.83873
G1 X182.954 Y147.647 E2.00781
G1 X185.189 Y148.907 E2.17985
G1 X187.416 Y150.083 E2.34871
G1 X189.726 Y151.22 E2.52135
G1 X191.99 Y152.255 E2.68827
G1 X194.378 Y153.266 E2.86215
G1 X196.704 Y154.175 E3.0296
G1 X199.075 Y155.025 E3.19849
G1 X202.377 Y156.085 E3.43102
G1 X203.601 Y156.497 E3.51762
G1 X204.443 Y156.823 E3.57816
G1 X204.856 Y157.015 E3.6087
G1 X205.696 Y157.429 E3.6715
G1 X206.488 Y157.864 E3.73208
G1 X207.024 Y158.213 E3.77497
G1 X207.815 Y158.765 E3.83965
G1 X208.275 Y159.106 E3.87804
G1 X208.433 Y159.23 E3.89151
G1 X209.342 Y160.035 E3.97293
G1 X209.86 Y160.552 E4.022
G1 X210.244 Y160.953 E4.05923
G1 X211.031 Y161.899 E4.14174
G1 X211.467 Y162.493 E4.19115
G1 X212.179 Y163.61 E4.27996
G1 X212.691 Y164.54 E4.35115
G1 X213.091 Y165.349 E4.41166
G1 X213.365 Y166.036 E4.46126
G1 X213.666 Y166.881 E4.5214
G1 X213.931 Y167.745 E4.582
G1 X214.061 Y168.316 E4.62127
G1 X214.248 Y169.257 E4.6856
G1 X214.385 Y170.15 E4.74618
G1 X214.435 Y170.81 E4.79056
G1 X214.477 Y171.794 E4.8566
G1 X214.475 Y172.697 E4.91714
G1 X214.42 Y173.391 E4.96383
G1 X214.31 Y174.35 E5.02855
G1 X214.167 Y175.242 E5.08912
G1 X214.021 Y175.857 E5.13151
G1 X213.774 Y176.768 E5.1948
G1 X213.499 Y177.628 E5.25534
G1 X213.262 Y178.215 E5.29779
G1 X212.877 Y179.088 E5.36176
G1 X212.476 Y179.897 E5.42231
G1 X212.117 Y180.498 E5.46925
G1 X211.573 Y181.342 E5.53658
G1 X211.051 Y182.079 E5.59713
G1 X210.637 Y182.578 E5.64061
G1 X210.042 Y183.25 E5.70079
G1 X209.64 Y183.677 E5.74012
G1 X209.484 Y183.834 E5.75496
G1 X208.592 Y184.633 E5.83525
G1 X207.98 Y185.119 E5.88765
G1 X206.88 Y185.88 E5.97734
G1 X206.049 Y186.378 E6.0423
G1 X205.255 Y186.808 E6.10285
G1 X204.665 Y187.071 E6.14616
G1 X203.794 Y187.427 E6.20925
G1 X202.944 Y187.731 E6.26978
G1 X202.296 Y187.908 E6.31483
G1 X201.321 Y188.14 E6.38203
G1 X200.762 Y188.257 E6.42032
G1 X200.528 Y188.299 E6.43626
G1 X199.563 Y188.425 E6.50152
G1 X199.308 Y188.446 E6.51867
G1 X198.896 Y188.471 E6.54635
G1 X198.136 Y188.499 E6.59735
G1 X197.287 Y188.51 E6.65428
G1 X88.824 Y188.509 E13.92699
G1 X82.329 Y188.504 E14.36249
G1 X81.618 Y188.494 E14.41017
G1 X80.74 Y188.444 E14.46914
G1 X79.939 Y188.359 E14.52315
G1 X79.598 Y188.315 E14.5462
G1 X78.406 Y188.089 E14.62755
G1 X77.61 Y187.888 E14.6826
G1 X76.745 Y187.628 E14.74317
G1 X76.317 Y187.468 E14.7738
G1 X75.44 Y187.117 E14.83714
G1 X74.617 Y186.744 E14.89773
G1 X74.071 Y186.446 E14.93944
G1 X73.266 Y185.974 E15.00201
G1 X72.709 Y185.623 E15.04616
G1 X72.542 Y185.51 E15.05968
G1 X71.629 Y184.814 E15.13666
G1 X71.008 Y184.283 E15.19144
G1 X70.348 Y183.667 E15.25198
G1 X70.036 Y183.333 E15.28262
G1 X69.423 Y182.648 E15.34426
G1 X68.851 Y181.949 E15.40482
G1 X68.504 Y181.454 E15.44536
G1 X67.98 Y180.658 E15.50926
G1 X67.641 Y180.105 E15.55275
G1 X67.54 Y179.928 E15.56641
G1 X67.016 Y178.874 E15.64534
G1 X66.703 Y178.14 E15.69884
G1 X66.261 Y176.88 E15.78838
G1 X66.008 Y175.973 E15.85152
G1 X65.804 Y175.093 E15.91209
G1 X65.707 Y174.456 E15.95529
G1 X65.59 Y173.488 E16.02067
G1 X65.521 Y172.587 E16.08126
G1 X65.522 Y171.907 E16.12686
G1 X65.556 Y170.937 E16.19194
G1 X65.628 Y170.036 E16.25255
G1 X65.731 Y169.381 E16.297
G1 X65.907 Y168.459 E16.35994
G1 X66.115 Y167.581 E16.42044
G1 X66.304 Y166.987 E16.46224
G1 X66.628 Y166.066 E16.52771
G1 X66.965 Y165.228 E16.58827
G1 X67.278 Y164.598 E16.63544
G1 X67.741 Y163.742 E16.70069
G1 X68.206 Y162.968 E16.76124
G1 X68.562 Y162.463 E16.80267
G1 X69.121 Y161.72 E16.86501
G1 X69.696 Y161.023 E16.9256
G1 X70.158 Y160.542 E16.97032
G1 X70.867 Y159.852 E17.03666
G1 X71.542 Y159.252 E17.09721
G1 X72.082 Y158.841 E17.14272
G1 X72.879 Y158.276 E17.20822
G1 X73.638 Y157.787 E17.26876
G1 X74.242 Y157.461 E17.31479
G1 X75.096 Y157.037 E17.37872
G1 X75.922 Y156.672 E17.43927
G1 X76.528 Y156.457 E17.48239
G1 X77.439 Y156.166 E17.54651
G1 X78.311 Y155.929 E17.6071
G1 X78.953 Y155.807 E17.65092
G1 X79.91 Y155.656 E17.71588
G1 X80.488 Y155.581 E17.75496
G1 X80.782 Y155.552 E17.77477
G1 X83.346 Y155.259 E17.94781
G1 X85.864 Y154.898 E18.11838
G1 X88.35 Y154.47 E18.28752
G1 X90.878 Y153.961 E18.46043
G1 X93.301 Y153.403 E18.62715
G1 X95.79 Y152.754 E18.79963
G1 X98.227 Y152.043 E18.96985
G1 X100.666 Y151.257 E19.14167
G1 X103.025 Y150.422 E19.30946
G1 X105.406 Y149.503 E19.48059
G1 X107.744 Y148.523 E19.65058
G1 X110.067 Y147.472 E19.82154
G1 X112.359 Y146.357 E19.99245
G1 X114.602 Y145.185 E20.16214
G1 X116.808 Y143.951 E20.33163
G1 X118.991 Y142.648 E20.50209
G1 X121.166 Y141.266 E20.67488
G1 X123.232 Y139.869 E20.84211
G1 X125.311 Y138.375 E21.01377
G1 X127.319 Y136.845 E21.18305
G1 X128.449 Y135.931 E21.2805
G1 X129.563 Y135.041 E21.37611
G1 X130.293 Y134.509 E21.43667
G1 X131.067 Y134.044 E21.49722
G1 X131.879 Y133.649 E21.55776
G1 X132.723 Y133.327 E21.61834
G1 X133.592 Y133.081 E21.67889
G1 X134.48 Y132.914 E21.73948
G1 X135.616 Y132.815 E21.81594
G1 X136.255 Y132.8 E21.8588
G1 X156.387 Y132.802 E23.2087
G1 X157.513 Y132.822 E23.28421
G0 F6000 X157.52 Y132.422
G1 F1200 X158.232 Y132.458 E23.33201
G1 X158.971 Y132.521 E23.38174
G1 X159.962 Y132.653 E23.44878
G1 X160.475 Y132.746 E23.48374
G1 X161.274 Y132.923 E23.53861
G1 X161.781 Y133.056 E23.57376
G1 X162.515 Y133.277 E23.62516
G1 X163.013 Y133.447 E23.66044
G1 X163.774 Y133.74 E23.71512
G1 X164.265 Y133.951 E23.75095
G1 X164.989 Y134.295 E23.8047
G1 X165.454 Y134.538 E23.83988
G1 X166.141 Y134.93 E23.89292
G1 X166.577 Y135.201 E23.92734
G1 X167.103 Y135.551 E23.9697
G1 X167.291 Y135.684 E23.98515
G1 X167.598 Y135.909 E24.01067
G1 X167.91 Y136.147 E24.03698
G1 X168.408 Y136.552 E24.08002
G1 X170.779 Y138.599 E24.29005
G1 X172.708 Y140.17 E24.45687
G1 X174.737 Y141.729 E24.62844
G1 X176.803 Y143.226 E24.79951
G1 X178.868 Y144.635 E24.96714
G1 X180.996 Y145.999 E25.13662
G1 X183.177 Y147.314 E25.30739
G1 X185.366 Y148.548 E25.47588
G1 X187.614 Y149.735 E25.64634
G1 X189.879 Y150.85 E25.81561
G1 X192.177 Y151.9 E25.98502
G1 X194.501 Y152.884 E26.15425
G1 X196.848 Y153.801 E26.3232
G1 X199.214 Y154.649 E26.49173
G1 X202.505 Y155.706 E26.7235
G1 X203.729 Y156.118 E26.8101
G1 X204.588 Y156.449 E26.87183
G1 X205.033 Y156.656 E26.90474
G1 X205.873 Y157.07 E26.96753
G1 X206.68 Y157.513 E27.02926
G1 X207.253 Y157.885 E27.07506
G1 X208.044 Y158.437 E27.13974
G1 X208.522 Y158.791 E27.17962
G1 X208.68 Y158.915 E27.19309
G1 X209.624 Y159.751 E27.27764
G1 X210.142 Y160.268 E27.32672
G1 X210.535 Y160.679 E27.36485
G1 X211.353 Y161.663 E27.45065
G1 X211.789 Y162.257 E27.50005
G1 X212.53 Y163.417 E27.59235
G1 X213.042 Y164.347 E27.66353
G1 X213.45 Y165.172 E27.72525
G1 X213.741 Y165.902 E27.77794
G1 X214.042 Y166.747 E27.83809
G1 X214.313 Y167.627 E27.89983
G1 X214.454 Y168.238 E27.94187
G1 X214.641 Y169.179 E28.0062
G1 X214.781 Y170.089 E28.06794
G1 X214.834 Y170.793 E28.11528
G1 X214.876 Y171.777 E28.18132
G1 X214.876 Y172.698 E28.24307
G1 X214.817 Y173.437 E28.29278
G1 X214.707 Y174.396 E28.35751
G1 X214.562 Y175.305 E28.41923
G1 X214.407 Y175.962 E28.46449
G1 X214.16 Y176.873 E28.52778
G1 X213.88 Y177.75 E28.58951
G1 X213.628 Y178.376 E28.63476
G1 X213.243 Y179.249 E28.69874
G1 X212.835 Y180.075 E28.76051
G1 X212.454 Y180.715 E28.81045
G1 X211.91 Y181.559 E28.87778
G1 X211.378 Y182.31 E28.93949
G1 X210.936 Y182.843 E28.98592
G1 X210.341 Y183.515 E29.0461
G1 X209.924 Y183.959 E29.08695
G1 X209.768 Y184.116 E29.10179
G1 X208.841 Y184.946 E29.18522
G1 X208.229 Y185.432 E29.23762
G1 X207.484 Y185.973 E29.29936
G1 X207.086 Y186.223 E29.33087
G1 X206.255 Y186.721 E29.39583
G1 X205.445 Y187.16 E29.45761
G1 X204.816 Y187.441 E29.5038
G1 X203.945 Y187.797 E29.56689
G1 X203.079 Y188.108 E29.62859
G1 X202.389 Y188.297 E29.67656
G1 X201.414 Y188.529 E29.74376
G1 X200.833 Y188.65 E29.78356
G1 X200.599 Y188.692 E29.7995
G1 X199.596 Y188.823 E29.86732
G1 X199.341 Y188.844 E29.88448
G1 X198.912 Y188.871 E29.9133
G1 X198.142 Y188.899 E29.96497
G1 X197.287 Y188.91 E30.0223
G1 X88.824 Y188.909 E37.29501
G1 X82.323 Y188.904 E37.73092
G1 X81.612 Y188.894 E37.7786
G1 X80.7 Y188.842 E37.83985
G1 X79.888 Y188.756 E37.8946
G1 X79.547 Y188.712 E37.91765
G1 X78.308 Y188.476 E38.00222
G1 X77.512 Y188.275 E38.05727
G1 X76.63 Y188.011 E38.11901
G1 X76.168 Y187.839 E38.15206
G1 X75.291 Y187.488 E38.2154
G1 X74.452 Y187.109 E38.27713
G1 X73.868 Y186.791 E38.32172
G1 X73.063 Y186.319 E38.38429
G1 X72.485 Y185.954 E38.43013
G1 X72.318 Y185.841 E38.44365
G1 X71.369 Y185.118 E38.52364
G1 X70.748 Y184.587 E38.57843
G1 X70.075 Y183.959 E38.64015
G1 X69.738 Y183.6 E38.67317
G1 X69.125 Y182.915 E38.7348
G1 X68.541 Y182.203 E38.79655
G1 X68.17 Y181.674 E38.83988
G1 X67.646 Y180.878 E38.90378
G1 X67.293 Y180.303 E38.94902
G1 X67.192 Y180.126 E38.96268
G1 X66.649 Y179.031 E39.04464
G1 X66.336 Y178.297 E39.09814
G1 X66.012 Y177.435 E39.15989
G1 X65.876 Y176.987 E39.19128
G1 X65.623 Y176.08 E39.25442
G1 X65.414 Y175.183 E39.31618
G1 X65.31 Y174.504 E39.36224
G1 X65.193 Y173.536 E39.42761
G1 X65.122 Y172.618 E39.48935
G1 X65.123 Y171.893 E39.53797
G1 X65.157 Y170.923 E39.60305
G1 X65.229 Y170.005 E39.66479
G1 X65.338 Y169.306 E39.71223
G1 X65.514 Y168.384 E39.77516
G1 X65.726 Y167.488 E39.8369
G1 X65.927 Y166.854 E39.8815
G1 X66.251 Y165.933 E39.94696
G1 X66.594 Y165.079 E40.00867
G1 X66.926 Y164.408 E40.05887
G1 X67.389 Y163.552 E40.12413
G1 X67.862 Y162.762 E40.18587
G1 X68.243 Y162.222 E40.23018
G1 X68.802 Y161.479 E40.29253
G1 X69.387 Y160.768 E40.35426
G1 X69.879 Y160.256 E40.40187
G1 X70.588 Y159.566 E40.46821
G1 X71.275 Y158.953 E40.52995
G1 X71.851 Y158.514 E40.57851
G1 X72.648 Y157.949 E40.64402
G1 X73.421 Y157.45 E40.70571
G1 X74.064 Y157.103 E40.7547
G1 X74.918 Y156.679 E40.81863
G1 X75.76 Y156.306 E40.88038
G1 X76.407 Y156.076 E40.92643
G1 X77.318 Y155.785 E40.99055
G1 X78.206 Y155.543 E41.05227
G1 X78.891 Y155.412 E41.09903
G1 X79.848 Y155.261 E41.16399
G1 X80.448 Y155.183 E41.20456
G1 X80.703 Y155.158 E41.22174
G1 X83.311 Y154.86 E41.39775
G1 X85.811 Y154.502 E41.56709
G1 X88.275 Y154.077 E41.73475
G1 X90.78 Y153.573 E41.90608
G1 X93.215 Y153.012 E42.07363
G1 X95.682 Y152.368 E42.24459
G1 X98.098 Y151.665 E42.41331
G1 X100.514 Y150.885 E42.58354
G1 X102.926 Y150.032 E42.75509
G1 X105.244 Y149.137 E42.9217
G1 X107.604 Y148.148 E43.09328
G1 X109.877 Y147.12 E43.26055
G1 X112.177 Y146 E43.43209
G1 X114.413 Y144.832 E43.60124
G1 X116.629 Y143.592 E43.77151
G1 X118.777 Y142.311 E43.9392
G1 X120.924 Y140.946 E44.1098
G1 X123.003 Y139.54 E44.27808
G1 X125.08 Y138.048 E44.44956
G1 X127.07 Y136.531 E44.61734
G1 X128.2 Y135.618 E44.71475
G1 X129.314 Y134.728 E44.81036
G1 X130.057 Y134.186 E44.87203
G1 X130.845 Y133.709 E44.93379
G1 X131.671 Y133.303 E44.99551
G1 X132.53 Y132.97 E45.05728
G1 X133.414 Y132.713 E45.11901
G1 X134.317 Y132.533 E45.18075
G1 X135.604 Y132.415 E45.26741
G1 X135.929 Y132.405 E45.28921
G1 X136.255 Y132.4 E45.31107
G1 X156.394 Y132.402 E46.66144
G1 X157.52 Y132.422 E46.73695
G0 F6000 X157.527 Y132.022
G1 F1200 X158.266 Y132.06 E46.78657
G1 X159.005 Y132.123 E46.8363
G1 X160.033 Y132.259 E46.90583
G1 X160.546 Y132.352 E46.94079
G1 X161.375 Y132.536 E46.99773
G1 X161.882 Y132.669 E47.03288
G1 X162.645 Y132.899 E47.08631
G1 X163.143 Y133.069 E47.12159
G1 X163.932 Y133.373 E47.17829
G1 X164.423 Y133.584 E47.21412
G1 X165.175 Y133.941 E47.26994
G1 X165.64 Y134.184 E47.30512
G1 X166.352 Y134.591 E47.36011
G1 X166.788 Y134.862 E47.39453
G1 X167.334 Y135.224 E47.43846
G1 X167.522 Y135.357 E47.4539
G1 X167.841 Y135.591 E47.48043
G1 X168.153 Y135.829 E47.50674
G1 X168.67 Y136.249 E47.5514
G1 X171.027 Y138.284 E47.7602
G1 X172.981 Y139.875 E47.92916
G1 X174.986 Y141.416 E48.09872
G1 X177.017 Y142.888 E48.26691
G1 X179.112 Y144.317 E48.43695
G1 X181.212 Y145.664 E48.60424
G1 X183.374 Y146.966 E48.77347
G1 X185.555 Y148.196 E48.94136
G1 X187.771 Y149.366 E49.10939
G1 X190.057 Y150.491 E49.28023
G1 X192.333 Y151.532 E49.44804
G1 X194.653 Y152.514 E49.61697
G1 X197.011 Y153.435 E49.78671
G1 X199.327 Y154.265 E49.95167
G1 X202.632 Y155.327 E50.18444
G1 X203.856 Y155.739 E50.27104
G1 X204.731 Y156.076 E50.33391
G1 X205.21 Y156.297 E50.36928
G1 X206.05 Y156.711 E50.43208
G1 X206.873 Y157.161 E50.49497
G1 X207.482 Y157.557 E50.54368
G1 X208.273 Y158.109 E50.60836
G1 X208.769 Y158.477 E50.64977
G1 X208.927 Y158.601 E50.66323
G1 X209.907 Y159.468 E50.75097
G1 X210.425 Y159.985 E50.80004
G1 X210.827 Y160.405 E50.83903
G1 X211.676 Y161.426 E50.92806
G1 X212.112 Y162.02 E50.97747
G1 X212.634 Y162.799 E51.04035
G1 X212.88 Y163.224 E51.07327
G1 X213.392 Y164.154 E51.14446
G1 X213.809 Y164.994 E51.20734
G1 X214.118 Y165.768 E51.26322
G1 X214.419 Y166.613 E51.32337
G1 X214.696 Y167.509 E51.38625
G1 X214.846 Y168.16 E51.43105
G1 X215.033 Y169.101 E51.49538
G1 X215.176 Y170.028 E51.55827
G1 X215.234 Y170.776 E51.60858
G1 X215.276 Y171.76 E51.67462
G1 X215.276 Y172.698 E51.73751
G1 X215.214 Y173.483 E51.79031
G1 X215.104 Y174.442 E51.85504
G1 X214.958 Y175.368 E51.91789
G1 X214.793 Y176.067 E51.96605
G1 X214.546 Y176.978 E52.02934
G1 X214.262 Y177.871 E52.09218
G1 X213.994 Y178.538 E52.14037
G1 X213.609 Y179.411 E52.20435
G1 X213.194 Y180.252 E52.26723
G1 X212.79 Y180.931 E52.32021
G1 X212.246 Y181.775 E52.38754
G1 X211.705 Y182.541 E52.45042
G1 X211.236 Y183.108 E52.49976
G1 X210.641 Y183.78 E52.55994
G1 X210.208 Y184.241 E52.60235
G1 X210.052 Y184.398 E52.61719
G1 X209.09 Y185.259 E52.70376
G1 X208.478 Y185.745 E52.75616
G1 X207.719 Y186.297 E52.81909
G1 X207.291 Y186.566 E52.85299
G1 X206.46 Y187.064 E52.91795
G1 X205.636 Y187.512 E52.98084
G1 X204.968 Y187.811 E53.02991
G1 X204.097 Y188.167 E53.093
G1 X203.214 Y188.485 E53.15593
G1 X202.481 Y188.686 E53.2069
G1 X201.506 Y188.918 E53.2741
G1 X200.903 Y189.044 E53.3154
G1 X200.669 Y189.086 E53.33134
G1 X199.629 Y189.222 E53.40167
G1 X199.374 Y189.243 E53.41883
G1 X198.929 Y189.27 E53.44872
G1 X198.147 Y189.299 E53.50119
G1 X197.287 Y189.31 E53.55886
G1 X88.824 Y189.309 E60.83157
G1 X82.317 Y189.304 E61.26788
G1 X81.606 Y189.294 E61.31556
G1 X80.66 Y189.24 E61.37909
G1 X79.836 Y189.153 E61.43465
G1 X79.495 Y189.109 E61.45771
G1 X78.21 Y188.864 E61.54542
G1 X77.414 Y188.663 E61.60047
G1 X76.515 Y188.395 E61.66337
G1 X76.02 Y188.21 E61.69881
G1 X75.143 Y187.859 E61.76215
G1 X74.288 Y187.474 E61.82502
G1 X73.666 Y187.136 E61.87249
G1 X72.861 Y186.664 E61.93506
G1 X72.26 Y186.285 E61.9827
G1 X72.093 Y186.172 E61.99622
G1 X71.109 Y185.422 E62.07918
