;FLAVOR:Marlin
;TIME:1149
;Filament used: 0.615219m
;Layer height: 0.2
;MINX:123.007
;MINY:125.118
;MINZ:0.12
;MAXX:176.991
;MAXY:174.893
;MAXZ:9.92
;Generated with Cura_SteamEngine 4.6.1
M140 S60
M105
M190 S60
M104 S200
M105
M109 S200
M82 ;absolute extrusion mode
M201 X500.00 Y500.00 Z100.00 E5000.00 ;Setup machine max acceleration
M203 X500.00 Y500.00 Z10.00 E50.00 ;Setup machine max feedrate
M204 P500.00 R1000.00 T500.00 ;Setup Print/Retract/Travel acceleration
M205 X8.00 Y8.00 Z0.40 E5.00 ;Setup Jerk
M220 S100 ;Reset Feedrate
M221 S100 ;Reset Flowrate

G28 ;Home

G92 E0 ;Reset Extruder
G1 Z2.0 F3000 ;Move Z Axis up
G1 X10.1 Y20 Z0.28 F5000.0 ;Move to start position
G1 X10.1 Y200.0 Z0.28 F1500.0 E15 ;Draw the first line
G1 X10.4 Y200.0 Z0.28 F5000.0 ;Move to side a little
G1 X10.4 Y20 Z0.28 F1500.0 E30 ;Draw the second line
G92 E0 ;Reset Extruder
G1 Z2.0 F3000 ;Move Z Axis up

G92 E0
G92 E0
G1 F2700 E-5
;LAYER_COUNT:50
;LAYER:0
M107
G0 F6000 X136.296 Y125.989 Z0.12
;TYPE:SKIRT
G1 F2700 E0
G1 F1200 X136.993 Y126.076 E0.01542
G1 X137.043 Y126.082 E0.01652
G1 X139.703 Y126.427 E0.07541
G1 X142.237 Y126.684 E0.13132
G1 X144.759 Y126.867 E0.18682
G1 X147.292 Y126.979 E0.24248
G1 X149.861 Y127.02 E0.29888
G1 X152.358 Y126.989 E0.3537
G1 X154.926 Y126.885 E0.41012
G1 X157.461 Y126.709 E0.4659
G1 X159.984 Y126.464 E0.52154
G1 X162.861 Y126.095 E0.58522
G1 X163.385 Y126.02 E0.59684
G1 X164.284 Y125.932 E0.61667
G1 X165.187 Y125.923 E0.63649
G1 X165.841 Y125.967 E0.65088
G1 X166.113 Y125.994 E0.65688
G1 X167.006 Y126.123 E0.67668
G1 X167.885 Y126.33 E0.69651
G1 X168.743 Y126.615 E0.71635
G1 X169.571 Y126.974 E0.73617
G1 X170.365 Y127.405 E0.756
G1 X171.117 Y127.904 E0.77581
G1 X171.822 Y128.468 E0.79563
G1 X172.393 Y129.007 E0.81286
G1 X172.771 Y129.393 E0.82472
G1 X173.373 Y130.066 E0.84455
G1 X173.914 Y130.789 E0.86437
G1 X174.389 Y131.558 E0.88421
G1 X174.728 Y132.218 E0.9005
G1 X175.087 Y133.047 E0.92033
G1 X175.372 Y133.904 E0.94015
G1 X175.579 Y134.783 E0.95998
G1 X175.708 Y135.677 E0.9798
G1 X175.753 Y136.357 E0.99476
G1 X175.794 Y137.637 E1.02288
G1 X175.799 Y138.039 E1.0317
G1 X175.793 Y138.86 E1.04973
G1 X175.845 Y141.398 E1.10545
G1 X175.969 Y143.945 E1.16143
G1 X176.129 Y146.086 E1.20856
G1 X176.148 Y146.421 E1.21592
G1 X176.182 Y147.24 E1.23392
G1 X176.191 Y147.746 E1.24503
G1 X176.178 Y148.794 E1.26803
G1 X176.151 Y149.375 E1.2808
G1 X176.109 Y149.999 E1.29453
G1 X176.068 Y150.459 E1.30467
G1 X175.986 Y151.185 E1.32071
G1 X175.946 Y151.494 E1.32755
G1 X175.849 Y152.138 E1.34184
G1 X175.754 Y152.678 E1.35388
G1 X175.625 Y153.32 E1.36825
G1 X175.471 Y154.009 E1.38375
G1 X175.352 Y154.49 E1.39463
G1 X175.093 Y155.416 E1.41573
G1 X174.919 Y155.974 E1.42857
G1 X174.695 Y156.632 E1.44382
G1 X174.469 Y157.248 E1.45823
G1 X174.23 Y157.85 E1.47245
G1 X173.956 Y158.496 E1.48785
G1 X173.715 Y159.022 E1.50055
G1 X173.338 Y159.794 E1.51941
G1 X173.109 Y160.235 E1.53032
G1 X172.78 Y160.831 E1.54526
G1 X172.429 Y161.43 E1.5605
G1 X172.084 Y161.985 E1.57485
G1 X171.701 Y162.569 E1.59018
G1 X171.324 Y163.113 E1.60471
G1 X170.928 Y163.654 E1.61942
G1 X170.597 Y164.081 E1.63128
G1 X170.196 Y164.58 E1.64534
G1 X169.736 Y165.123 E1.66096
G1 X169.219 Y165.699 E1.67795
G1 X168.743 Y166.2 E1.69312
G1 X168.269 Y166.673 E1.70782
G1 X167.812 Y167.106 E1.72164
G1 X167.315 Y167.555 E1.73634
G1 X166.753 Y168.037 E1.75259
G1 X166.294 Y168.411 E1.76559
G1 X165.746 Y168.835 E1.7808
G1 X165.3 Y169.161 E1.79293
G1 X164.632 Y169.626 E1.8108
G1 X163.856 Y170.13 E1.83111
G1 X163.624 Y170.272 E1.83708
G1 X163.034 Y170.621 E1.85213
G1 X162.634 Y170.846 E1.8622
G1 X162.046 Y171.159 E1.87682
G1 X161.704 Y171.333 E1.88525
G1 X161.104 Y171.624 E1.89988
G1 X160.706 Y171.806 E1.90949
G1 X159.881 Y172.16 E1.9292
G1 X159.578 Y172.282 E1.93637
G1 X159.231 Y172.414 E1.94452
G1 X158.627 Y172.632 E1.95861
G1 X158.243 Y172.762 E1.96751
G1 X157.338 Y173.045 E1.98833
G1 X156.689 Y173.227 E2.00312
G1 X156.211 Y173.348 E2.01395
G1 X155.57 Y173.495 E2.02838
G1 X155.189 Y173.576 E2.03694
G1 X154.852 Y173.642 E2.04447
G1 X154.184 Y173.758 E2.05936
G1 X153.566 Y173.85 E2.07307
G1 X152.99 Y173.924 E2.08582
G1 X152.493 Y173.975 E2.09679
G1 X151.368 Y174.059 E2.12155
G1 X150.835 Y174.082 E2.13326
G1 X150.288 Y174.093 E2.14527
G1 X149.618 Y174.091 E2.15998
G1 X149.006 Y174.076 E2.17342
G1 X148.517 Y174.052 E2.18417
G1 X147.691 Y173.992 E2.20235
G1 X147.185 Y173.943 E2.21351
G1 X146.135 Y173.809 E2.23674
G1 X145.552 Y173.716 E2.2497
G1 X144.948 Y173.604 E2.26319
G1 X144.239 Y173.454 E2.2791
G1 X143.576 Y173.295 E2.29406
G1 X142.968 Y173.135 E2.30786
G1 X142.389 Y172.966 E2.3211
G1 X141.919 Y172.819 E2.33191
G1 X141.614 Y172.718 E2.33897
G1 X141.022 Y172.509 E2.35275
G1 X140.378 Y172.266 E2.36786
G1 X139.896 Y172.069 E2.37929
G1 X139.128 Y171.733 E2.39769
G1 X138.61 Y171.489 E2.41026
G1 X137.953 Y171.16 E2.42639
G1 X137.543 Y170.944 E2.43656
G1 X137.138 Y170.719 E2.44673
G1 X136.408 Y170.291 E2.46531
G1 X135.774 Y169.895 E2.48172
G1 X135.126 Y169.462 E2.49882
G1 X134.28 Y168.854 E2.52169
G1 X134.079 Y168.702 E2.52723
G1 X133.571 Y168.302 E2.54142
G1 X132.972 Y167.806 E2.55849
G1 X132.539 Y167.427 E2.57112
G1 X131.989 Y166.921 E2.58753
G1 X131.763 Y166.705 E2.59439
G1 X131.556 Y166.5 E2.60079
G1 X131.083 Y166.019 E2.6156
G1 X130.648 Y165.554 E2.62957
G1 X130.118 Y164.954 E2.64715
G1 X129.75 Y164.517 E2.65969
G1 X129.29 Y163.94 E2.67589
G1 X128.921 Y163.452 E2.68932
G1 X128.536 Y162.914 E2.70384
G1 X128.145 Y162.339 E2.7191
G1 X127.8 Y161.803 E2.7331
G1 X127.457 Y161.239 E2.74759
G1 X127.112 Y160.638 E2.7628
G1 X126.771 Y160.007 E2.77854
G1 X126.521 Y159.51 E2.79076
G1 X126.173 Y158.78 E2.80851
G1 X125.968 Y158.317 E2.81962
G1 X125.683 Y157.632 E2.83591
G1 X125.502 Y157.17 E2.8468
G1 X125.235 Y156.428 E2.86411
G1 X125.056 Y155.889 E2.87658
G1 X124.918 Y155.439 E2.88691
G1 X124.673 Y154.569 E2.90675
G1 X124.551 Y154.091 E2.91758
G1 X124.392 Y153.4 E2.93315
G1 X124.233 Y152.601 E2.95103
G1 X124.148 Y152.108 E2.96201
G1 X124.015 Y151.184 E2.98251
G1 X123.95 Y150.636 E2.99462
G1 X123.901 Y150.102 E3.00639
G1 X123.838 Y149.141 E3.02753
G1 X123.818 Y148.654 E3.03823
G1 X123.807 Y147.884 E3.05514
G1 X123.816 Y147.344 E3.06699
G1 X123.845 Y146.534 E3.08478
G1 X123.864 Y146.175 E3.09268
G1 X124.068 Y143.312 E3.15568
G1 X124.173 Y140.803 E3.21081
G1 X124.208 Y137.277 E3.28821
G1 X124.205 Y137.028 E3.29368
G1 X124.235 Y136.125 E3.31351
G1 X124.302 Y135.518 E3.32692
G1 X124.33 Y135.317 E3.33137
G1 X124.494 Y134.429 E3.3512
G1 X124.736 Y133.559 E3.37102
G1 X125.054 Y132.713 E3.39086
G1 X125.412 Y131.961 E3.40914
G1 X125.544 Y131.711 E3.41535
G1 X126.001 Y130.932 E3.43517
G1 X126.524 Y130.197 E3.45498
G1 X126.848 Y129.803 E3.46617
G1 X127.078 Y129.537 E3.47389
G1 X127.699 Y128.88 E3.49374
G1 X128.375 Y128.281 E3.51356
G1 X129.101 Y127.745 E3.53337
G1 X129.872 Y127.274 E3.55321
G1 X130.924 Y126.771 E3.5788
G1 X131.163 Y126.673 E3.58447
G1 X132.013 Y126.367 E3.60431
G1 X132.887 Y126.138 E3.62414
G1 X133.777 Y125.988 E3.64395
G1 X134.678 Y125.916 E3.66379
G1 X135.581 Y125.925 E3.68362
G1 X136.296 Y125.989 E3.69937
G0 F6000 X136.346 Y125.592
G1 F1200 X137.043 Y125.679 E3.71479
G1 X137.094 Y125.685 E3.71592
G1 X139.758 Y126.031 E3.77489
G1 X142.27 Y126.285 E3.83032
G1 X144.772 Y126.467 E3.88538
G1 X147.314 Y126.579 E3.94124
G1 X149.863 Y126.62 E3.9972
G1 X152.372 Y126.589 E4.05228
G1 X154.88 Y126.487 E4.10738
G1 X157.434 Y126.31 E4.16358
G1 X159.924 Y126.068 E4.2185
G1 X162.829 Y125.696 E4.28279
G1 X163.329 Y125.624 E4.29388
G1 X164.245 Y125.533 E4.31408
G1 X165.165 Y125.522 E4.33428
G1 X165.88 Y125.569 E4.35001
G1 X166.152 Y125.596 E4.35601
G1 X167.063 Y125.726 E4.37621
G1 X167.96 Y125.936 E4.39644
G1 X168.835 Y126.222 E4.41664
G1 X169.682 Y126.583 E4.43685
G1 X170.494 Y127.016 E4.45705
G1 X171.266 Y127.518 E4.47727
G1 X171.991 Y128.085 E4.49747
G1 X172.678 Y128.728 E4.51813
G1 X173.056 Y129.114 E4.52999
G1 X173.671 Y129.799 E4.5502
G1 X174.225 Y130.535 E4.57042
G1 X174.712 Y131.316 E4.59062
G1 X175.013 Y131.889 E4.60483
G1 X175.088 Y132.043 E4.60859
G1 X175.455 Y132.887 E4.62879
G1 X175.747 Y133.76 E4.649
G1 X175.962 Y134.655 E4.66921
G1 X176.099 Y135.566 E4.68943
G1 X176.153 Y136.345 E4.70657
G1 X176.194 Y137.625 E4.73468
G1 X176.199 Y138.041 E4.74382
G1 X176.193 Y138.854 E4.76166
G1 X176.245 Y141.404 E4.81765
G1 X176.366 Y143.879 E4.87205
G1 X176.528 Y146.056 E4.91997
G1 X176.548 Y146.404 E4.92762
G1 X176.582 Y147.223 E4.94561
G1 X176.591 Y147.749 E4.95716
G1 X176.585 Y148.489 E4.97341
G1 X176.566 Y149.096 E4.98674
G1 X176.55 Y149.402 E4.99347
G1 X176.508 Y150.026 E5.00719
G1 X176.465 Y150.504 E5.01773
G1 X176.342 Y151.551 E5.04087
G1 X176.244 Y152.206 E5.05541
G1 X176.147 Y152.754 E5.06763
G1 X176.016 Y153.407 E5.08225
G1 X175.862 Y154.096 E5.09774
G1 X175.737 Y154.596 E5.10906
G1 X175.475 Y155.533 E5.13042
G1 X175.298 Y156.1 E5.14345
G1 X175.072 Y156.768 E5.15893
G1 X174.841 Y157.394 E5.17358
G1 X174.599 Y158.004 E5.18799
G1 X174.32 Y158.66 E5.20364
G1 X174.075 Y159.196 E5.21657
G1 X173.694 Y159.977 E5.23565
G1 X173.46 Y160.426 E5.24676
G1 X173.126 Y161.032 E5.26195
G1 X172.769 Y161.64 E5.27743
G1 X172.42 Y162.202 E5.29195
G1 X172.03 Y162.796 E5.30755
G1 X171.648 Y163.347 E5.32227
G1 X171.245 Y163.897 E5.33724
G1 X170.909 Y164.332 E5.3493
G1 X170.508 Y164.831 E5.36335
G1 X170.035 Y165.388 E5.3794
G1 X169.51 Y165.973 E5.39665
G1 X169.027 Y166.482 E5.41205
G1 X168.545 Y166.962 E5.42699
G1 X168.082 Y167.401 E5.44099
G1 X167.577 Y167.857 E5.45593
G1 X167.007 Y168.346 E5.47241
G1 X166.54 Y168.725 E5.48562
G1 X165.983 Y169.156 E5.50108
G1 X165.53 Y169.488 E5.51341
G1 X164.853 Y169.959 E5.53151
G1 X164.069 Y170.469 E5.55204
G1 X163.828 Y170.616 E5.55824
G1 X163.238 Y170.965 E5.57329
G1 X162.822 Y171.199 E5.58376
G1 X162.234 Y171.512 E5.59839
G1 X161.879 Y171.692 E5.60712
G1 X161.279 Y171.983 E5.62176
G1 X160.865 Y172.173 E5.63176
G1 X160.03 Y172.531 E5.6517
G1 X159.727 Y172.653 E5.65887
G1 X159.367 Y172.79 E5.66733
G1 X158.763 Y173.008 E5.68143
G1 X158.364 Y173.144 E5.69068
G1 X157.448 Y173.429 E5.71174
G1 X156.789 Y173.614 E5.72676
G1 X156.302 Y173.737 E5.73779
G1 X155.653 Y173.886 E5.75241
G1 X155.272 Y173.967 E5.76096
G1 X154.922 Y174.036 E5.76879
G1 X154.245 Y174.153 E5.78387
G1 X153.617 Y174.247 E5.79781
G1 X153.041 Y174.321 E5.81056
G1 X152.524 Y174.374 E5.82197
G1 X151.726 Y174.437 E5.83954
G1 X150.845 Y174.481 E5.8589
G1 X150.289 Y174.493 E5.87111
G1 X149.608 Y174.491 E5.88606
G1 X148.996 Y174.476 E5.8995
G1 X148.488 Y174.451 E5.91066
G1 X147.662 Y174.391 E5.92884
G1 X147.136 Y174.34 E5.94044
G1 X146.396 Y174.249 E5.95681
G1 X145.737 Y174.152 E5.97143
G1 X145.141 Y174.048 E5.98471
G1 X144.867 Y173.995 E5.99084
G1 X144.148 Y173.843 E6.00697
G1 X143.476 Y173.683 E6.02213
G1 X142.858 Y173.519 E6.03617
G1 X142.27 Y173.348 E6.04961
G1 X141.8 Y173.201 E6.06042
G1 X141.483 Y173.096 E6.06775
G1 X140.881 Y172.884 E6.08176
G1 X139.992 Y172.542 E6.10267
G1 X139.737 Y172.436 E6.10873
G1 X138.959 Y172.096 E6.12737
G1 X138.433 Y171.847 E6.14015
G1 X137.766 Y171.514 E6.15651
G1 X137.356 Y171.298 E6.16669
G1 X136.936 Y171.064 E6.17724
G1 X136.206 Y170.636 E6.19582
G1 X135.553 Y170.229 E6.21271
G1 X134.896 Y169.789 E6.23006
G1 X134.042 Y169.175 E6.25315
G1 X133.833 Y169.017 E6.2589
G1 X133.318 Y168.611 E6.2733
G1 X132.711 Y168.109 E6.29059
G1 X132.5 Y167.927 E6.29671
G1 X132.27 Y167.722 E6.30347
G1 X131.713 Y167.21 E6.32008
G1 X131.271 Y166.781 E6.3336
G1 X130.793 Y166.295 E6.34856
G1 X130.584 Y166.075 E6.35523
G1 X130.349 Y165.82 E6.36284
G1 X129.813 Y165.214 E6.3806
G1 X129.439 Y164.768 E6.39337
G1 X128.972 Y164.182 E6.40982
G1 X128.597 Y163.686 E6.42347
G1 X128.206 Y163.141 E6.4382
G1 X127.98 Y162.813 E6.44694
G1 X127.809 Y162.556 E6.45372
G1 X127.46 Y162.013 E6.46789
G1 X127.111 Y161.44 E6.48261
G1 X126.761 Y160.83 E6.49805
G1 X126.415 Y160.189 E6.51404
G1 X126.161 Y159.684 E6.52645
G1 X125.808 Y158.944 E6.54445
G1 X125.599 Y158.472 E6.55578
G1 X125.31 Y157.778 E6.57228
G1 X125.129 Y157.316 E6.58318
G1 X124.855 Y156.554 E6.60095
G1 X124.676 Y156.015 E6.61342
G1 X124.533 Y155.547 E6.62416
G1 X124.288 Y154.677 E6.644
G1 X124.161 Y154.181 E6.65524
G1 X124.002 Y153.49 E6.67081
G1 X123.839 Y152.669 E6.68918
G1 X123.707 Y151.874 E6.70687
G1 X123.618 Y151.232 E6.7211
G1 X123.553 Y150.684 E6.73321
G1 X123.502 Y150.128 E6.74547
G1 X123.439 Y149.167 E6.76661
G1 X123.418 Y148.661 E6.77773
G1 X123.407 Y147.881 E6.79485
G1 X123.416 Y147.33 E6.80695
G1 X123.445 Y146.52 E6.82474
G1 X123.465 Y146.146 E6.83296
G1 X123.668 Y143.3 E6.89559
G1 X123.774 Y140.782 E6.95092
G1 X123.805 Y137.032 E7.03324
G1 X123.835 Y136.111 E7.05347
G1 X123.905 Y135.463 E7.06778
G1 X123.933 Y135.262 E7.07223
G1 X124.1 Y134.356 E7.09245
G1 X124.344 Y133.468 E7.11267
G1 X124.665 Y132.605 E7.13288
G1 X125.058 Y131.775 E7.15304
G1 X125.19 Y131.525 E7.15925
G1 X125.655 Y130.73 E7.17946
G1 X126.187 Y129.979 E7.19967
G1 X126.546 Y129.541 E7.2121
G1 X126.776 Y129.275 E7.21982
G1 X127.408 Y128.605 E7.24004
G1 X128.095 Y127.993 E7.26023
G1 X128.833 Y127.443 E7.28044
G1 X129.616 Y126.959 E7.30065
G1 X130.773 Y126.4 E7.32885
G1 X131.012 Y126.302 E7.33452
G1 X131.878 Y125.991 E7.35472
G1 X132.768 Y125.755 E7.37493
G1 X133.675 Y125.597 E7.39514
G1 X134.592 Y125.519 E7.41535
G1 X135.513 Y125.521 E7.43556
G1 X136.346 Y125.592 E7.45392
G0 F6000 X139.817 Y125.635
G1 F1200 X142.303 Y125.886 E7.50876
G1 X144.818 Y126.069 E7.56412
G1 X147.304 Y126.179 E7.61874
G1 X149.864 Y126.22 E7.67495
G1 X152.352 Y126.189 E7.72957
G1 X154.873 Y126.086 E7.78495
G1 X157.401 Y125.912 E7.84058
G1 X159.868 Y125.672 E7.89499
G1 X162.787 Y125.298 E7.95959
G1 X163.272 Y125.228 E7.97035
G1 X164.205 Y125.135 E7.99093
G1 X165.143 Y125.121 E8.01152
G1 X165.92 Y125.171 E8.02862
G1 X166.192 Y125.198 E8.03462
G1 X167.12 Y125.33 E8.05519
G1 X168.034 Y125.541 E8.07578
G1 X168.926 Y125.829 E8.09636
G1 X169.791 Y126.192 E8.11695
G1 X170.622 Y126.628 E8.13755
G1 X171.413 Y127.132 E8.15814
G1 X172.157 Y127.702 E8.17872
G1 X172.964 Y128.448 E8.20284
G1 X173.342 Y128.834 E8.2147
G1 X173.969 Y129.531 E8.23528
G1 X174.535 Y130.279 E8.25587
G1 X175.034 Y131.073 E8.27646
G1 X175.373 Y131.714 E8.29237
G1 X175.448 Y131.868 E8.29613
G1 X175.822 Y132.728 E8.31672
G1 X176.122 Y133.616 E8.3373
G1 X176.344 Y134.527 E8.35788
G1 X176.489 Y135.454 E8.37848
G1 X176.552 Y136.332 E8.3978
G1 X176.593 Y137.612 E8.42591
G1 X176.599 Y138.044 E8.4354
G1 X176.593 Y138.848 E8.45305
G1 X176.645 Y141.376 E8.50855
G1 X176.767 Y143.879 E8.56356
G1 X176.927 Y146.027 E8.61084
G1 X176.948 Y146.388 E8.61878
G1 X176.982 Y147.207 E8.63678
G1 X176.991 Y147.752 E8.64874
G1 X176.985 Y148.492 E8.66499
G1 X176.966 Y149.111 E8.67858
G1 X176.949 Y149.429 E8.68557
G1 X176.907 Y150.053 E8.6993
G1 X176.862 Y150.549 E8.71023
G1 X176.738 Y151.608 E8.73364
G1 X176.638 Y152.274 E8.74842
G1 X176.54 Y152.83 E8.76082
G1 X176.406 Y153.494 E8.77568
G1 X176.252 Y154.183 E8.79118
G1 X176.123 Y154.702 E8.80292
G1 X175.858 Y155.65 E8.82453
G1 X175.678 Y156.227 E8.8378
G1 X175.448 Y156.905 E8.85351
G1 X175.214 Y157.539 E8.86835
G1 X174.968 Y158.159 E8.88299
G1 X174.685 Y158.824 E8.89886
G1 X174.435 Y159.37 E8.91204
G1 X174.05 Y160.16 E8.93133
G1 X173.812 Y160.617 E8.94264
G1 X173.627 Y160.958 E8.95116
G1 X173.11 Y161.85 E8.97379
G1 X172.755 Y162.42 E8.98853
G1 X172.36 Y163.022 E9.00434
G1 X171.972 Y163.582 E9.01929
G1 X171.563 Y164.14 E9.03448
G1 X171.22 Y164.582 E9.04676
G1 X170.59 Y165.358 E9.0687
G1 X170.334 Y165.654 E9.07729
G1 X169.802 Y166.247 E9.09478
G1 X169.311 Y166.763 E9.11042
G1 X168.822 Y167.251 E9.12558
G1 X168.352 Y167.697 E9.1398
G1 X167.839 Y168.16 E9.15497
G1 X167.261 Y168.655 E9.17168
G1 X166.787 Y169.04 E9.18508
G1 X166.221 Y169.478 E9.20079
G1 X165.76 Y169.815 E9.21333
G1 X165.075 Y170.292 E9.23165
G1 X164.481 Y170.683 E9.24726
G1 X164.031 Y170.961 E9.25888
G1 X163.441 Y171.31 E9.27392
G1 X163.01 Y171.552 E9.28477
G1 X162.422 Y171.865 E9.2994
G1 X162.053 Y172.052 E9.30848
G1 X161.453 Y172.343 E9.32312
G1 X161.024 Y172.54 E9.33348
G1 X160.18 Y172.902 E9.35364
G1 X159.877 Y173.024 E9.36081
