;FLAVOR:Marlin
;TIME:1305
;Filament used: 0.789119m
;Layer height: 0.16
;MINX:123.007
;MINY:125.113
;MINZ:0.2
;MAXX:176.992
;MAXY:174.893
;MAXZ:10
;Generated with Cura_SteamEngine 4.6.1
M140 S50
M105
M190 S50
M104 S200
M105
M109 S200
M82 ;absolute extrusion mode
M201 X500.00 Y500.00 Z100.00 E5000.00 ;Setup machine max acceleration
M203 X500.00 Y500.00 Z10.00 E50.00 ;Setup machine max feedrate
M204 P500.00 R1000.00 T500.00 ;Setup Print/Retract/Travel acceleration
M205 X8.00 Y8.00 Z0.40 E5.00 ;Setup Jerk
M220 S100 ;Reset Feedrate
M221 S100 ;Reset Flowrate

G28 ;Home

G92 E0 ;Reset Extruder
G1 Z2.0 F3000 ;Move Z Axis up
G1 X10.1 Y20 Z0.28 F5000.0 ;Move to start position
G1 X10.1 Y200.0 Z0.28 F1500.0 E15 ;Draw the first line
G1 X10.4 Y200.0 Z0.28 F5000.0 ;Move to side a little
G1 X10.4 Y20 Z0.28 F1500.0 E30 ;Draw the second line
G92 E0 ;Reset Extruder
G1 Z2.0 F3000 ;Move Z Axis up

G92 E0
G92 E0
G1 F2700 E-5
;LAYER_COUNT:51
;LAYER:0
M107
G0 F6000 X137.132 Y126.094 Z0.2
;TYPE:SKIRT
G1 F2700 E0
G1 F1200 X139.703 Y126.427 E0.08623
G1 X142.237 Y126.684 E0.17094
G1 X144.759 Y126.867 E0.25504
G1 X147.292 Y126.979 E0.33937
G1 X149.861 Y127.02 E0.42483
G1 X152.358 Y126.989 E0.50789
G1 X154.926 Y126.885 E0.59337
G1 X157.461 Y126.709 E0.67789
G1 X159.984 Y126.464 E0.7622
G1 X162.861 Y126.095 E0.85867
G1 X163.385 Y126.02 E0.87627
G1 X164.284 Y125.932 E0.90632
G1 X165.187 Y125.923 E0.93635
G1 X165.841 Y125.967 E0.95815
G1 X166.113 Y125.994 E0.96725
G1 X167.006 Y126.123 E0.99726
G1 X167.885 Y126.33 E1.02729
G1 X168.743 Y126.615 E1.05736
G1 X169.571 Y126.974 E1.08738
G1 X170.365 Y127.405 E1.11743
G1 X171.117 Y127.904 E1.14744
G1 X171.822 Y128.468 E1.17747
G1 X172.367 Y128.981 E1.20237
G1 X172.73 Y129.349 E1.21956
G1 X173.335 Y130.019 E1.24958
G1 X173.878 Y130.741 E1.27963
G1 X174.356 Y131.507 E1.30966
G1 X174.62 Y132.009 E1.32853
G1 X174.713 Y132.198 E1.33553
G1 X175.075 Y133.025 E1.36556
G1 X175.363 Y133.881 E1.3956
G1 X175.574 Y134.759 E1.42563
G1 X175.707 Y135.652 E1.45566
G1 X175.757 Y136.398 E1.48053
G1 X175.796 Y137.712 E1.52425
G1 X175.8 Y138.087 E1.53672
G1 X175.794 Y138.931 E1.5648
G1 X175.848 Y141.464 E1.64906
G1 X175.976 Y144.046 E1.73505
G1 X176.141 Y146.329 E1.81118
G1 X176.182 Y147.247 E1.84174
G1 X176.192 Y147.791 E1.85984
G1 X176.186 Y148.477 E1.88265
G1 X176.165 Y149.12 E1.90405
G1 X176.151 Y149.382 E1.91278
G1 X176.099 Y150.123 E1.93748
G1 X176.043 Y150.699 E1.95673
G1 X175.941 Y151.525 E1.98441
G1 X175.862 Y152.057 E2.0023
G1 X175.757 Y152.661 E2.02269
G1 X175.625 Y153.322 E2.04511
G1 X175.476 Y153.988 E2.06781
G1 X175.361 Y154.45 E2.08365
G1 X175.105 Y155.372 E2.11547
G1 X174.922 Y155.961 E2.13599
G1 X174.723 Y156.551 E2.1567
G1 X174.476 Y157.225 E2.18057
G1 X174.205 Y157.912 E2.20513
G1 X173.978 Y158.444 E2.22437
G1 X173.701 Y159.052 E2.24659
G1 X173.367 Y159.74 E2.27203
G1 X173.12 Y160.214 E2.28981
G1 X172.76 Y160.865 E2.31455
G1 X172.427 Y161.432 E2.33642
G1 X172.09 Y161.977 E2.35773
G1 X171.702 Y162.571 E2.38133
G1 X171.358 Y163.066 E2.40138
G1 X170.937 Y163.644 E2.42516
G1 X170.553 Y164.141 E2.44605
G1 X170.043 Y164.766 E2.47288
G1 X169.687 Y165.18 E2.49104
G1 X169.296 Y165.614 E2.51047
G1 X168.709 Y166.234 E2.53887
G1 X168.283 Y166.658 E2.55886
G1 X167.786 Y167.131 E2.58168
G1 X167.376 Y167.501 E2.60005
G1 X166.73 Y168.056 E2.62838
G1 X166.308 Y168.399 E2.64646
G1 X165.76 Y168.825 E2.66955
G1 X165.256 Y169.193 E2.69031
G1 X164.64 Y169.622 E2.71527
G1 X164.159 Y169.938 E2.73441
G1 X163.601 Y170.285 E2.75627
G1 X163.011 Y170.634 E2.77907
G1 X162.603 Y170.863 E2.79463
G1 X161.777 Y171.297 E2.82566
G1 X161.336 Y171.515 E2.84203
G1 X160.923 Y171.708 E2.85719
G1 X160.241 Y172.008 E2.88197
G1 X159.938 Y172.135 E2.8929
G1 X159.285 Y172.394 E2.91626
G1 X158.473 Y172.686 E2.94496
G1 X158.217 Y172.771 E2.95393
G1 X157.413 Y173.022 E2.98195
G1 X156.692 Y173.227 E3.00688
G1 X156.231 Y173.344 E3.0227
G1 X155.504 Y173.511 E3.04751
G1 X154.931 Y173.626 E3.06695
G1 X154.161 Y173.762 E3.09295
G1 X153.566 Y173.85 E3.11296
G1 X153.003 Y173.922 E3.13184
G1 X152.498 Y173.973 E3.14872
G1 X151.518 Y174.049 E3.18141
G1 X150.994 Y174.077 E3.19886
G1 X150.258 Y174.093 E3.22335
G1 X149.643 Y174.091 E3.2438
G1 X149 Y174.076 E3.2652
G1 X148.479 Y174.051 E3.28254
G1 X147.648 Y173.989 E3.31026
G1 X147.149 Y173.939 E3.32694
G1 X146.114 Y173.806 E3.36165
G1 X145.746 Y173.749 E3.37403
G1 X145.304 Y173.67 E3.38897
G1 X144.46 Y173.501 E3.4176
G1 X144.121 Y173.428 E3.42913
G1 X143.588 Y173.299 E3.44737
G1 X143.006 Y173.144 E3.4674
G1 X142.051 Y172.862 E3.50052
G1 X141.742 Y172.761 E3.51133
G1 X141.002 Y172.502 E3.53741
G1 X140.455 Y172.294 E3.55687
G1 X139.742 Y172.004 E3.58248
G1 X138.952 Y171.652 E3.61124
G1 X138.699 Y171.531 E3.62057
G1 X137.886 Y171.127 E3.65076
G1 X137.398 Y170.866 E3.66917
G1 X136.918 Y170.594 E3.68752
G1 X136.125 Y170.119 E3.71827
G1 X135.716 Y169.858 E3.7344
G1 X135.178 Y169.496 E3.75597
G1 X134.653 Y169.127 E3.77731
G1 X134.278 Y168.85 E3.79282
G1 X133.479 Y168.227 E3.82652
G1 X133.015 Y167.841 E3.84659
G1 X132.479 Y167.372 E3.87028
G1 X132.07 Y166.996 E3.88876
G1 X131.743 Y166.684 E3.90379
G1 X131.523 Y166.467 E3.91407
G1 X131.093 Y166.029 E3.93448
G1 X130.851 Y165.774 E3.94618
G1 X130.634 Y165.538 E3.95684
G1 X130.113 Y164.949 E3.98299
G1 X129.76 Y164.527 E4.00129
G1 X129.337 Y163.998 E4.02382
G1 X128.94 Y163.475 E4.04566
G1 X128.486 Y162.843 E4.07154
G1 X128.15 Y162.35 E4.09139
G1 X127.837 Y161.861 E4.1107
G1 X127.428 Y161.191 E4.1368
G1 X127.127 Y160.665 E4.15696
G1 X126.764 Y159.992 E4.18239
G1 X126.51 Y159.49 E4.20111
G1 X126.211 Y158.863 E4.22421
G1 X125.956 Y158.292 E4.24501
G1 X125.703 Y157.684 E4.26691
G1 X125.315 Y156.66 E4.30333
G1 X125.228 Y156.413 E4.31204
G1 X125.019 Y155.773 E4.33444
G1 X124.832 Y155.148 E4.35613
G1 X124.615 Y154.354 E4.38351
G1 X124.499 Y153.881 E4.39971
G1 X124.395 Y153.42 E4.41543
G1 X124.228 Y152.569 E4.44427
G1 X124.097 Y151.782 E4.47081
G1 X124.016 Y151.197 E4.49045
G1 X123.95 Y150.63 E4.50944
G1 X123.905 Y150.138 E4.52587
G1 X123.838 Y149.146 E4.55894
G1 X123.816 Y148.627 E4.57622
G1 X123.807 Y147.908 E4.60013
G1 X123.815 Y147.307 E4.62012
G1 X123.841 Y146.568 E4.64472
G1 X123.871 Y146.069 E4.66134
G1 X123.892 Y145.819 E4.66969
G1 X124.072 Y143.242 E4.75561
G1 X124.175 Y140.747 E4.83866
G1 X124.205 Y137.049 E4.96166
G1 X124.279 Y135.71 E5.00627
G1 X124.303 Y135.513 E5.01287
G1 X124.452 Y134.623 E5.04288
G1 X124.679 Y133.749 E5.07291
G1 X124.994 Y132.868 E5.10403
G1 X125.075 Y132.671 E5.11112
G1 X125.455 Y131.852 E5.14115
G1 X125.906 Y131.07 E5.17117
G1 X126.366 Y130.408 E5.19798
G1 X126.544 Y130.172 E5.20782
G1 X127.119 Y129.476 E5.23784
G1 X127.753 Y128.833 E5.26788
G1 X128.531 Y128.181 E5.30164
G1 X128.749 Y128.016 E5.31073
G1 X129.493 Y127.503 E5.34079
G1 X130.279 Y127.058 E5.37083
G1 X131.101 Y126.685 E5.40085
G1 X131.953 Y126.386 E5.43089
G1 X132.828 Y126.163 E5.46092
G1 X133.299 Y126.076 E5.47685
G1 X133.531 Y126.039 E5.48466
G1 X134.428 Y125.937 E5.51469
G1 X135.331 Y125.914 E5.54473
G1 X136.584 Y126.015 E5.58654
G1 X137.132 Y126.094 E5.60496
G0 F6000 X137.173 Y125.695
G1 F1200 X139.758 Y126.031 E5.69166
G1 X142.27 Y126.285 E5.77564
G1 X144.772 Y126.467 E5.85907
G1 X147.314 Y126.579 E5.9437
G1 X149.863 Y126.62 E6.02849
G1 X152.372 Y126.589 E6.11195
G1 X154.88 Y126.487 E6.19543
G1 X157.434 Y126.31 E6.28058
G1 X159.924 Y126.068 E6.36379
G1 X162.829 Y125.696 E6.4612
G1 X163.329 Y125.624 E6.478
G1 X164.245 Y125.533 E6.50862
G1 X165.165 Y125.522 E6.53922
G1 X165.88 Y125.569 E6.56305
G1 X166.152 Y125.596 E6.57214
G1 X167.063 Y125.726 E6.60275
G1 X167.96 Y125.936 E6.63339
G1 X168.835 Y126.222 E6.66401
G1 X169.682 Y126.583 E6.69463
G1 X170.494 Y127.016 E6.72524
G1 X171.266 Y127.518 E6.75587
G1 X171.991 Y128.085 E6.78648
G1 X172.651 Y128.7 E6.81649
G1 X173.014 Y129.068 E6.83368
G1 X173.632 Y129.751 E6.86431
G1 X174.188 Y130.485 E6.89494
G1 X174.678 Y131.264 E6.92555
G1 X174.979 Y131.832 E6.94693
G1 X175.072 Y132.021 E6.95394
G1 X175.442 Y132.864 E6.98456
G1 X175.738 Y133.736 E7.01518
G1 X175.957 Y134.63 E7.0458
G1 X176.097 Y135.54 E7.07642
G1 X176.156 Y136.387 E7.10466
G1 X176.195 Y137.701 E7.14838
G1 X176.2 Y138.09 E7.16132
G1 X176.194 Y138.925 E7.1891
G1 X176.248 Y141.472 E7.27383
G1 X176.373 Y143.994 E7.35781
G1 X176.522 Y145.998 E7.42465
G1 X176.54 Y146.311 E7.43508
G1 X176.581 Y147.229 E7.46564
G1 X176.592 Y147.795 E7.48447
G1 X176.586 Y148.481 E7.50729
G1 X176.578 Y148.809 E7.5182
G1 X176.55 Y149.409 E7.53818
G1 X176.498 Y150.159 E7.56318
G1 X176.44 Y150.746 E7.5828
G1 X176.337 Y151.582 E7.61082
G1 X176.256 Y152.123 E7.62901
G1 X176.15 Y152.737 E7.64974
G1 X176.015 Y153.409 E7.67253
G1 X175.866 Y154.075 E7.69523
G1 X175.747 Y154.556 E7.71171
G1 X175.487 Y155.489 E7.74393
G1 X175.302 Y156.086 E7.76471
G1 X175.099 Y156.688 E7.78584
G1 X174.849 Y157.37 E7.81
G1 X174.574 Y158.066 E7.83489
G1 X174.343 Y158.609 E7.85452
G1 X174.061 Y159.225 E7.87705
G1 X173.723 Y159.922 E7.90282
G1 X173.471 Y160.406 E7.92097
G1 X173.106 Y161.066 E7.94605
G1 X172.768 Y161.641 E7.96824
G1 X172.426 Y162.194 E7.98986
G1 X172.031 Y162.797 E8.01384
G1 X171.683 Y163.3 E8.03418
G1 X171.255 Y163.886 E8.05832
G1 X170.864 Y164.392 E8.07959
G1 X170.348 Y165.025 E8.10675
G1 X169.985 Y165.446 E8.12524
G1 X169.588 Y165.888 E8.145
G1 X169.221 Y166.28 E8.16286
G1 X168.992 Y166.516 E8.17379
G1 X168.56 Y166.947 E8.19409
G1 X168.056 Y167.426 E8.21722
G1 X167.638 Y167.803 E8.23594
G1 X166.984 Y168.365 E8.26462
G1 X166.555 Y168.714 E8.28301
G1 X165.998 Y169.146 E8.30646
G1 X165.486 Y169.521 E8.32757
G1 X164.862 Y169.955 E8.35285
G1 X164.373 Y170.277 E8.37232
G1 X163.805 Y170.629 E8.39455
G1 X163.215 Y170.978 E8.41735
G1 X162.791 Y171.216 E8.43352
G1 X161.954 Y171.655 E8.46495
G1 X161.513 Y171.873 E8.48132
G1 X161.084 Y172.074 E8.49707
G1 X160.402 Y172.374 E8.52185
G1 X160.088 Y172.506 E8.53318
G1 X159.424 Y172.769 E8.55694
G1 X158.604 Y173.064 E8.58592
G1 X158.338 Y173.153 E8.59525
G1 X157.524 Y173.407 E8.62361
G1 X156.57 Y173.672 E8.65654
G1 X156.322 Y173.733 E8.66504
G1 X155.585 Y173.902 E8.69019
G1 X155.003 Y174.02 E8.70994
G1 X154.525 Y174.107 E8.7261
G1 X153.617 Y174.246 E8.75665
G1 X153.054 Y174.318 E8.77553
G1 X152.529 Y174.372 E8.79308
G1 X151.549 Y174.448 E8.82577
G1 X151.005 Y174.476 E8.84389
G1 X150.259 Y174.493 E8.86871
G1 X149.634 Y174.491 E8.8895
G1 X148.991 Y174.476 E8.91089
G1 X148.449 Y174.45 E8.92894
G1 X147.618 Y174.388 E8.95665
G1 X147.099 Y174.336 E8.974
G1 X146.052 Y174.201 E9.00911
G1 X145.684 Y174.144 E9.0215
G1 X145.226 Y174.063 E9.03697
G1 X144.382 Y173.894 E9.0656
G1 X144.029 Y173.817 E9.07761
G1 X143.488 Y173.686 E9.09613
G1 X142.895 Y173.529 E9.11653
G1 X141.933 Y173.244 E9.1499
G1 X141.611 Y173.139 E9.16117
G1 X140.862 Y172.876 E9.18757
G1 X140.306 Y172.665 E9.20735
G1 X139.583 Y172.37 E9.23332
G1 X138.785 Y172.015 E9.26237
G1 X138.522 Y171.89 E9.27206
G1 X137.7 Y171.481 E9.30259
G1 X137.203 Y171.215 E9.32134
G1 X136.714 Y170.938 E9.34003
G1 X135.911 Y170.457 E9.37117
G1 X135.495 Y170.191 E9.38759
G1 X134.948 Y169.823 E9.40952
G1 X134.423 Y169.454 E9.43086
G1 X134.033 Y169.167 E9.44697
G1 X133.225 Y168.536 E9.48106
G1 X132.753 Y168.143 E9.50149
G1 X132.21 Y167.668 E9.52549
G1 X131.794 Y167.285 E9.54429
G1 X131.238 Y166.748 E9.57
G1 X130.803 Y166.305 E9.59065
G1 X130.561 Y166.05 E9.60235
G1 X130.335 Y165.804 E9.61346
G1 X129.808 Y165.208 E9.63992
G1 X129.448 Y164.779 E9.65854
G1 X129.019 Y164.241 E9.68143
G1 X128.617 Y163.71 E9.70358
G1 X128.156 Y163.07 E9.72982
G1 X127.815 Y162.567 E9.75003
G1 X127.496 Y162.071 E9.76964
G1 X127.082 Y161.392 E9.79609
G1 X126.776 Y160.857 E9.81659
G1 X126.408 Y160.175 E9.84237
G1 X126.15 Y159.664 E9.86141
G1 X125.847 Y159.027 E9.88487
G1 X125.588 Y158.448 E9.90596
G1 X125.331 Y157.829 E9.92826
G1 X125.026 Y157.039 E9.95642
G1 X124.849 Y156.539 E9.97406
G1 X124.636 Y155.889 E9.99681
G1 X124.446 Y155.255 E10.01883
G1 X124.226 Y154.451 E10.04655
G1 X124.109 Y153.969 E10.06305
G1 X123.939 Y153.194 E10.08944
G1 X123.833 Y152.637 E10.1083
G1 X123.747 Y152.137 E10.12517
G1 X123.619 Y151.244 E10.15518
G1 X123.553 Y150.677 E10.17416
G1 X123.506 Y150.165 E10.19126
G1 X123.439 Y149.173 E10.22433
G1 X123.416 Y148.634 E10.24227
G1 X123.407 Y147.905 E10.26652
G1 X123.409 Y147.597 E10.27677
G1 X123.416 Y147.293 E10.28688
G1 X123.442 Y146.554 E10.31148
G1 X123.473 Y146.035 E10.32877
G1 X123.491 Y145.824 E10.33581
G1 X123.672 Y143.232 E10.42223
G1 X123.775 Y140.727 E10.50562
G1 X123.805 Y137.053 E10.62782
G1 X123.835 Y136.133 E10.65844
G1 X123.906 Y135.465 E10.68078
G1 X124.057 Y134.557 E10.71139
G1 X124.286 Y133.665 E10.74202
G1 X124.624 Y132.716 E10.77553
G1 X124.705 Y132.519 E10.78262
G1 X125.092 Y131.684 E10.81323
G1 X125.55 Y130.885 E10.84386
G1 X126.046 Y130.167 E10.87288
G1 X126.224 Y129.931 E10.88271
G1 X126.81 Y129.221 E10.91333
G1 X127.455 Y128.564 E10.94395
G1 X128.29 Y127.862 E10.98024
G1 X128.508 Y127.697 E10.98933
G1 X129.265 Y127.174 E11.01993
G1 X130.065 Y126.718 E11.05056
G1 X130.902 Y126.334 E11.08119
G1 X131.769 Y126.024 E11.11181
G1 X132.659 Y125.79 E11.14242
G1 X133.236 Y125.681 E11.16195
G1 X133.468 Y125.644 E11.16977
G1 X134.382 Y125.539 E11.20037
G1 X135.302 Y125.513 E11.23098
G1 X136.641 Y125.619 E11.27565
G1 X137.173 Y125.695 E11.29353
G0 F6000 X136.698 Y125.223
G1 F1200 X137.204 Y125.295 E11.31052
G1 X139.817 Y125.635 E11.39817
G1 X142.303 Y125.886 E11.48127
G1 X144.818 Y126.069 E11.56514
G1 X147.304 Y126.179 E11.64791
G1 X149.864 Y126.22 E11.73306
G1 X152.352 Y126.189 E11.81582
G1 X154.873 Y126.086 E11.89974
G1 X157.401 Y125.912 E11.98402
G1 X159.868 Y125.672 E12.06646
G1 X162.787 Y125.298 E12.16434
G1 X163.272 Y125.228 E12.18064
G1 X164.205 Y125.135 E12.21182
G1 X165.143 Y125.121 E12.24303
G1 X165.92 Y125.171 E12.26892
G1 X166.192 Y125.198 E12.27801
G1 X167.12 Y125.33 E12.30919
G1 X168.034 Y125.541 E12.34039
G1 X168.926 Y125.829 E12.37157
G1 X169.791 Y126.192 E12.40277
G1 X170.622 Y126.628 E12.43398
G1 X171.413 Y127.132 E12.46517
G1 X172.157 Y127.702 E12.49635
G1 X172.936 Y128.419 E12.53156
G1 X173.299 Y128.787 E12.54875
G1 X173.929 Y129.482 E12.57995
G1 X174.497 Y130.229 E12.61116
G1 X174.999 Y131.021 E12.64235
G1 X175.338 Y131.655 E12.66626
G1 X175.431 Y131.844 E12.67327
G1 X175.809 Y132.703 E12.70448
G1 X176.112 Y133.59 E12.73566
G1 X176.339 Y134.5 E12.76685
G1 X176.487 Y135.426 E12.79804
G1 X176.556 Y136.375 E12.82969
G1 X176.595 Y137.689 E12.87341
G1 X176.6 Y138.093 E12.88685
G1 X176.594 Y138.919 E12.91433
G1 X176.648 Y141.443 E12.99829
G1 X176.774 Y143.987 E13.08301
G1 X176.921 Y145.969 E13.14911
G1 X176.94 Y146.293 E13.15991
G1 X176.981 Y147.211 E13.19047
G1 X176.992 Y147.798 E13.21
G1 X176.986 Y148.484 E13.23282
G1 X176.964 Y149.152 E13.25505
G1 X176.949 Y149.435 E13.26447
G1 X176.896 Y150.195 E13.28981
G1 X176.837 Y150.794 E13.30983
G1 X176.733 Y151.639 E13.33815
G1 X176.651 Y152.189 E13.35664
G1 X176.543 Y152.813 E13.37771
G1 X176.406 Y153.497 E13.40091
G1 X176.257 Y154.163 E13.42361
G1 X176.133 Y154.661 E13.44068
G1 X175.87 Y155.606 E13.4733
G1 X175.682 Y156.211 E13.49437
G1 X175.476 Y156.824 E13.51588
G1 X175.222 Y157.516 E13.5404
G1 X174.944 Y158.22 E13.56557
G1 X174.836 Y158.479 E13.57491
G1 X174.707 Y158.774 E13.58562
G1 X174.422 Y159.398 E13.60843
G1 X174.079 Y160.105 E13.63457
G1 X173.822 Y160.597 E13.65303
G1 X173.452 Y161.267 E13.67849
G1 X173.11 Y161.85 E13.70097
G1 X172.762 Y162.411 E13.72293
G1 X172.361 Y163.024 E13.74729
G1 X172.007 Y163.534 E13.76794
G1 X171.573 Y164.128 E13.79241
G1 X171.175 Y164.644 E13.81408
G1 X170.652 Y165.284 E13.84157
G1 X170.284 Y165.712 E13.86034
G1 X169.88 Y166.161 E13.88043
G1 X169.276 Y166.799 E13.90965
G1 X168.837 Y167.235 E13.93023
G1 X168.326 Y167.722 E13.95371
G1 X167.9 Y168.106 E13.97279
G1 X167.238 Y168.674 E14.0018
G1 X166.802 Y169.028 E14.02048
G1 X166.236 Y169.467 E14.0443
G1 X165.715 Y169.849 E14.06579
G1 X165.084 Y170.288 E14.09136
G1 X164.586 Y170.615 E14.11117
G1 X164.008 Y170.974 E14.1338
G1 X163.418 Y171.323 E14.1566
G1 X162.978 Y171.569 E14.17337
G1 X162.132 Y172.014 E14.20516
G1 X161.691 Y172.232 E14.22152
G1 X161.245 Y172.44 E14.23789
