;FLAVOR:Marlin
;TIME:1611
;Filament used: 1.80106m
;Layer height: 0.28
;MINX:108
;MINY:113.099
;MINZ:0.28
;MAXX:172.944
;MAXY:186.913
;MAXZ:3.92
;Generated with Cura_SteamEngine 4.5.0
M140 S50
M105
M190 S50
M104 S200
M105
M109 S200
M82 ;absolute extrusion mode
M201 X500.00 Y500.00 Z100.00 E5000.00 ;Setup machine max acceleration
M203 X500.00 Y500.00 Z10.00 E50.00 ;Setup machine max feedrate
M204 P500.00 R1000.00 T500.00 ;Setup Print/Retract/Travel acceleration
M205 X8.00 Y8.00 Z0.40 E5.00 ;Setup Jerk
M220 S100 ;Reset Feedrate
M221 S100 ;Reset Flowrate

G28 ;Home

G92 E0 ;Reset Extruder
G1 Z2.0 F3000 ;Move Z Axis up
G1 X10.1 Y20 Z0.28 F5000.0 ;Move to start position
G1 X10.1 Y200.0 Z0.28 F1500.0 E15 ;Draw the first line
G1 X10.4 Y200.0 Z0.28 F5000.0 ;Move to side a little
G1 X10.4 Y20 Z0.28 F1500.0 E30 ;Draw the second line
G92 E0 ;Reset Extruder
G1 Z2.0 F3000 ;Move Z Axis up

G92 E0
G92 E0
G1 F2700 E-5
;LAYER_COUNT:14
;LAYER:0
M107
G0 F6000 X111.895 Y122.472 Z0.28
;TYPE:SKIRT
G1 F2700 E0
G1 F1200 X112.635 Y121.896 E0.06288
G1 X113.422 Y121.386 E0.12576
G1 X114.25 Y120.944 E0.18869
G1 X115.112 Y120.575 E0.25157
G1 X116.002 Y120.28 E0.31444
G1 X116.519 Y120.147 E0.35023
G1 X117.546 Y119.908 E0.42093
G1 X120.335 Y119.231 E0.61337
G1 X122.718 Y118.577 E0.77907
G1 X125.139 Y117.837 E0.94882
G1 X127.524 Y117.034 E1.11756
G1 X129.883 Y116.166 E1.2861
G1 X132.207 Y115.234 E1.454
G1 X134.047 Y114.432 E1.58858
G1 X134.753 Y114.133 E1.63999
G1 X135.632 Y113.804 E1.70292
G1 X136.18 Y113.641 E1.74126
G1 X136.499 Y113.555 E1.76341
G1 X137.414 Y113.35 E1.82629
G1 X138.75 Y113.193 E1.91649
G1 X139.127 Y113.172 E1.9418
G1 X139.515 Y113.157 E1.96784
G1 X140.49 Y113.139 E2.03323
G1 X145.957 Y113.121 E2.3998
G1 X159.814 Y113.099 E3.32895
G1 X160.787 Y113.117 E3.3942
G1 X160.998 Y113.127 E3.40837
G1 X161.932 Y113.212 E3.47125
G1 X162.634 Y113.329 E3.51897
G1 X162.834 Y113.369 E3.53265
G1 X163.745 Y113.592 E3.59554
G1 X164.354 Y113.788 E3.63844
G1 X164.619 Y113.882 E3.65729
G1 X165.489 Y114.233 E3.72019
G1 X166.261 Y114.62 E3.7781
G1 X166.471 Y114.736 E3.79419
G1 X167.272 Y115.224 E3.85708
G1 X168.141 Y115.87 E3.92968
G1 X168.361 Y116.051 E3.94878
G1 X169.059 Y116.678 E4.0117
G1 X169.708 Y117.369 E4.07526
G1 X169.869 Y117.556 E4.09181
G1 X170.45 Y118.292 E4.15468
G1 X170.765 Y118.753 E4.19212
G1 X170.879 Y118.929 E4.20618
G1 X171.355 Y119.737 E4.26906
G1 X171.687 Y120.415 E4.31968
G1 X171.781 Y120.625 E4.33511
G1 X172.127 Y121.496 E4.39795
G1 X172.326 Y122.124 E4.44212
G1 X172.384 Y122.329 E4.45641
G1 X172.6 Y123.242 E4.51932
G1 X172.738 Y124.17 E4.58223
G1 X172.791 Y124.898 E4.63117
G1 X172.84 Y126.162 E4.71599
G1 X172.848 Y126.563 E4.74288
G1 X172.856 Y132.746 E5.15747
G1 X172.868 Y134.955 E5.30559
G1 X172.872 Y137.436 E5.47194
G1 X172.867 Y137.86 E5.50038
G1 X172.879 Y139.951 E5.64059
G1 X172.879 Y142.804 E5.83189
G1 X172.891 Y144.952 E5.97592
G1 X172.895 Y147.436 E6.14248
G1 X172.89 Y147.86 E6.17091
G1 X172.902 Y149.951 E6.31112
G1 X172.906 Y152.425 E6.477
G1 X172.901 Y152.839 E6.50477
G1 X172.913 Y154.951 E6.64638
G1 X172.913 Y157.734 E6.83299
G1 X172.926 Y159.949 E6.98151
G1 X172.93 Y162.426 E7.1476
G1 X172.924 Y162.905 E7.17972
G1 X172.936 Y165.109 E7.32751
G1 X172.944 Y170.012 E7.65627
G1 X172.94 Y173.842 E7.91308
G1 X172.93 Y174.554 E7.96082
G1 X172.835 Y175.848 E8.04782
G1 X172.803 Y176.089 E8.06413
G1 X172.64 Y177.012 E8.12697
G1 X172.498 Y177.583 E8.16643
G1 X172.435 Y177.81 E8.18222
G1 X172.146 Y178.702 E8.24509
G1 X171.726 Y179.683 E8.31665
G1 X171.56 Y180.024 E8.34208
G1 X171.114 Y180.849 E8.40496
G1 X170.6 Y181.633 E8.46782
G1 X170.229 Y182.119 E8.50882
G1 X170.053 Y182.337 E8.52761
G1 X169.433 Y183.041 E8.59051
G1 X168.747 Y183.697 E8.65415
G1 X168.552 Y183.868 E8.67154
G1 X167.821 Y184.456 E8.73445
G1 X166.692 Y185.185 E8.82456
G1 X166.388 Y185.356 E8.84795
G1 X165.552 Y185.781 E8.91083
G1 X164.618 Y186.155 E8.97829
G1 X164.403 Y186.23 E8.99356
G1 X163.505 Y186.501 E9.05645
G1 X162.587 Y186.694 E9.11935
G1 X162.121 Y186.762 E9.15093
G1 X161.779 Y186.804 E9.17404
G1 X160.663 Y186.884 E9.24906
G1 X159.374 Y186.908 E9.3355
G1 X153.755 Y186.913 E9.71227
G1 X140.047 Y186.898 E10.63143
G1 X139.387 Y186.888 E10.67569
G1 X138.451 Y186.834 E10.73855
G1 X137.523 Y186.7 E10.80142
G1 X136.676 Y186.506 E10.85969
G1 X136.226 Y186.384 E10.89095
G1 X135.332 Y186.1 E10.95385
G1 X134.166 Y185.596 E11.03902
G1 X133.955 Y185.49 E11.05485
G1 X133.493 Y185.245 E11.08992
G1 X132.744 Y184.823 E11.14756
G1 X130.561 Y183.632 E11.31431
G1 X128.27 Y182.466 E11.48667
G1 X126.012 Y181.395 E11.65425
G1 X123.725 Y180.39 E11.82175
G1 X121.373 Y179.433 E11.99201
G1 X119.018 Y178.553 E12.16058
G1 X116.626 Y177.735 E12.33009
G1 X115.836 Y177.483 E12.38569
G1 X115.479 Y177.362 E12.41097
G1 X114.604 Y177.023 E12.47389
G1 X113.762 Y176.611 E12.53674
G1 X112.957 Y176.129 E12.59966
G1 X112.197 Y175.58 E12.66252
G1 X111.486 Y174.968 E12.72542
G1 X110.83 Y174.298 E12.7883
G1 X110.233 Y173.575 E12.85117
G1 X109.7 Y172.803 E12.91407
G1 X109.235 Y171.989 E12.97693
G1 X108.841 Y171.138 E13.03981
G1 X108.521 Y170.256 E13.10272
G1 X108.277 Y169.351 E13.16557
G1 X108.111 Y168.428 E13.22845
G1 X108.015 Y167.285 E13.30537
G1 X108.005 Y166.963 E13.32697
G1 X108 Y166.622 E13.34983
G1 X108.001 Y131.39 E15.71223
G1 X108.011 Y130.701 E15.75843
G1 X108.065 Y129.765 E15.82129
G1 X108.198 Y128.837 E15.88416
G1 X108.41 Y127.923 E15.94707
G1 X108.698 Y127.031 E16.00992
G1 X109.062 Y126.166 E16.07285
G1 X109.498 Y125.336 E16.13571
G1 X110.003 Y124.546 E16.19858
G1 X110.574 Y123.802 E16.26147
G1 X111.206 Y123.109 E16.32435
G1 X111.895 Y122.472 E16.38727
G0 F6000 X112.283 Y122.669
G1 F1200 X113.02 Y122.116 E16.44906
G1 X113.801 Y121.629 E16.51077
G1 X114.622 Y121.212 E16.57251
G1 X115.476 Y120.868 E16.63425
G1 X116.609 Y120.536 E16.71341
G1 X117.74 Y120.273 E16.79127
G1 X120.431 Y119.62 E16.97695
G1 X122.825 Y118.962 E17.14342
G1 X125.257 Y118.22 E17.31392
G1 X127.642 Y117.417 E17.48266
G1 X130.034 Y116.536 E17.65358
G1 X132.378 Y115.596 E17.82292
G1 X134.203 Y114.8 E17.95642
G1 X134.909 Y114.501 E18.00783
G1 X135.772 Y114.179 E18.06959
G1 X136.284 Y114.027 E18.10541
G1 X136.603 Y113.941 E18.12756
G1 X137.501 Y113.741 E18.18925
G1 X138.772 Y113.592 E18.27505
G1 X139.149 Y113.571 E18.30037
G1 X139.524 Y113.557 E18.32553
G1 X140.491 Y113.539 E18.39039
G1 X145.958 Y113.521 E18.75696
G1 X159.809 Y113.499 E19.68571
G1 X160.979 Y113.527 E19.76418
G1 X161.896 Y113.61 E19.82592
G1 X162.556 Y113.721 E19.8708
G1 X162.756 Y113.761 E19.88447
G1 X163.65 Y113.98 E19.94619
G1 X164.221 Y114.165 E19.98644
G1 X164.486 Y114.259 E20.00529
G1 X165.339 Y114.604 E20.06699
G1 X166.067 Y114.97 E20.12162
G1 X166.277 Y115.086 E20.13771
G1 X167.063 Y115.566 E20.19946
G1 X167.887 Y116.179 E20.26833
G1 X168.107 Y116.36 E20.28743
G1 X168.791 Y116.976 E20.34915
G1 X169.405 Y117.63 E20.4093
G1 X169.566 Y117.817 E20.42584
G1 X170.136 Y118.54 E20.48758
G1 X170.43 Y118.97 E20.52251
G1 X170.544 Y119.146 E20.53657
G1 X171.01 Y119.94 E20.5983
G1 X171.322 Y120.578 E20.64592
G1 X171.416 Y120.788 E20.66135
G1 X171.755 Y121.644 E20.72308
G1 X171.941 Y122.233 E20.7645
G1 X171.999 Y122.438 E20.77878
G1 X172.211 Y123.334 E20.84052
G1 X172.344 Y124.245 E20.90225
G1 X172.391 Y124.913 E20.94715
G1 X172.44 Y126.177 E21.03197
G1 X172.448 Y126.564 E21.05793
G1 X172.456 Y132.742 E21.47218
G1 X172.468 Y134.957 E21.6207
G1 X172.472 Y137.432 E21.78665
G1 X172.467 Y137.858 E21.81522
G1 X172.479 Y139.953 E21.9557
G1 X172.479 Y142.802 E22.14673
G1 X172.491 Y144.954 E22.29103
G1 X172.495 Y147.432 E22.45719
G1 X172.49 Y147.858 E22.48575
G1 X172.502 Y149.953 E22.62623
G1 X172.506 Y152.42 E22.79165
G1 X172.501 Y152.839 E22.81974
G1 X172.513 Y154.953 E22.9615
G1 X172.513 Y157.734 E23.14797
G1 X172.526 Y159.952 E23.29669
G1 X172.53 Y162.421 E23.46225
G1 X172.524 Y162.905 E23.4947
G1 X172.536 Y165.111 E23.64262
G1 X172.544 Y170.013 E23.97131
G1 X172.54 Y173.837 E24.22772
G1 X172.53 Y174.549 E24.27547
G1 X172.439 Y175.795 E24.35924
G1 X172.407 Y176.036 E24.37554
G1 X172.246 Y176.943 E24.43731
G1 X172.113 Y177.476 E24.47414
G1 X172.05 Y177.703 E24.48994
G1 X171.765 Y178.578 E24.55164
G1 X171.367 Y179.508 E24.61947
G1 X171.201 Y179.849 E24.6449
G1 X170.762 Y180.658 E24.70662
G1 X170.255 Y181.426 E24.76832
G1 X169.918 Y181.868 E24.80559
G1 X169.742 Y182.086 E24.82438
G1 X169.133 Y182.776 E24.88609
G1 X168.483 Y183.397 E24.94637
G1 X168.288 Y183.568 E24.96376
G1 X167.57 Y184.144 E25.02548
G1 X166.496 Y184.837 E25.11118
G1 X166.192 Y185.008 E25.13457
G1 X165.371 Y185.424 E25.19628
G1 X164.486 Y185.778 E25.2602
G1 X164.271 Y185.853 E25.27547
G1 X163.39 Y186.118 E25.33715
G1 X162.072 Y186.365 E25.42707
G1 X161.73 Y186.407 E25.45017
G1 X160.655 Y186.484 E25.52244
G1 X159.373 Y186.508 E25.60841
G1 X153.754 Y186.513 E25.98518
G1 X140.053 Y186.498 E26.90387
G1 X139.393 Y186.488 E26.94813
G1 X138.474 Y186.434 E27.00985
G1 X137.563 Y186.3 E27.0716
G1 X136.78 Y186.12 E27.12547
G1 X136.33 Y185.998 E27.15673
G1 X135.453 Y185.718 E27.21846
G1 X134.346 Y185.239 E27.29934
G1 X134.135 Y185.133 E27.31517
G1 X133.69 Y184.896 E27.34898
G1 X133.007 Y184.511 E27.40155
G1 X130.712 Y183.26 E27.57681
G1 X128.486 Y182.127 E27.74429
G1 X126.166 Y181.026 E27.91648
G1 X123.858 Y180.012 E28.08552
G1 X121.528 Y179.064 E28.25418
G1 X119.171 Y178.183 E28.42291
G1 X116.75 Y177.355 E28.59447
G1 X115.964 Y177.104 E28.6498
G1 X115.607 Y176.983 E28.67507
G1 X114.749 Y176.65 E28.73678
G1 X113.923 Y176.244 E28.7985
G1 X113.135 Y175.767 E28.86026
G1 X112.392 Y175.224 E28.92197
G1 X111.698 Y174.619 E28.9837
G1 X111.06 Y173.955 E29.04545
G1 X110.482 Y173.239 E29.10715
G1 X109.967 Y172.475 E29.16893
G1 X109.522 Y171.67 E29.2306
G1 X109.147 Y170.828 E29.29241
G1 X108.848 Y169.958 E29.35409
G1 X108.624 Y169.065 E29.41583
G1 X108.479 Y168.156 E29.47755
G1 X108.415 Y167.273 E29.53691
G1 X108.405 Y166.951 E29.55851
G1 X108.4 Y166.622 E29.58057
G1 X108.401 Y131.396 E31.94256
G1 X108.411 Y130.707 E31.98877
G1 X108.464 Y129.788 E32.05049
G1 X108.597 Y128.877 E32.11222
G1 X108.809 Y127.981 E32.17396
G1 X109.097 Y127.107 E32.23566
G1 X109.46 Y126.261 E32.29739
G1 X109.895 Y125.449 E32.35916
G1 X110.399 Y124.679 E32.42087
G1 X110.968 Y123.955 E32.48261
G1 X111.598 Y123.283 E32.54437
G1 X112.283 Y122.669 E32.60606
G0 F6000 X112.671 Y122.87
G1 F1200 X113.403 Y122.34 E32.66665
G1 X114.179 Y121.878 E32.72721
G1 X114.992 Y121.486 E32.78773
G1 X115.837 Y121.167 E32.84829
G1 X116.7 Y120.926 E32.90837
G1 X117.801 Y120.67 E32.98417
G1 X120.503 Y120.014 E33.1706
G1 X122.943 Y119.344 E33.34027
G1 X125.385 Y118.598 E33.51148
G1 X127.802 Y117.785 E33.68247
G1 X130.184 Y116.907 E33.85269
G1 X132.494 Y115.982 E34.01954
G1 X134.359 Y115.169 E34.15596
G1 X135.065 Y114.87 E34.20737
G1 X135.912 Y114.555 E34.26796
G1 X136.388 Y114.414 E34.30125
G1 X136.707 Y114.328 E34.3234
G1 X137.588 Y114.131 E34.38393
G1 X138.795 Y113.992 E34.4654
G1 X139.172 Y113.971 E34.49072
G1 X139.532 Y113.957 E34.51488
G1 X140.492 Y113.939 E34.57926
G1 X145.959 Y113.921 E34.94584
G1 X159.804 Y113.899 E35.87418
G1 X160.749 Y113.916 E35.93755
G1 X160.96 Y113.926 E35.95172
G1 X161.859 Y114.009 E36.01225
G1 X162.477 Y114.113 E36.05427
G1 X162.677 Y114.153 E36.06795
G1 X163.554 Y114.369 E36.12851
G1 X164.087 Y114.542 E36.16609
G1 X164.352 Y114.636 E36.18494
G1 X165.189 Y114.975 E36.24549
G1 X165.874 Y115.321 E36.29695
G1 X166.084 Y115.437 E36.31304
G1 X166.854 Y115.908 E36.37356
G1 X167.632 Y116.488 E36.43863
G1 X167.852 Y116.669 E36.45773
G1 X168.524 Y117.273 E36.51832
G1 X169.102 Y117.891 E36.57505
G1 X169.263 Y118.078 E36.5916
G1 X169.821 Y118.788 E36.65215
G1 X170.094 Y119.188 E36.68462
G1 X170.208 Y119.364 E36.69868
G1 X170.665 Y120.143 E36.75924
G1 X170.957 Y120.742 E36.80392
G1 X171.051 Y120.952 E36.81935
G1 X171.383 Y121.792 E36.87991
G1 X171.556 Y122.342 E36.91857
G1 X171.614 Y122.547 E36.93286
G1 X171.821 Y123.426 E36.99341
G1 X171.949 Y124.32 E37.05397
G1 X171.991 Y124.929 E37.0949
G1 X172.04 Y126.193 E37.17972
G1 X172.048 Y126.565 E37.20467
G1 X172.056 Y132.739 E37.61865
G1 X172.068 Y134.959 E37.76751
G1 X172.072 Y137.427 E37.93299
G1 X172.067 Y137.855 E37.96169
G1 X172.079 Y139.955 E38.10251
G1 X172.079 Y142.8 E38.29327
G1 X172.091 Y144.957 E38.4379
G1 X172.095 Y147.427 E38.60352
G1 X172.09 Y147.855 E38.63222
G1 X172.102 Y149.955 E38.77304
G1 X172.106 Y152.416 E38.93805
G1 X172.101 Y152.837 E38.96628
G1 X172.113 Y154.956 E39.10837
G1 X172.113 Y157.733 E39.29458
G1 X172.126 Y159.954 E39.4435
G1 X172.13 Y162.417 E39.60865
G1 X172.124 Y162.905 E39.64138
G1 X172.136 Y165.113 E39.78943
G1 X172.144 Y170.013 E40.11799
G1 X172.14 Y173.831 E40.37399
G1 X172.13 Y174.543 E40.42174
G1 X172.042 Y175.743 E40.50242
G1 X172.01 Y175.984 E40.51872
G1 X171.852 Y176.873 E40.57926
G1 X171.728 Y177.369 E40.61355
G1 X171.665 Y177.596 E40.62934
G1 X171.385 Y178.454 E40.68986
G1 X171.007 Y179.333 E40.75402
G1 X170.841 Y179.674 E40.77945
G1 X170.41 Y180.467 E40.83996
G1 X169.911 Y181.22 E40.90054
G1 X169.606 Y181.616 E40.93405
G1 X169.43 Y181.834 E40.95284
G1 X168.833 Y182.511 E41.01336
G1 X168.219 Y183.096 E41.07023
G1 X168.024 Y183.267 E41.08762
G1 X167.319 Y183.832 E41.1482
G1 X166.3 Y184.488 E41.22946
G1 X165.996 Y184.659 E41.25284
G1 X165.19 Y185.067 E41.31342
G1 X164.355 Y185.4 E41.3737
G1 X164.14 Y185.475 E41.38896
G1 X163.275 Y185.734 E41.44951
G1 X162.023 Y185.968 E41.53491
G1 X161.681 Y186.01 E41.55802
G1 X160.647 Y186.084 E41.62753
G1 X159.373 Y186.108 E41.71297
G1 X153.754 Y186.113 E42.08973
G1 X140.059 Y186.098 E43.00802
G1 X139.399 Y186.088 E43.05228
G1 X138.498 Y186.034 E43.1128
G1 X137.605 Y185.901 E43.17334
G1 X136.885 Y185.734 E43.2229
G1 X136.435 Y185.612 E43.25416
G1 X135.575 Y185.337 E43.3147
G1 X134.525 Y184.882 E43.39143
G1 X134.314 Y184.776 E43.40727
G1 X133.886 Y184.548 E43.43978
G1 X133.158 Y184.138 E43.4958
G1 X130.921 Y182.918 E43.66666
G1 X128.618 Y181.745 E43.83996
G1 X126.362 Y180.676 E44.00735
G1 X124.021 Y179.647 E44.17881
G1 X121.652 Y178.683 E44.35031
G1 X119.335 Y177.817 E44.51617
G1 X116.834 Y176.962 E44.69339
G1 X116.093 Y176.725 E44.74556
G1 X115.736 Y176.604 E44.77083
G1 X114.894 Y176.277 E44.8314
G1 X114.085 Y175.876 E44.89194
G1 X113.314 Y175.405 E44.95253
G1 X112.588 Y174.868 E45.01307
G1 X111.912 Y174.269 E45.07364
G1 X111.292 Y173.613 E45.13416
G1 X110.732 Y172.904 E45.19474
G1 X110.238 Y172.148 E45.2553
G1 X109.812 Y171.352 E45.31583
G1 X109.458 Y170.521 E45.3764
G1 X109.179 Y169.662 E45.43696
G1 X108.977 Y168.782 E45.4975
G1 X108.854 Y167.887 E45.55807
G1 X108.815 Y167.261 E45.60013
G1 X108.8 Y166.622 E45.64299
G1 X108.801 Y131.402 E48.00458
G1 X108.811 Y130.713 E48.05078
G1 X108.864 Y129.811 E48.11137
G1 X108.997 Y128.918 E48.1719
G1 X109.208 Y128.04 E48.23245
G1 X109.496 Y127.184 E48.29301
G1 X109.858 Y126.357 E48.35354
G1 X110.293 Y125.565 E48.41413
G1 X110.795 Y124.815 E48.47465
G1 X111.362 Y124.112 E48.5352
G1 X111.989 Y123.462 E48.59576
G1 X112.671 Y122.87 E48.65632
G1 F2700 E43.65632
;MESH:Body_Trimmer-2.stl
G0 F6000 X119.414 Y130.187
G0 X119.414 Y131.266
G0 X119.782 Y166.17
G0 X120.4 Y166.352
;TYPE:WALL-INNER
G1 F2700 E48.65632
G1 F1200 X119.6 Y166.352 E48.70772
G1 X119.6 Y131.452 E50.95035
G1 X120.4 Y131.452 E51.00175
G1 X120.4 Y166.352 E53.24438
G0 F6000 X120.8 Y166.752
;TYPE:WALL-OUTER
G1 F1200 X119.2 Y166.752 E53.34719
G1 X119.2 Y131.052 E55.64122
G1 X120.8 Y131.052 E55.74404
G1 X120.8 Y166.752 E58.03807
G0 F6000 X120.53 Y166.482
G0 X120.29 Y165.962
G0 X120.01 Y165.962
;TYPE:SKIN
G1 F1200 X119.99 Y165.962 E58.03935
G1 X119.99 Y131.842 E60.23186
G1 X120.01 Y131.842 E60.23314
G1 X120.01 Y165.962 E62.42564
G0 F6000 X120.01 Y166.152
G1 F2700 E57.42564
;MESH:Body_Trimmer-1.stl
G0 F6000 X120.01 Y166.242
G0 X120.586 Y166.538
G0 X121.665 Y166.538
G0 X149.502 Y166.409
G0 X148.059 Y166.538
G0 X148.249 Y167.662
;TYPE:WALL-INNER
G1 F2700 E62.42564
G1 F1200 X151.849 Y167.662 E62.65698
G1 X151.849 Y129.962 E65.07952
G1 X148.249 Y129.962 E65.31085
G1 X148.249 Y167.662 E67.7334
G0 F6000 X148.649 Y167.262
;TYPE:WALL-OUTER
G1 F1200 X151.449 Y167.262 E67.91333
G1 X151.449 Y130.362 E70.28447
