;FLAVOR:Marlin
;TIME:5904
;Filament used: 6.63961m
;Layer height: 0.28
;MINX:11.001
;MINY:32.602
;MINZ:0.28
;MAXX:194.21
;MAXY:251.319
;MAXZ:0.84
;Generated with Cura_SteamEngine 4.5.0
M140 S60
M105
M190 S60
M104 S210
M105
M109 S210
M82 ;absolute extrusion mode
M201 X500.00 Y500.00 Z100.00 E5000.00 ;Setup machine max acceleration
M203 X500.00 Y500.00 Z10.00 E50.00 ;Setup machine max feedrate
M204 P500.00 R1000.00 T500.00 ;Setup Print/Retract/Travel acceleration
M205 X8.00 Y8.00 Z0.40 E5.00 ;Setup Jerk
M220 S100 ;Reset Feedrate
M221 S100 ;Reset Flowrate

G28 ;Home

G92 E0 ;Reset Extruder
G1 Z2.0 F3000 ;Move Z Axis up
G1 X10.1 Y20 Z0.28 F5000.0 ;Move to start position
G1 X10.1 Y200.0 Z0.28 F1500.0 E15 ;Draw the first line
G1 X10.4 Y200.0 Z0.28 F5000.0 ;Move to side a little
G1 X10.4 Y20 Z0.28 F1500.0 E30 ;Draw the second line
G92 E0 ;Reset Extruder
G1 Z2.0 F3000 ;Move Z Axis up

G92 E0
G92 E0
G1 F2700 E-5
;LAYER_COUNT:3
;LAYER:0
M107
;MESH:MUGGLES.stl
G0 F6000 X23.127 Y46.054 Z0.28
;TYPE:WALL-INNER
G1 F2700 E0
G1 F1200 X23.127 Y42.38 E0.25662
G1 X17.248 Y42.38 E0.66724
G1 X16.972 Y42.402 E0.68658
G1 X16.666 Y42.485 E0.70873
G1 X16.383 Y42.617 E0.73054
G1 X16.125 Y42.797 E0.75251
G1 X15.901 Y43.021 E0.77464
G1 X15.721 Y43.279 E0.79661
G1 X15.59 Y43.562 E0.81839
G1 X15.506 Y43.867 E0.84049
G1 X15.484 Y44.144 E0.85989
G1 X15.484 Y44.278 E0.86925
G1 X15.506 Y44.564 E0.88929
G1 X15.589 Y44.872 E0.91157
G1 X15.721 Y45.155 E0.93338
G1 X15.901 Y45.413 E0.95535
G1 X16.125 Y45.637 E0.97748
G1 X16.383 Y45.817 E0.99945
G1 X16.666 Y45.949 E1.02126
G1 X16.972 Y46.032 E1.04341
G1 X17.248 Y46.054 E1.06275
G1 X23.127 Y46.054 E1.47337
G0 F6000 X22.527 Y45.454
;TYPE:WALL-OUTER
G1 F1200 X22.527 Y42.98 E1.64617
G1 X17.272 Y42.98 E2.01321
G1 X17.076 Y42.996 E2.02695
G1 X16.873 Y43.051 E2.04164
G1 X16.684 Y43.139 E2.0562
G1 X16.512 Y43.259 E2.07085
G1 X16.363 Y43.408 E2.08557
G1 X16.243 Y43.58 E2.10022
G1 X16.155 Y43.769 E2.11478
G1 X16.1 Y43.971 E2.1294
G1 X16.084 Y44.168 E2.14321
G1 X16.084 Y44.255 E2.14928
G1 X16.1 Y44.462 E2.16378
G1 X16.155 Y44.665 E2.17847
G1 X16.243 Y44.854 E2.19303
G1 X16.363 Y45.026 E2.20768
G1 X16.512 Y45.175 E2.2224
G1 X16.684 Y45.295 E2.23705
G1 X16.873 Y45.383 E2.25161
G1 X17.076 Y45.438 E2.2663
G1 X17.272 Y45.454 E2.28004
G1 X22.527 Y45.454 E2.64708
G0 F6000 X22.927 Y45.454
G0 X25.275 Y45.749
G0 X33.452 Y46.054
;TYPE:WALL-INNER
G1 F1200 X33.452 Y42.38 E2.90369
G1 X25.264 Y42.38 E3.4756
G1 X25.264 Y46.054 E3.73221
G1 X33.452 Y46.054 E4.30411
G0 F6000 X32.852 Y45.454
;TYPE:WALL-OUTER
G1 F1200 X32.852 Y42.98 E4.47691
G1 X25.864 Y42.98 E4.965
G1 X25.864 Y45.454 E5.1378
G1 X32.852 Y45.454 E5.62588
G0 F6000 X33.252 Y45.454
G0 X35.6 Y45.749
G0 X43.777 Y46.054
;TYPE:WALL-INNER
G1 F1200 X43.777 Y42.38 E5.8825
G1 X35.589 Y42.38 E6.4544
G1 X35.589 Y46.054 E6.71102
G1 X43.777 Y46.054 E7.28292
G0 F6000 X43.177 Y45.454
;TYPE:WALL-OUTER
G1 F1200 X43.177 Y42.98 E7.45572
G1 X36.189 Y42.98 E7.9438
G1 X36.189 Y45.454 E8.1166
G1 X43.177 Y45.454 E8.60469
G1 F2700 E3.60469
G0 F6000 X43.577 Y45.454
G0 X56.661 Y48.828
G0 X78.708 Y49.117
;TYPE:WALL-INNER
G1 F2700 E8.60469
G1 F1200 X78.726 Y49.038 E8.61035
G1 X78.827 Y48.618 E8.64052
G1 X78.933 Y49.063 E8.64748
G1 X78.939 Y49.088
G1 X81.821 Y49.117 E8.84879
G1 X82.879 Y49.117 E8.92269
G1 X82.888 Y49.076 E8.92562
G1 X82.971 Y48.72 E8.95115
G1 X83.055 Y49.074 E8.95517
G1 X83.066 Y49.117
G1 X89.849 Y49.117 E9.42894
G1 X89.849 Y47.562 E9.53755
G1 X89.849 Y47.519 E9.54056
G1 X90.27 Y47.562 E9.56039
G1 X90.26 Y47.608
G1 X89.93 Y49.117 E9.60503
G1 X94.544 Y49.117 E9.9273
G1 X94.218 Y47.611 E10.03492
G1 X94.207 Y47.563 E10.03836
G1 X94.637 Y47.519 E10.05865
G1 X94.637 Y47.563
G1 X94.637 Y49.117 E10.10583
G1 X106.135 Y49.117 E10.90893
G1 X106.42 Y47.966 E10.99175
G1 X106.885 Y48.03 E11.02453
G1 X107.244 Y47.997 E11.04971
G1 X107.397 Y47.973 E11.06053
G1 X107.726 Y49.117 E11.14367
G1 X113.538 Y49.117 E11.54962
G1 X113.823 Y47.966 E11.63244
G1 X114.286 Y48.03 E11.66509
G1 X114.647 Y47.997 E11.69041
G1 X114.8 Y47.973 E11.70122
G1 X115.129 Y49.117 E11.78437
G1 X125.278 Y49.117 E12.49324
G1 X125.278 Y47.91 E12.57754
G1 X128.531 Y47.91 E12.80475
G1 X128.531 Y49.117 E12.88906
G1 X132.348 Y49.117 E13.15566
G1 X132.674 Y48.038 E13.23439
G1 X132.728 Y48.047 E13.23821
G1 X133.047 Y48.068 E13.26054
G1 X133.358 Y48.056 E13.28228
G1 X133.547 Y48.034 E13.29557
G1 X133.884 Y49.117 E13.37479
G1 X146.798 Y49.117 E14.27678
G1 X147.243 Y49.08 E14.30797
G1 X147.658 Y48.974 E14.33789
G1 X148.098 Y48.79 E14.3712
G1 X148.481 Y48.547 E14.40288
G1 X149.148 Y48.026 E14.462
G1 X149.774 Y47.572 E14.51601
G1 X150.429 Y47.176 E14.56947
G1 X151.111 Y46.839 E14.6226
G1 X151.825 Y46.556 E14.67625
G1 X152.531 Y46.343 E14.72776
G1 X153.295 Y46.181 E14.7823
G1 X154.048 Y46.086 E14.83532
G1 X154.818 Y46.054 E14.88914
G1 X157.877 Y46.054 E15.1028
G1 X157.877 Y42.38 E15.35942
G1 X154.818 Y42.38 E15.57308
G1 X154.05 Y42.348 E15.62677
G1 X153.281 Y42.251 E15.6809
G1 X152.545 Y42.094 E15.73347
G1 X151.817 Y41.874 E15.78659
G1 X151.114 Y41.597 E15.83936
G1 X150.425 Y41.256 E15.89306
G1 X149.778 Y40.864 E15.9459
G1 X149.142 Y40.404 E16.00072
G1 X148.529 Y39.919 E16.05532
G1 X148.155 Y39.67 E16.0867
G1 X147.761 Y39.498 E16.11673
G1 X147.308 Y39.37 E16.14961
G1 X146.852 Y39.322 E16.18163
G1 X133.844 Y39.317 E17.09019
G1 X133.59 Y40.22 E17.15571
G1 X133.509 Y40.508 E17.17661
G1 X133.177 Y40.482 E17.19987
G1 X133.053 Y40.507 E17.2087
G1 X132.996 Y40.213 E17.22719
G1 X132.82 Y39.317 E17.29097
G1 X128.655 Y39.317 E17.58188
G1 X128.655 Y40.616 E17.67261
G1 X125.278 Y40.616 E17.90848
G1 X125.278 Y39.317 E17.99921
G1 X122.493 Y39.317 E18.19373
G1 X122.493 Y40.616 E18.28446
G1 X119.501 Y40.616 E18.49344
G1 X119.501 Y39.317 E18.58417
G1 X114.947 Y39.317 E18.90225
G1 X114.714 Y40.542 E18.98935
G1 X114.66 Y40.532 E18.99318
G1 X114.314 Y40.502 E19.01744
G1 X114.092 Y40.527 E19.03304
G1 X113.803 Y39.317 E19.11994
G1 X107.544 Y39.317 E19.5571
G1 X107.311 Y40.542 E19.6442
G1 X107.257 Y40.532 E19.64803
G1 X106.911 Y40.502 E19.67229
G1 X106.689 Y40.527 E19.6879
G1 X106.4 Y39.317 E19.77479
G1 X100.231 Y39.317 E20.20567
G1 X99.925 Y40.522 E20.29251
G1 X99.677 Y40.504 E20.30987
G1 X99.345 Y40.521 E20.33309
G1 X99.262 Y40.532 E20.33894
G1 X98.982 Y39.341 E20.42439
G1 X94.637 Y39.311 E20.72788
G1 X94.637 Y39.317 E20.7283
G1 X56.995 Y39.317 E23.35746
G1 X56.605 Y39.349 E23.38479
G1 X56.143 Y39.457 E23.41793
G1 X55.721 Y39.631 E23.44981
G1 X55.566 Y39.716 E23.46216
G1 X55.263 Y39.919 E23.48763
G1 X54.558 Y40.471 E23.55017
G1 X54.02 Y40.86 E23.59654
G1 X53.366 Y41.256 E23.64994
G1 X52.677 Y41.597 E23.70364
G1 X51.974 Y41.874 E23.75641
G1 X51.246 Y42.094 E23.80953
G1 X50.51 Y42.251 E23.8621
G1 X49.741 Y42.348 E23.91623
G1 X48.973 Y42.38 E23.96992
G1 X45.914 Y42.38 E24.18358
G1 X45.914 Y46.052 E24.44006
G1 X49.061 Y46.059 E24.65987
G1 X49.754 Y46.087 E24.70831
G1 X50.496 Y46.181 E24.76055
G1 X51.26 Y46.343 E24.8151
G1 X51.966 Y46.556 E24.8666
G1 X52.68 Y46.839 E24.92025
G1 X53.362 Y47.176 E24.97338
G1 X54.017 Y47.572 E25.02684
G1 X54.649 Y48.03 E25.08136
G1 X55.263 Y48.516 E25.13605
G1 X55.591 Y48.732 E25.16348
G1 X56.018 Y48.933 E25.19645
G1 X56.453 Y49.055 E25.228
G1 X56.626 Y49.087 E25.24029
G1 X56.994 Y49.117 E25.26608
G1 X78.708 Y49.117 E26.78272
G1 F2700 E21.78272
G0 F6000 X72.015 Y48.845
G0 X71.372 Y48.517
G0 X71.272 Y48.517
;TYPE:WALL-OUTER
G1 F2700 E26.78272
G1 F1200 X71.272 Y39.917 E27.3834
G1 X57.019 Y39.917 E28.37892
G1 X56.698 Y39.943 E28.40141
G1 X56.327 Y40.03 E28.42803
G1 X55.981 Y40.173 E28.45418
G1 X55.877 Y40.23 E28.46246
G1 X55.615 Y40.405 E28.48447
G1 X54.924 Y40.946 E28.54576
G1 X54.347 Y41.363 E28.59549
G1 X53.652 Y41.784 E28.65224
G1 X52.924 Y42.144 E28.70897
G1 X52.171 Y42.441 E28.76551
G1 X51.391 Y42.677 E28.82243
G1 X50.614 Y42.842 E28.87791
G1 X49.795 Y42.946 E28.93557
G1 X48.974 Y42.98 E28.99296
G1 X46.514 Y42.98 E29.16478
G1 X46.514 Y45.453 E29.33751
G1 X49.085 Y45.459 E29.51709
G1 X49.795 Y45.488 E29.56672
G1 X50.601 Y45.59 E29.62347
G1 X51.402 Y45.76 E29.68066
G1 X52.171 Y45.992 E29.73676
G1 X52.924 Y46.29 E29.79333
G1 X53.652 Y46.65 E29.85005
G1 X54.347 Y47.07 E29.90677
G1 X55.013 Y47.553 E29.96423
G1 X55.615 Y48.029 E30.01784
G1 X55.885 Y48.207 E30.04042
G1 X56.229 Y48.369 E30.06698
G1 X56.588 Y48.47 E30.09303
G1 X56.704 Y48.491 E30.10126
G1 X57.019 Y48.517 E30.12334
G1 X71.272 Y48.517 E31.11886
G0 F6000 X71.372 Y48.517
G0 X72.015 Y48.845
G0 X78.495 Y48.848
G0 X78.811 Y47.618
;TYPE:WALL-INNER
G1 F1200 X78.132 Y47.278 E31.1719
G1 X77.935 Y47.135 E31.1889
G1 X77.767 Y46.965 E31.2056
G1 X77.616 Y46.759 E31.22344
G1 X77.489 Y46.516 E31.24259
G1 X77.398 Y46.254 E31.26196
G1 X77.347 Y45.988 E31.28088
G1 X77.331 Y45.699 E31.30109
G1 X77.357 Y45.413 E31.32115
G1 X77.419 Y45.146 E31.3403
G1 X77.517 Y44.896 E31.35905
G1 X77.652 Y44.658 E31.37816
G1 X77.831 Y44.431 E31.39835
G1 X80.667 Y41.351 E31.69079
G1 X80.887 Y41.112 E31.71348
G1 X81.107 Y41.351 E31.7278
G1 X83.943 Y44.431 E32.02023
G1 X84.122 Y44.658 E32.04042
G1 X84.257 Y44.896 E32.05953
G1 X84.355 Y45.146 E32.07829
G1 X84.417 Y45.413 E32.09743
G1 X84.443 Y45.699 E32.11749
G1 X84.427 Y45.988 E32.13771
G1 X84.376 Y46.254 E32.15662
G1 X84.285 Y46.516 E32.176
G1 X84.158 Y46.759 E32.19515
G1 X84.007 Y46.965 E32.21299
G1 X83.837 Y47.136 E32.22983
G1 X83.645 Y47.276 E32.24643
G1 X82.975 Y47.613 E32.29881
G1 X82.349 Y47.305 E32.34754
G1 X82.133 Y47.159 E32.36575
G1 X81.965 Y46.999 E32.38195
G1 X81.849 Y46.851 E32.39509
G1 X81.133 Y45.663 E32.49197
G1 X81.132 Y45.662 E32.49207
G1 X80.872 Y45.23 E32.52729
G1 X80.619 Y45.667 E32.54735
G1 X79.956 Y46.811 E32.63971
G1 X79.779 Y47.029 E32.65932
G1 X79.647 Y47.155 E32.67206
G1 X79.491 Y47.264 E32.68536
G1 X78.811 Y47.618 E32.7389
G0 F6000 X78.622 Y48.61
G0 X78.234 Y48.517
;TYPE:WALL-OUTER
G1 F1200 X78.344 Y48.055 E32.77207
G1 X77.818 Y47.791 E32.81318
G1 X77.546 Y47.594 E32.83664
G1 X77.308 Y47.354 E32.86025
G1 X77.104 Y47.074 E32.88444
G1 X76.937 Y46.755 E32.90959
G1 X76.818 Y46.413 E32.93488
G1 X76.75 Y46.062 E32.95986
G1 X76.73 Y45.685 E32.98623
G1 X76.762 Y45.322 E33.01168
G1 X76.845 Y44.967 E33.03714
G1 X76.974 Y44.637 E33.06189
G1 X77.151 Y44.325 E33.08694
G1 X77.37 Y44.047 E33.11166
G1 X80.841 Y40.276 E33.46964
G1 X80.684 Y39.917 E33.49701
G1 X72.043 Y39.917 E34.10055
G1 X72.043 Y48.517 E34.70123
G1 X78.234 Y48.517 E35.13365
G1 F2700 E30.13365
G0 F6000 X78.622 Y48.61
G0 X78.893 Y47.938
G0 X80.537 Y46.209
G0 X80.882 Y46.409
G1 F2700 E35.13365
G1 F1200 X80.451 Y47.153 E35.19371
G1 X80.223 Y47.435 E35.21903
G1 X80.025 Y47.623 E35.2381
G1 X79.806 Y47.776 E35.25676
G1 X79.305 Y48.037 E35.29622
G1 X79.414 Y48.493 E35.32897
G1 X81.824 Y48.517 E35.49731
G1 X82.403 Y48.517 E35.53775
G1 X82.511 Y48.053 E35.57102
G1 X82.046 Y47.824 E35.60723
G1 X81.774 Y47.64 E35.63016
G1 X81.729 Y47.603 E35.63423
G1 X81.521 Y47.406 E35.65424
G1 X81.353 Y47.19 E35.67335
G1 X80.882 Y46.409 E35.73706
G1 F2700 E30.73706
G0 F6000 X80.537 Y46.209
G0 X80.877 Y45.78
G0 X83.108 Y48.108
G0 X83.28 Y48.848
G0 X89.577 Y48.845
G0 X89.649 Y48.517
G0 X89.249 Y48.517
G1 F2700 E35.73706
G1 F1200 X89.249 Y39.917 E36.33773
G1 X81.09 Y39.917 E36.90761
G1 X80.933 Y40.276 E36.93498
G1 X84.404 Y44.047 E37.29296
G1 X84.623 Y44.325 E37.31768
G1 X84.8 Y44.637 E37.34273
G1 X84.929 Y44.967 E37.36748
G1 X85.012 Y45.322 E37.39294
G1 X85.044 Y45.685 E37.4184
G1 X85.024 Y46.062 E37.44476
G1 X84.956 Y46.413 E37.46974
G1 X84.837 Y46.755 E37.49503
G1 X84.67 Y47.074 E37.52018
G1 X84.466 Y47.354 E37.54438
G1 X84.228 Y47.594 E37.56798
G1 X83.957 Y47.791 E37.59138
G1 X83.43 Y48.056 E37.63259
G1 X83.54 Y48.517 E37.66569
G1 X89.249 Y48.517 E38.06444
G0 F6000 X89.649 Y48.517
G0 X90.422 Y47.135
G0 X92.138 Y41.845
;TYPE:WALL-INNER
G1 F1200 X92.146 Y41.805 E38.06729
G1 X92.239 Y41.358 E38.09918
G1 X92.331 Y41.804 E38.10459
G1 X92.34 Y41.845
G1 X92.239 Y41.845
G1 X92.138 Y41.845
G1 F2700 E33.10459
G0 F6000 X90.535 Y47.053
G0 X90.469 Y46.979
;TYPE:WALL-OUTER
G1 F2700 E38.10459
G1 F1200 X91.923 Y39.917 E38.60819
G1 X89.93 Y39.917 E38.7474
G1 X89.93 Y46.924 E39.23681
G1 X90.469 Y46.979 E39.27465
G1 F2700 E34.27465
G0 F6000 X90.535 Y47.053
G0 X90.271 Y48.842
G0 X93.8 Y48.917
G0 X93.8 Y48.517
G1 F2700 E39.27465
G1 F1200 X92.485 Y42.445 E39.70859
G1 X92.001 Y42.445 E39.7424
G1 X90.675 Y48.517 E40.1765
G1 X93.8 Y48.517 E40.39477
G1 F2700 E35.39477
G0 F6000 X93.8 Y48.917
G0 X94.203 Y48.842
G0 X94.657 Y46.924
G0 X94.557 Y46.924
G1 F2700 E40.39477
G1 F1200 X94.557 Y39.917 E40.88418
G1 X92.552 Y39.917 E41.02422
G1 X94.018 Y46.979 E41.52799
G1 X94.557 Y46.924 E41.56584
G1 F2700 E36.56584
G0 F6000 X94.657 Y46.924
G0 X94.909 Y48.845
G0 X97.207 Y48.845
G0 X97.279 Y48.517
G0 X97.179 Y48.517
G1 F2700 E41.56584
G1 F1200 X97.181 Y43.353 E41.92652
G1 X97.213 Y42.722 E41.97065
G1 X97.302 Y42.114 E42.01357
G1 X97.433 Y41.528 E42.05551
G1 X97.545 Y41.301 E42.07319
G1 X97.638 Y41.135 E42.08648
G1 X97.717 Y41.023 E42.09606
G1 X97.809 Y40.918 E42.10581
G1 X97.915 Y40.817 E42.11603
G1 X98.141 Y40.636 E42.13626
G1 X98.614 Y40.398 E42.17324
G1 X98.506 Y39.938 E42.20624
G1 X95.237 Y39.915 E42.43458
G1 X95.237 Y48.517 E43.03539
G1 X97.179 Y48.517 E43.17104
G1 F2700 E38.17104
G0 F6000 X97.279 Y48.517
G0 X97.922 Y48.845
G0 X101.268 Y48.845
G0 X101.34 Y48.517
G0 X101.24 Y48.517
G1 F2700 E43.17104
G1 F1200 X101.241 Y43.411 E43.52767
G1 X101.229 Y42.99 E43.55709
G1 X101.188 Y42.569 E43.58663
G1 X101.122 Y42.126 E43.61792
G1 X101.048 Y41.938 E43.63203
G1 X100.994 Y41.823 E43.6409
G1 X100.931 Y41.717 E43.64951
G1 X100.855 Y41.618 E43.65823
G1 X100.775 Y41.533 E43.66638
G1 X100.613 Y41.387 E43.68162
G1 X100.396 Y41.266 E43.69897
G1 X100.265 Y41.207 E43.709
G1 X100.137 Y41.163 E43.71846
G1 X99.911 Y41.122 E43.7345
G1 X99.671 Y41.105 E43.75131
G1 X99.401 Y41.119 E43.77019
G1 X99.237 Y41.141 E43.78175
G1 X99.087 Y41.177 E43.79252
G1 X98.942 Y41.231 E43.80333
G1 X98.807 Y41.3 E43.81392
G1 X98.57 Y41.451 E43.83355
G1 X98.367 Y41.669 E43.85435
G1 X98.264 Y41.803 E43.86616
G1 X98.185 Y41.936 E43.87696
G1 X98.123 Y42.074 E43.88753
G1 X98.077 Y42.215 E43.89789
G1 X98.014 Y42.469 E43.91617
G1 X97.979 Y42.824 E43.94108
G1 X97.958 Y43.177 E43.96578
G1 X97.949 Y43.87 E44.01419
G1 X97.95 Y48.517 E44.33877
G1 X101.24 Y48.517 E44.56856
G0 F6000 X102.011 Y48.517
G1 F1200 X105.666 Y48.517 E44.82385
G1 X105.779 Y48.061 E44.85666
G1 X105.363 Y47.842 E44.8895
G1 X104.991 Y47.54 E44.92296
G1 X104.867 Y47.422 E44.93492
G1 X104.726 Y47.267 E44.94956
G1 X104.465 Y46.886 E44.98181
G1 X104.252 Y46.493 E45.01303
G1 X104.06 Y45.959 E45.05267
G1 X103.992 Y45.729 E45.06942
G1 X103.928 Y45.456 E45.08901
G1 X103.85 Y44.86 E45.13099
G1 X103.824 Y44.275 E45.17189
G1 X103.851 Y43.699 E45.21217
G1 X103.919 Y43.139 E45.25157
G1 X103.972 Y42.903 E45.26846
G1 X104.05 Y42.636 E45.28789
G1 X104.248 Y42.07 E45.32977
G1 X104.46 Y41.675 E45.36108
G1 X104.564 Y41.508 E45.37483
G1 X104.694 Y41.328 E45.39033
G1 X104.832 Y41.171 E45.40493
G1 X104.993 Y41.018 E45.42045
G1 X105.358 Y40.72 E45.45336
G1 X106.036 Y40.378 E45.5064
G1 X105.926 Y39.917 E45.5395
G1 X100.698 Y39.917 E45.90466
G1 X100.583 Y40.37 E45.9373
G1 X101.156 Y40.68 E45.9828
G1 X101.39 Y40.893 E46.00491
G1 X101.482 Y40.99 E46.01424
G1 X101.573 Y41.105 E46.02449
G1 X101.656 Y41.242 E46.03567
G1 X101.716 Y41.371 E46.04561
G1 X101.84 Y41.712 E46.07096
G1 X101.926 Y42.283 E46.11129
G1 X101.984 Y42.853 E46.15131
G1 X102.008 Y43.447 E46.19283
G1 X102.011 Y44.054 E46.23522
G1 X102.011 Y48.517 E46.54695
G1 F2700 E41.54695
G0 F6000 X101.911 Y48.517
G0 X101.983 Y48.845
G0 X105.926 Y48.848
G0 X109.351 Y46.391
G0 X109.436 Y46.339
G1 F2700 E46.54695
G1 F1200 X109.386 Y46.543 E46.56162
G1 X109.327 Y46.726 E46.57505
G1 X109.233 Y46.949 E46.59195
G1 X109.125 Y47.139 E46.60722
G1 X108.992 Y47.324 E46.62313
G1 X108.658 Y47.706 E46.65857
G1 X108.053 Y48.082 E46.70833
G1 X108.178 Y48.517 E46.73994
G1 X113.069 Y48.517 E47.08156
G1 X113.182 Y48.061 E47.11437
G1 X112.766 Y47.841 E47.14724
G1 X112.393 Y47.54 E47.18072
G1 X112.27 Y47.423 E47.19257
G1 X112.129 Y47.267 E47.20726
G1 X111.868 Y46.886 E47.23952
G1 X111.655 Y46.493 E47.27074
