;FLAVOR:Marlin
;TIME:16453
;Filament used: 6.47196m
;Layer height: 0.16
;MINX:117.5
;MINY:96.091
;MINZ:0.16
;MAXX:182.5
;MAXY:201.87
;MAXZ:7.48
;Generated with Cura_SteamEngine 4.6.1
M140 S65
M105
M190 S65
M104 S210
M105
M109 S210
M82 ;absolute extrusion mode
M201 X500.00 Y500.00 Z100.00 E5000.00 ;Setup machine max acceleration
M203 X500.00 Y500.00 Z10.00 E50.00 ;Setup machine max feedrate
M204 P500.00 R1000.00 T500.00 ;Setup Print/Retract/Travel acceleration
M205 X8.00 Y8.00 Z0.40 E5.00 ;Setup Jerk
M220 S100 ;Reset Feedrate
M221 S100 ;Reset Flowrate

G28 ;Home

G92 E0 ;Reset Extruder
G1 Z2.0 F3000 ;Move Z Axis up
G1 X10.1 Y20 Z0.28 F5000.0 ;Move to start position
G1 X10.1 Y200.0 Z0.28 F1500.0 E15 ;Draw the first line
G1 X10.4 Y200.0 Z0.28 F5000.0 ;Move to side a little
G1 X10.4 Y20 Z0.28 F1500.0 E30 ;Draw the second line
G92 E0 ;Reset Extruder
G1 Z2.0 F3000 ;Move Z Axis up

G92 E0
G92 E0
G1 F2700 E-5
;LAYER_COUNT:62
;LAYER:0
M107
G0 F6000 X171.637 Y96.902 Z0.16
;TYPE:SKIRT
G1 F2700 E0
G1 F1200 X172.539 Y96.955 E0.02524
G1 X173.432 Y97.087 E0.05046
G1 X174.31 Y97.298 E0.07569
G1 X175.166 Y97.586 E0.10093
G1 X175.993 Y97.948 E0.12615
G1 X176.785 Y98.383 E0.15139
G1 X177.536 Y98.885 E0.17663
G1 X178.239 Y99.452 E0.20186
G1 X178.889 Y100.079 E0.22709
G1 X179.481 Y100.761 E0.25233
G1 X180.011 Y101.492 E0.27755
G1 X180.473 Y102.268 E0.30278
G1 X180.866 Y103.081 E0.32801
G1 X181.184 Y103.926 E0.35324
G1 X181.427 Y104.796 E0.37847
G1 X181.592 Y105.684 E0.40371
G1 X181.687 Y106.814 E0.43539
G1 X181.7 Y107.421 E0.45235
G1 X181.7 Y190.126 E2.76301
G1 X181.69 Y190.971 E2.78662
G1 X181.639 Y191.873 E2.81186
G1 X181.508 Y192.766 E2.83707
G1 X181.299 Y193.645 E2.86232
G1 X181.012 Y194.501 E2.88754
G1 X180.651 Y195.329 E2.91278
G1 X180.219 Y196.122 E2.93801
G1 X179.718 Y196.873 E2.96323
G1 X179.152 Y197.577 E2.98847
G1 X178.526 Y198.228 E3.0137
G1 X177.845 Y198.822 E3.03894
G1 X177.115 Y199.353 E3.06416
G1 X176.34 Y199.817 E3.0894
G1 X175.527 Y200.21 E3.11463
G1 X174.683 Y200.531 E3.13986
G1 X173.814 Y200.775 E3.16507
G1 X172.926 Y200.942 E3.19032
G1 X171.731 Y201.04 E3.22382
G1 X170.507 Y201.066 E3.25802
G1 X169.034 Y201.065 E3.29918
G1 X150.878 Y201.07 E3.80643
G1 X146.41 Y201.066 E3.93126
G1 X139.347 Y201.04 E4.12859
G1 X130.455 Y201.037 E4.37702
G1 X129.517 Y201.043 E4.40322
G1 X128.521 Y201.044 E4.43105
G1 X127.619 Y201.005 E4.45627
G1 X126.724 Y200.886 E4.4815
G1 X125.842 Y200.689 E4.50675
G1 X124.982 Y200.414 E4.53197
G1 X124.149 Y200.064 E4.55722
G1 X123.351 Y199.643 E4.58243
G1 X122.593 Y199.152 E4.60766
G1 X121.881 Y198.596 E4.6329
G1 X121.222 Y197.979 E4.65812
G1 X120.619 Y197.306 E4.68336
G1 X120.078 Y196.583 E4.70859
G1 X119.604 Y195.814 E4.73383
G1 X119.199 Y195.007 E4.75906
G1 X118.867 Y194.167 E4.78429
G1 X118.611 Y193.301 E4.80952
G1 X118.433 Y192.416 E4.83474
G1 X118.333 Y191.518 E4.85999
G1 X118.312 Y190.992 E4.87469
G1 X118.3 Y190.085 E4.90004
G1 X118.3 Y107.765 E7.19993
G1 X118.301 Y107.612 E7.20421
G1 X118.311 Y106.947 E7.22279
G1 X118.365 Y106.045 E7.24804
G1 X118.498 Y105.152 E7.27326
G1 X118.709 Y104.274 E7.29849
G1 X118.998 Y103.418 E7.32373
G1 X119.361 Y102.591 E7.34896
G1 X119.795 Y101.8 E7.37417
G1 X120.298 Y101.049 E7.39942
G1 X120.866 Y100.347 E7.42465
G1 X121.493 Y99.697 E7.44988
G1 X122.175 Y99.105 E7.47512
G1 X122.907 Y98.576 E7.50035
G1 X123.683 Y98.114 E7.52558
G1 X124.497 Y97.723 E7.55081
G1 X125.342 Y97.404 E7.57604
G1 X126.212 Y97.162 E7.60127
G1 X127.1 Y96.998 E7.6265
G1 X128.223 Y96.904 E7.65799
G1 X128.83 Y96.891 E7.67495
G1 X170.939 Y96.892 E8.85141
G1 X171.637 Y96.902 E8.87092
G0 F6000 X171.643 Y96.502
G1 F1200 X172.562 Y96.555 E8.89663
G1 X173.473 Y96.688 E8.92236
G1 X174.369 Y96.899 E8.94807
G1 X175.243 Y97.187 E8.97378
G1 X176.09 Y97.55 E8.99953
G1 X176.901 Y97.985 E9.02524
G1 X177.671 Y98.489 E9.05095
G1 X178.395 Y99.058 E9.07668
G1 X179.067 Y99.688 E9.10241
G1 X179.682 Y100.373 E9.12813
G1 X180.235 Y101.109 E9.15385
G1 X180.722 Y101.89 E9.17957
G1 X181.139 Y102.711 E9.20529
G1 X181.484 Y103.565 E9.23103
G1 X181.753 Y104.445 E9.25674
G1 X181.945 Y105.346 E9.28247
G1 X182.058 Y106.259 E9.30818
G1 X182.087 Y106.803 E9.3234
G1 X182.1 Y107.421 E9.34067
G1 X182.1 Y190.126 E11.65132
G1 X182.09 Y190.976 E11.67507
G1 X182.039 Y191.895 E11.70078
G1 X181.908 Y192.807 E11.72653
G1 X181.698 Y193.703 E11.75224
G1 X181.411 Y194.578 E11.77797
G1 X181.05 Y195.425 E11.80369
G1 X180.616 Y196.237 E11.82941
G1 X180.114 Y197.008 E11.85512
G1 X179.546 Y197.733 E11.88085
G1 X178.918 Y198.406 E11.90656
G1 X178.234 Y199.022 E11.93228
G1 X177.499 Y199.576 E11.958
G1 X176.718 Y200.065 E11.98374
G1 X175.898 Y200.483 E12.00946
G1 X175.045 Y200.829 E12.03517
G1 X174.165 Y201.1 E12.0609
G1 X173.265 Y201.294 E12.08662
G1 X172.351 Y201.408 E12.11235
G1 X171.74 Y201.44 E12.12945
G1 X170.507 Y201.466 E12.1639
G1 X169.034 Y201.465 E12.20506
G1 X150.878 Y201.47 E12.71231
G1 X146.409 Y201.466 E12.83717
G1 X139.346 Y201.44 E13.0345
G1 X130.457 Y201.437 E13.28284
G1 X129.518 Y201.443 E13.30908
G1 X128.522 Y201.444 E13.3369
G1 X127.602 Y201.405 E13.36263
G1 X126.689 Y201.286 E13.38835
G1 X125.79 Y201.089 E13.41407
G1 X124.911 Y200.814 E13.4398
G1 X124.059 Y200.464 E13.46553
G1 X123.241 Y200.041 E13.49126
G1 X122.463 Y199.549 E13.51698
G1 X121.731 Y198.992 E13.54268
G1 X121.049 Y198.373 E13.56841
G1 X120.424 Y197.697 E13.59413
G1 X119.86 Y196.969 E13.61986
G1 X119.361 Y196.196 E13.64557
G1 X118.931 Y195.381 E13.67131
G1 X118.574 Y194.533 E13.69702
G1 X118.291 Y193.657 E13.72274
G1 X118.085 Y192.759 E13.74848
G1 X117.959 Y191.848 E13.77417
G1 X117.912 Y190.998 E13.79795
G1 X117.9 Y190.085 E13.82346
G1 X117.9 Y107.765 E16.12336
G1 X117.901 Y107.606 E16.12781
G1 X117.911 Y106.941 E16.14639
G1 X117.965 Y106.022 E16.17211
G1 X118.098 Y105.111 E16.19783
G1 X118.31 Y104.215 E16.22355
G1 X118.599 Y103.34 E16.2493
G1 X118.963 Y102.495 E16.275
G1 X119.398 Y101.684 E16.30071
G1 X119.903 Y100.913 E16.32646
G1 X120.472 Y100.19 E16.35217
G1 X121.102 Y99.518 E16.3779
G1 X121.788 Y98.904 E16.40363
G1 X122.524 Y98.352 E16.42933
G1 X123.306 Y97.865 E16.45507
G1 X124.127 Y97.449 E16.48078
G1 X124.981 Y97.105 E16.5065
G1 X125.861 Y96.836 E16.53221
G1 X126.762 Y96.645 E16.55794
G1 X127.676 Y96.533 E16.58367
G1 X128.212 Y96.504 E16.59867
G1 X128.83 Y96.491 E16.61594
G1 X170.945 Y96.492 E17.79257
G1 X171.643 Y96.502 E17.81207
G0 F6000 X171.649 Y96.102
G1 F1200 X172.585 Y96.156 E17.83827
G1 X173.513 Y96.288 E17.86445
G1 X174.427 Y96.5 E17.89067
G1 X175.319 Y96.789 E17.91686
G1 X176.184 Y97.152 E17.94307
G1 X177.014 Y97.588 E17.96927
G1 X177.805 Y98.093 E17.99549
G1 X178.549 Y98.664 E18.02169
G1 X179.242 Y99.296 E18.04789
G1 X179.879 Y99.984 E18.07409
G1 X180.454 Y100.725 E18.10029
G1 X180.965 Y101.511 E18.12648
G1 X181.407 Y102.339 E18.15271
G1 X181.776 Y103.201 E18.1789
G1 X182.071 Y104.091 E18.2051
G1 X182.289 Y105.003 E18.2313
G1 X182.429 Y105.931 E18.25752
G1 X182.487 Y106.792 E18.28163
G1 X182.5 Y107.421 E18.2992
G1 X182.5 Y190.126 E20.60986
G1 X182.49 Y190.981 E20.63375
G1 X182.438 Y191.918 E20.65997
G1 X182.307 Y192.846 E20.68615
G1 X182.097 Y193.76 E20.71235
G1 X181.81 Y194.653 E20.73856
G1 X181.448 Y195.518 E20.76475
G1 X181.014 Y196.349 E20.79095
G1 X180.51 Y197.141 E20.81717
G1 X179.941 Y197.886 E20.84337
G1 X179.31 Y198.58 E20.86957
G1 X178.623 Y199.218 E20.89577
G1 X177.883 Y199.795 E20.92198
G1 X177.097 Y200.307 E20.94819
G1 X176.271 Y200.75 E20.97438
G1 X175.41 Y201.121 E21.00057
G1 X174.52 Y201.418 E21.02678
G1 X173.608 Y201.637 E21.05299
G1 X172.681 Y201.778 E21.07918
G1 X171.75 Y201.84 E21.10525
G1 X170.507 Y201.866 E21.13999
G1 X169.034 Y201.865 E21.18114
G1 X150.878 Y201.87 E21.68839
G1 X146.409 Y201.866 E21.81325
G1 X139.344 Y201.84 E22.01064
G1 X130.46 Y201.837 E22.25884
G1 X129.518 Y201.843 E22.28516
G1 X128.522 Y201.844 E22.31299
G1 X127.585 Y201.805 E22.33919
G1 X126.655 Y201.686 E22.36538
G1 X125.738 Y201.489 E22.39159
G1 X124.841 Y201.214 E22.4178
G1 X123.971 Y200.863 E22.44401
G1 X123.134 Y200.44 E22.47021
G1 X122.336 Y199.947 E22.49642
G1 X121.583 Y199.388 E22.52262
G1 X120.881 Y198.767 E22.5488
G1 X120.233 Y198.088 E22.57503
G1 X119.646 Y197.357 E22.60122
G1 X119.124 Y196.578 E22.62742
G1 X118.669 Y195.758 E22.65362
G1 X118.287 Y194.901 E22.67983
G1 X117.978 Y194.016 E22.70602
G1 X117.746 Y193.107 E22.73223
G1 X117.593 Y192.182 E22.75843
G1 X117.512 Y191.003 E22.79144
G1 X117.5 Y190.085 E22.81709
G1 X117.5 Y107.765 E25.11699
G1 X117.501 Y107.6 E25.1216
G1 X117.511 Y106.935 E25.14018
G1 X117.565 Y105.998 E25.1664
G1 X117.699 Y105.07 E25.1926
G1 X117.911 Y104.156 E25.21881
G1 X118.2 Y103.264 E25.24501
G1 X118.565 Y102.4 E25.27121
G1 X119.001 Y101.57 E25.29741
G1 X119.507 Y100.78 E25.32362
G1 X120.078 Y100.036 E25.34982
G1 X120.71 Y99.343 E25.37603
G1 X121.399 Y98.707 E25.40222
G1 X122.14 Y98.132 E25.42843
G1 X122.927 Y97.622 E25.45463
G1 X123.755 Y97.181 E25.48084
G1 X124.617 Y96.812 E25.50703
G1 X125.508 Y96.518 E25.53325
G1 X126.42 Y96.3 E25.55944
G1 X127.347 Y96.162 E25.58563
G1 X128.201 Y96.104 E25.60954
G1 X128.83 Y96.091 E25.62712
G1 X170.951 Y96.092 E26.80392
G1 X171.649 Y96.102 E26.82342
G1 F2700 E21.82342
G0 F6000 X167.138 Y110.462
G0 X167.347 Y110.53
G0 X166.857 Y112.358
G0 X166.52 Y112.431
G0 X162.103 Y126.494
G0 X162.847 Y126.562
G0 X161.728 Y129.408
G0 X161.171 Y129.463
G0 X158.02 Y139.495
G0 X156.813 Y139.562
G0 X157.052 Y142.417
G0 X157.079 Y142.492
G0 X149.542 Y166.491
G0 X143.688 Y166.567
G0 X143.843 Y170.448
G0 X148.276 Y170.522
G0 X145.612 Y179.009
G1 F2700 E26.82342
G1 F1200 X154.387 Y179.009 E27.06858
G1 X154.386 Y179.311 E27.07702
G1 X145.613 Y179.311 E27.32212
G1 X145.612 Y179.009 E27.33056
G0 F6000 X145.212 Y178.609
G1 F1200 X154.788 Y178.609 E27.5981
G1 X154.785 Y179.711 E27.62889
G1 X145.213 Y179.711 E27.89632
G1 X145.212 Y178.609 E27.92711
G0 F6000 X144.812 Y178.209
G1 F1200 X155.2 Y178.209 E28.21733
G1 X155.2 Y178.307 E28.22007
G1 X155.188 Y178.459 E28.22433
G1 X155.185 Y179.76 E28.26068
G1 X155.187 Y180.111 E28.27048
G1 X144.813 Y180.111 E28.56032
G1 X144.812 Y178.209 E28.61346
G0 F6000 X144.411 Y177.809
G1 F1200 X155.6 Y177.809 E28.92606
G1 X155.6 Y178.337 E28.94081
G1 X155.588 Y178.46 E28.94426
G1 X155.585 Y179.761 E28.98061
G1 X155.588 Y180.511 E29.00157
G1 X144.414 Y180.511 E29.31375
G1 X144.411 Y177.809 E29.38924
G0 F6000 X144.011 Y177.409
G1 F1200 X156 Y177.409 E29.7242
G1 X156 Y178.366 E29.75093
G1 X155.99 Y178.43 E29.75274
G1 X155.985 Y179.762 E29.78996
G1 X155.99 Y180.911 E29.82206
G1 X144.014 Y180.911 E30.15665
G1 X144.011 Y177.409 E30.25449
G0 F6000 X144.008 Y170.109
G1 F1200 X144.015 Y169.757 E30.26433
G1 X144.012 Y166.906 E30.34398
G1 X155.991 Y166.906 E30.67866
G1 X155.985 Y169.415 E30.74875
G1 X155.985 Y170.109 E30.76814
G1 X144.008 Y170.109 E31.10276
G0 F6000 X144.415 Y169.709
G1 F1200 X144.411 Y167.306 E31.1699
G1 X155.59 Y167.306 E31.48222
G1 X155.585 Y169.414 E31.54112
G1 X155.585 Y169.709 E31.54936
G1 X144.415 Y169.709 E31.86143
G0 F6000 X144.814 Y169.309
G1 F1200 X144.811 Y167.706 E31.90622
G1 X155.189 Y167.706 E32.19617
G1 X155.185 Y169.309 E32.24095
G1 X144.814 Y169.309 E32.5307
G0 F6000 X145.213 Y168.909
G1 F1200 X145.212 Y168.106 E32.55314
G1 X154.788 Y168.106 E32.82067
G1 X154.786 Y168.909 E32.84311
G1 X145.213 Y168.909 E33.11056
G1 F2700 E28.11056
G0 F6000 X144.373 Y176.993
G0 X143.843 Y177.07
G0 X143.684 Y181.25
G0 X143.923 Y181.325
G0 X143.427 Y186.114
G0 X143.431 Y185.503
G1 F2700 E33.11056
G1 F1200 X143.47 Y185.553 E33.11234
G1 X143.597 Y185.675 E33.11726
G1 X143.758 Y185.774 E33.12254
G1 X143.944 Y185.835 E33.12801
G1 X144.061 Y185.853 E33.13131
G1 X150.503 Y185.861 E33.31129
G1 X155.923 Y185.86 E33.46272
G1 X156.092 Y185.829 E33.46752
G1 X156.347 Y185.717 E33.4753
G1 X156.397 Y185.684 E33.47698
G1 X156.525 Y185.57 E33.48176
G1 X156.56 Y185.529 E33.48327
G1 X156.582 Y185.495 E33.4844
G1 X156.642 Y185.585 E33.48742
G1 X156.691 Y185.635 E33.48938
G1 X156.872 Y185.765 E33.49561
G1 X156.941 Y185.797 E33.49773
G1 X157.119 Y185.841 E33.50285
G1 X157.217 Y185.855 E33.50562
G1 X159.355 Y185.861 E33.56535
G1 X161.76 Y185.86 E33.63254
G1 X162.192 Y187.063 E33.66826
G1 X151.812 Y187.067 E33.95826
G1 X146.127 Y187.081 E34.11709
G1 X143.283 Y187.068 E34.19655
G1 X142.097 Y187.068 E34.22968
G1 X142.097 Y185.86 E34.26343
G1 X142.776 Y185.86 E34.2824
G1 X142.952 Y185.825 E34.28741
G1 X143.206 Y185.71 E34.2952
G1 X143.253 Y185.679 E34.29678
G1 X143.385 Y185.562 E34.30171
G1 X143.424 Y185.515 E34.30341
G1 X143.431 Y185.503 E34.3038
G0 F6000 X143.423 Y186.041
G1 F1200 X143.56 Y186.121 E34.30823
G1 X143.685 Y186.175 E34.31204
G1 X143.829 Y186.218 E34.31624
G1 X143.919 Y186.237 E34.31881
G1 X144.006 Y186.249 E34.32126
G1 X144.087 Y186.255 E34.32353
G1 X150.502 Y186.261 E34.50275
G1 X155.922 Y186.26 E34.65418
G1 X156.048 Y186.247 E34.65772
G1 X156.175 Y186.22 E34.66135
G1 X156.3 Y186.179 E34.66502
G1 X156.514 Y186.081 E34.6716
G1 X156.573 Y186.042 E34.67357
G1 X156.639 Y186.09 E34.67585
G1 X156.845 Y186.185 E34.68219
G1 X157.095 Y186.243 E34.68936
G1 X157.24 Y186.256 E34.69343
G1 X159.354 Y186.261 E34.75249
G1 X161.479 Y186.26 E34.81186
G1 X161.623 Y186.664 E34.82384
G1 X151.812 Y186.667 E35.09795
G1 X146.128 Y186.681 E35.25675
G1 X142.497 Y186.668 E35.3582
G1 X142.497 Y186.26 E35.3696
G1 X142.776 Y186.26 E35.37739
G1 X142.91 Y186.245 E35.38116
G1 X143.041 Y186.215 E35.38491
G1 X143.164 Y186.172 E35.38855
G1 X143.377 Y186.071 E35.39514
G1 X143.423 Y186.041 E35.39667
G0 F6000 X143.008 Y185.36
;TYPE:SUPPORT-INTERFACE
G1 F1200 X142.84 Y185.44 E35.40187
G1 X142.753 Y185.46 E35.40437
G1 X142.097 Y185.46 E35.42269
G1 X142.097 Y185.001 E35.43552
G1 X141.863 Y184.767 E35.44476
G1 X142.928 Y184.773 E35.47452
G1 X143.41 Y184.577 E35.48906
G1 X143.442 Y184.539 E35.49044
G1 X143.787 Y184.759 E35.50187
G1 X145.088 Y184.778 E35.53823
G1 X151.871 Y184.762 E35.72773
G1 X156.073 Y184.772 E35.84513
G1 X156.499 Y184.604 E35.85793
G1 X156.561 Y184.546 E35.8603
G1 X156.608 Y184.598 E35.86226
G1 X157.076 Y184.802 E35.87652
G1 X162.217 Y184.773 E36.02015
G1 X161.811 Y185.107 E36.03484
G1 X161.713 Y185.46 E36.04508
G1 X159.355 Y185.461 E36.11096
G1 X157.257 Y185.456 E36.16957
G1 X157.198 Y185.449 E36.17123
G1 X157.074 Y185.418 E36.1748
G1 X156.955 Y185.332 E36.1789
G1 X156.818 Y185.129 E36.18575
G1 X156.784 Y185.04 E36.18841
G1 X156.752 Y184.765 E36.19614
G1 X156.408 Y184.753 E36.20576
G1 X156.341 Y185.107 E36.21583
G1 X156.314 Y185.173 E36.21782
G1 X156.239 Y185.29 E36.2217
G1 X156.154 Y185.365 E36.22487
G1 X155.989 Y185.441 E36.22994
G1 X155.9 Y185.46 E36.23249
G1 X150.503 Y185.461 E36.38327
G1 X144.101 Y185.455 E36.56213
G1 X144.046 Y185.448 E36.56368
G1 X143.936 Y185.415 E36.56689
G1 X143.851 Y185.366 E36.56963
G1 X143.78 Y185.299 E36.57236
G1 X143.737 Y185.244 E36.57431
G1 X143.662 Y185.11 E36.5786
G1 X143.636 Y185.034 E36.58084
G1 X143.598 Y184.729 E36.58943
G1 X143.251 Y184.723 E36.59913
G1 X143.192 Y185.094 E36.60962
G1 X143.166 Y185.166 E36.61176
G1 X143.096 Y185.283 E36.61557
G1 X143.008 Y185.36 E36.61884
G1 F2700 E31.61884
G0 F6000 X143.282 Y187.468
G1 F2700 E36.61884
G1 F1200 X146.126 Y187.481 E36.6983
G1 X151.812 Y187.467 E36.85715
G1 X154.812 Y187.468 E36.94097
G1 X162.336 Y187.463 E37.15118
G1 X162.455 Y187.794 E37.16101
G1 X154.263 Y187.784 E37.38988
G1 X142.097 Y187.789 E37.72978
G1 X142.097 Y187.468 E37.73875
G1 X143.282 Y187.468 E37.77185
G1 F2700 E32.77185
G0 F6000 X144.005 Y185.223
G1 F2700 E37.77185
G1 F1200 X144.263 Y184.964 E37.78207
G0 F6000 X144.235 Y184.964
G1 F1200 X144.524 Y185.254 E37.79351
G0 F6000 X147.365 Y185.257
G1 F1200 X147.652 Y184.97 E37.80485
G0 F6000 X147.636 Y184.971
G1 F1200 X147.922 Y185.257 E37.81615
G0 F6000 X150.756 Y185.26
G1 F1200 X151.054 Y184.962 E37.82792
G0 F6000 X151.022 Y184.963
G1 F1200 X151.318 Y185.259 E37.83962
G0 F6000 X154.151 Y185.259
G1 F1200 X154.444 Y184.967 E37.85117
G0 F6000 X154.42 Y184.967
G1 F1200 X154.712 Y185.259 E37.86271
G0 F6000 X157.549 Y185.256
G1 F1200 X157.809 Y184.996 E37.87298
G0 F6000 X157.843 Y184.996
G1 F1200 X158.104 Y185.257 E37.88329
G0 F6000 X160.939 Y185.259
