;FLAVOR:Marlin
;TIME:12493
;Filament used: 12.2132m
;Layer height: 0.2
;MINX:2.827
;MINY:2.81
;MINZ:0.2
;MAXX:295.784
;MAXY:297.342
;MAXZ:3
;Generated with Cura_SteamEngine 4.6.1
M140 S50
M105
M190 S50
M104 S210
M105
M109 S210
M82 ;absolute extrusion mode
M201 X500.00 Y500.00 Z100.00 E5000.00 ;Setup machine max acceleration
M203 X500.00 Y500.00 Z10.00 E50.00 ;Setup machine max feedrate
M204 P500.00 R1000.00 T500.00 ;Setup Print/Retract/Travel acceleration
M205 X8.00 Y8.00 Z0.40 E5.00 ;Setup Jerk
M220 S100 ;Reset Feedrate
M221 S100 ;Reset Flowrate

G28 ;Home

G92 E0 ;Reset Extruder
G1 Z2.0 F3000 ;Move Z Axis up
G1 X10.1 Y20 Z0.28 F5000.0 ;Move to start position
G1 X10.1 Y200.0 Z0.28 F1500.0 E15 ;Draw the first line
G1 X10.4 Y200.0 Z0.28 F5000.0 ;Move to side a little
G1 X10.4 Y20 Z0.28 F1500.0 E30 ;Draw the second line
G92 E0 ;Reset Extruder
G1 Z2.0 F3000 ;Move Z Axis up

G92 E0
G92 E0
G1 F2700 E-5
;LAYER_COUNT:15
;LAYER:0
M107
G0 F6000 X266.576 Y264.221 Z0.2
;TYPE:SKIRT
G1 F2700 E0
G1 F1200 X264.744 Y265.032 E0.05331
G1 X262.905 Y265.859 E0.10696
G1 X261.735 Y266.394 E0.14119
G1 X259.64 Y267.368 E0.20267
G1 X258.644 Y267.838 E0.23197
G1 X256.784 Y268.736 E0.28693
G1 X254.337 Y269.982 E0.35999
G1 X252.119 Y271.196 E0.42727
G1 X249.932 Y272.473 E0.49466
G1 X247.78 Y273.812 E0.5621
G1 X245.664 Y275.213 E0.62962
G1 X243.824 Y276.502 E0.6894
G1 X242.831 Y277.225 E0.72208
G1 X241.524 Y278.205 E0.76555
G1 X239.588 Y279.719 E0.83095
G1 X238.945 Y280.241 E0.85298
G1 X237.511 Y281.434 E0.90262
G1 X236.087 Y282.666 E0.95272
G1 X234.631 Y283.977 E1.00485
G1 X233.768 Y284.781 E1.03623
G1 X232.294 Y286.198 E1.09064
G1 X230.905 Y287.587 E1.14291
G1 X229.88 Y288.65 E1.1822
G1 X229.028 Y289.558 E1.21533
G1 X227.596 Y291.137 E1.27205
G1 X225.778 Y293.221 E1.34563
G1 X225.156 Y293.874 E1.36963
G1 X224.478 Y294.468 E1.39361
G1 X223.751 Y295 E1.41758
G1 X222.979 Y295.466 E1.44158
G1 X222.169 Y295.861 E1.46556
G1 X221.327 Y296.183 E1.48954
G1 X220.46 Y296.429 E1.51352
G1 X219.575 Y296.598 E1.5375
G1 X218.678 Y296.687 E1.56148
G1 X217.776 Y296.696 E1.58548
G1 X216.878 Y296.626 E1.60945
G1 X215.989 Y296.476 E1.63344
G1 X215.117 Y296.247 E1.65743
G1 X214.269 Y295.943 E1.6814
G1 X213.475 Y295.577 E1.70466
G1 X212.67 Y295.163 E1.72875
G1 X210.364 Y294.002 E1.79744
G1 X208.047 Y292.916 E1.86553
G1 X205.706 Y291.897 E1.93346
G1 X203.324 Y290.939 E2.00178
G1 X200.992 Y290.081 E2.0679
G1 X198.549 Y289.257 E2.1365
G1 X196.163 Y288.527 E2.20289
G1 X193.671 Y287.841 E2.27166
G1 X191.213 Y287.238 E2.339
G1 X188.737 Y286.704 E2.4064
G1 X186.223 Y286.239 E2.47443
G1 X183.734 Y285.848 E2.54147
G1 X181.185 Y285.521 E2.60985
G1 X178.712 Y285.276 E2.67597
G1 X176.132 Y285.093 E2.74479
G1 X173.601 Y284.986 E2.8122
G1 X171.065 Y284.95 E2.87968
G1 X168.53 Y284.986 E2.94714
G1 X165.997 Y285.093 E3.0146
G1 X163.418 Y285.276 E3.0834
G1 X160.945 Y285.521 E3.14952
G1 X158.401 Y285.847 E3.21776
G1 X155.894 Y286.241 E3.28529
G1 X153.397 Y286.705 E3.35287
G1 X150.889 Y287.245 E3.42113
G1 X148.48 Y287.836 E3.48713
G1 X145.953 Y288.53 E3.55686
G1 X145.746 Y288.593 E3.56261
G1 X144.4 Y288.987 E3.59993
G1 X143.525 Y289.201 E3.6239
G1 X142.634 Y289.338 E3.64789
G1 X141.734 Y289.394 E3.67188
G1 X140.657 Y289.357 E3.70055
G1 X139.547 Y289.258 E3.73021
G1 X136.556 Y288.939 E3.81024
G1 X135.481 Y288.831 E3.83899
G1 X132.163 Y288.517 E3.92767
G1 X131.08 Y288.421 E3.9566
G1 X127.817 Y288.152 E4.04372
G1 X126.776 Y288.072 E4.0715
G1 X123.412 Y287.834 E4.16123
G1 X122.274 Y287.761 E4.19157
G1 X118.929 Y287.567 E4.28073
G1 X117.87 Y287.511 E4.30894
G1 X114.684 Y287.361 E4.39381
G1 X113.439 Y287.311 E4.42697
G1 X110.203 Y287.2 E4.51312
G1 X109.021 Y287.166 E4.54458
G1 X105.621 Y287.089 E4.63507
G1 X104.438 Y287.071 E4.66656
G1 X101.142 Y287.036 E4.75426
G1 X99.987 Y287.03 E4.78499
G1 X96.42 Y287.034 E4.87991
G1 X95.273 Y287.042 E4.91043
G1 X90.953 Y287.101 E5.02538
G1 X86.548 Y287.199 E5.14262
G1 X85.424 Y287.23 E5.17254
G1 X80.983 Y287.379 E5.29077
G1 X79.932 Y287.42 E5.31876
G1 X75.576 Y287.615 E5.43478
G1 X74.48 Y287.671 E5.46398
G1 X69.773 Y287.936 E5.58942
G1 X68.718 Y288.001 E5.61755
G1 X63.635 Y288.347 E5.75311
G1 X57.446 Y288.808 E5.91824
G1 X54.407 Y289.052 E5.99937
G1 X51.512 Y289.309 E6.0767
G1 X48.025 Y289.656 E6.16994
G1 X45.231 Y289.97 E6.24475
G1 X42.692 Y290.285 E6.31283
G1 X40.525 Y290.576 E6.371
G1 X39.546 Y290.715 E6.39732
G1 X36.739 Y291.13 E6.47282
G1 X35.474 Y291.327 E6.50688
G1 X32.993 Y291.73 E6.57376
G1 X31.695 Y291.95 E6.60879
G1 X29.098 Y292.411 E6.67897
G1 X27.816 Y292.648 E6.71366
G1 X25.354 Y293.122 E6.78037
G1 X23.998 Y293.393 E6.81717
G1 X21.499 Y293.913 E6.88509
G1 X20.161 Y294.201 E6.9215
G1 X17.566 Y294.778 E6.99224
G1 X16.943 Y294.907 E7.00917
G1 X16.225 Y295.032 E7.02856
G1 X15.328 Y295.115 E7.05253
G1 X14.426 Y295.117 E7.07653
G1 X13.528 Y295.04 E7.10051
G1 X12.641 Y294.883 E7.12448
G1 X11.77 Y294.649 E7.14848
G1 X10.924 Y294.338 E7.17246
G1 X10.109 Y293.953 E7.19644
G1 X9.331 Y293.498 E7.22042
G1 X8.597 Y292.975 E7.2444
G1 X7.912 Y292.39 E7.26837
G1 X7.281 Y291.746 E7.29236
G1 X6.71 Y291.049 E7.31634
G1 X6.203 Y290.303 E7.34034
G1 X5.764 Y289.516 E7.36432
G1 X5.396 Y288.693 E7.3883
G1 X5.103 Y287.841 E7.41228
G1 X4.887 Y286.966 E7.43626
G1 X4.749 Y286.075 E7.46025
G1 X4.69 Y285.176 E7.48422
G1 X4.712 Y284.275 E7.5082
G1 X4.813 Y283.379 E7.53219
G1 X4.901 Y282.898 E7.5452
G1 X5.099 Y281.952 E7.57092
G1 X25.18 Y192.497 E10.01039
G1 X25.719 Y189.927 E10.08026
G1 X26.174 Y187.404 E10.14847
G1 X26.552 Y184.904 E10.21575
G1 X26.861 Y182.379 E10.28343
G1 X27.098 Y179.853 E10.35094
G1 X27.265 Y177.292 E10.41923
G1 X27.358 Y174.786 E10.48596
G1 X27.381 Y172.217 E10.55431
G1 X27.331 Y169.678 E10.62189
G1 X27.211 Y167.182 E10.68838
G1 X27.016 Y164.62 E10.75674
G1 X26.748 Y162.068 E10.82502
G1 X26.417 Y159.589 E10.89157
G1 X26.009 Y157.079 E10.95923
G1 X25.527 Y154.56 E11.02747
G1 X24.986 Y152.118 E11.09402
G1 X24.355 Y149.598 E11.16315
G1 X23.677 Y147.186 E11.22981
G1 X22.918 Y144.757 E11.29753
G1 X22.09 Y142.342 E11.36546
G1 X21.199 Y139.97 E11.43288
G1 X20.249 Y137.639 E11.49985
G1 X19.21 Y135.284 E11.56834
G1 X18.132 Y133.018 E11.63511
G1 X16.962 Y130.728 E11.70354
G1 X15.743 Y128.497 E11.77118
G1 X14.459 Y126.299 E11.83891
G1 X13.129 Y124.165 E11.90582
G1 X11.726 Y122.047 E11.97342
G1 X10.249 Y119.951 E12.04165
G1 X8.734 Y117.923 E12.109
G1 X7.15 Y115.924 E12.17687
G1 X5.941 Y114.481 E12.22696
G1 X5.732 Y114.223 E12.23579
G1 X5.197 Y113.498 E12.25977
G1 X4.727 Y112.729 E12.28375
G1 X4.328 Y111.921 E12.30773
G1 X4.002 Y111.081 E12.3317
G1 X3.751 Y110.215 E12.35569
G1 X3.579 Y109.33 E12.37968
G1 X3.485 Y108.434 E12.40365
G1 X3.471 Y107.533 E12.42763
G1 X3.537 Y106.634 E12.45161
G1 X3.782 Y105.317 E12.48726
G1 X3.997 Y104.479 E12.51028
G1 X24.025 Y30.737 E14.54349
G1 X24.588 Y28.671 E14.60047
G1 X24.766 Y28.049 E14.61768
G1 X25.052 Y27.194 E14.64167
G1 X25.413 Y26.368 E14.66566
G1 X25.846 Y25.577 E14.68965
G1 X26.347 Y24.828 E14.71363
G1 X26.912 Y24.126 E14.73761
G1 X27.537 Y23.477 E14.76158
G1 X28.218 Y22.886 E14.78557
G1 X28.948 Y22.357 E14.80956
G1 X29.722 Y21.896 E14.83353
G1 X30.534 Y21.504 E14.85752
G1 X31.378 Y21.187 E14.88151
G1 X32.246 Y20.945 E14.90549
G1 X33.132 Y20.781 E14.92947
G1 X34.03 Y20.697 E14.95346
G1 X34.931 Y20.692 E14.97744
G1 X35.789 Y20.762 E15.00034
G1 X36.638 Y20.869 E15.02311
G1 X39.912 Y21.326 E15.11107
G1 X41.402 Y21.522 E15.15106
G1 X44.71 Y21.932 E15.23975
G1 X46.077 Y22.091 E15.27637
G1 X49.437 Y22.456 E15.3663
G1 X50.905 Y22.604 E15.40556
G1 X54.071 Y22.899 E15.49017
G1 X55.6 Y23.03 E15.531
G1 X58.81 Y23.28 E15.61667
G1 X60.318 Y23.384 E15.65689
G1 X63.757 Y23.597 E15.74857
G1 X65.173 Y23.675 E15.7863
G1 X68.453 Y23.828 E15.87367
G1 X69.686 Y23.878 E15.90651
G1 X70.935 Y23.921 E15.93976
G1 X71.997 Y23.952 E15.96803
G1 X73.414 Y23.986 E16.00575
G1 X74.451 Y24.004 E16.03334
G1 X76.71 Y24.028 E16.09345
G1 X78.26 Y24.033 E16.1347
G1 X79.272 Y24.031 E16.16162
G1 X81.709 Y24.008 E16.22647
G1 X84.143 Y23.965 E16.29125
G1 X86.625 Y23.899 E16.35731
G1 X89.407 Y23.807 E16.43137
G1 X92.09 Y23.697 E16.50282
G1 X98.385 Y23.395 E16.67051
G1 X118.069 Y22.276 E17.19511
G1 X122.025 Y22.027 E17.30058
G1 X124.199 Y21.879 E17.35856
G1 X126.691 Y21.699 E17.42504
G1 X129.093 Y21.513 E17.48915
G1 X131.079 Y21.346 E17.54218
G1 X133.143 Y21.157 E17.59733
G1 X135.319 Y20.942 E17.65551
G1 X137.109 Y20.751 E17.70341
G1 X139.221 Y20.507 E17.75998
G1 X140.937 Y20.292 E17.80599
G1 X142.978 Y20.018 E17.86079
G1 X144.783 Y19.759 E17.90931
G1 X146.599 Y19.482 E17.95819
G1 X148.484 Y19.177 E18.009
G1 X150.5 Y18.83 E18.06343
G1 X152.387 Y18.49 E18.11444
G1 X154.179 Y18.15 E18.16298
G1 X155.007 Y17.987 E18.18543
G1 X156.54 Y17.673 E18.22707
G1 X158.128 Y17.332 E18.27028
G1 X159.462 Y17.03 E18.30668
G1 X160.674 Y16.743 E18.33982
G1 X162.435 Y16.299 E18.38814
G1 X164.986 Y15.589 E18.4586
G1 X167.393 Y14.846 E18.52563
G1 X169.774 Y14.036 E18.59255
G1 X172.515 Y13.008 E18.67044
G1 X175.798 Y11.647 E18.765
G1 X178.088 Y10.61 E18.83189
G1 X179.106 Y10.126 E18.86189
G1 X180.912 Y9.233 E18.91549
G1 X182.164 Y8.584 E18.95302
G1 X183.654 Y7.783 E18.99803
G1 X184.609 Y7.251 E19.02712
G1 X186.785 Y5.984 E19.09411
G1 X188.56 Y4.911 E19.1493
G1 X189.351 Y4.48 E19.17327
G1 X190.177 Y4.12 E19.19725
G1 X191.032 Y3.835 E19.22123
G1 X191.909 Y3.627 E19.24521
G1 X192.801 Y3.497 E19.26919
G1 X193.701 Y3.447 E19.29318
G1 X194.602 Y3.476 E19.31717
G1 X195.497 Y3.586 E19.34116
G1 X196.378 Y3.774 E19.36513
G1 X197.239 Y4.04 E19.38911
G1 X198.074 Y4.381 E19.41311
G1 X198.874 Y4.795 E19.43707
G1 X199.635 Y5.278 E19.46106
G1 X200.57 Y6.016 E19.49275
G1 X200.915 Y6.323 E19.50504
G1 X201.234 Y6.62 E19.51664
G1 X202.993 Y8.327 E19.58186
G1 X203.457 Y8.79 E19.5993
G1 X204.126 Y9.526 E19.62576
G1 X204.617 Y10.126 E19.64639
G1 X205.012 Y10.628 E19.66339
G1 X205.584 Y11.369 E19.68829
G1 X206.516 Y12.609 E19.72957
G1 X206.999 Y13.269 E19.75133
G1 X207.486 Y13.944 E19.77348
G1 X207.948 Y14.595 E19.79472
G1 X208.46 Y15.33 E19.81855
G1 X208.89 Y15.959 E19.83883
G1 X209.743 Y17.237 E19.87971
G1 X210.67 Y18.673 E19.92519
G1 X211.552 Y20.093 E19.96967
G1 X212.393 Y21.498 E20.01324
G1 X213.201 Y22.899 E20.05627
G1 X213.709 Y23.805 E20.08391
G1 X214.394 Y25.064 E20.12205
G1 X214.78 Y25.796 E20.14407
G1 X215.239 Y26.683 E20.17064
G1 X215.881 Y27.954 E20.20853
G1 X216.939 Y30.119 E20.27265
G1 X217.681 Y31.698 E20.31907
G1 X217.982 Y32.362 E20.33847
G1 X218.616 Y33.796 E20.38018
G1 X218.94 Y34.554 E20.40212
G1 X219.593 Y36.138 E20.44771
G1 X220.185 Y37.654 E20.49101
G1 X220.717 Y39.092 E20.53181
G1 X221.07 Y40.091 E20.56
G1 X221.403 Y41.075 E20.58764
G1 X222.016 Y42.995 E20.64127
G1 X222.543 Y44.796 E20.6912
G1 X222.862 Y45.965 E20.72344
G1 X223.073 Y46.788 E20.74605
G1 X223.3 Y47.713 E20.77139
G1 X223.532 Y48.723 E20.79897
G1 X223.802 Y49.983 E20.83325
G1 X224.013 Y51.042 E20.86198
G1 X224.256 Y52.392 E20.89848
G1 X224.441 Y53.524 E20.929
G1 X224.624 Y54.795 E20.96317
G1 X224.707 Y55.414 E20.97979
G1 X225.093 Y58.029 E21.05012
G1 X225.533 Y60.523 E21.11751
G1 X226.05 Y63.035 E21.18575
G1 X226.625 Y65.481 E21.25261
G1 X227.279 Y67.942 E21.32036
G1 X228.003 Y70.388 E21.38824
G1 X228.798 Y72.816 E21.45622
G1 X229.653 Y75.201 E21.52363
G1 X230.574 Y77.555 E21.59089
G1 X231.574 Y79.912 E21.65902
G1 X232.621 Y82.202 E21.72601
G1 X233.747 Y84.487 E21.7938
G1 X234.934 Y86.735 E21.86144
G1 X236.196 Y88.969 E21.92971
G1 X237.484 Y91.106 E21.9961
G1 X238.878 Y93.277 E22.06475
G1 X240.31 Y95.376 E22.13236
G1 X241.789 Y97.414 E22.19936
G1 X243.325 Y99.412 E22.26642
G1 X244.963 Y101.423 E22.33543
G1 X246.62 Y103.341 E22.40287
G1 X248.315 Y105.196 E22.46973
G1 X250.092 Y107.034 E22.53776
G1 X251.9 Y108.802 E22.60504
G1 X253.789 Y110.544 E22.67342
G1 X255.676 Y112.188 E22.74001
G1 X257.654 Y113.818 E22.80821
G1 X259.643 Y115.364 E22.87524
G1 X261.708 Y116.878 E22.94337
G1 X263.804 Y118.323 E23.01111
G1 X265.926 Y119.701 E23.07843
G1 X268.11 Y121.033 E23.1465
G1 X270.297 Y122.283 E23.21353
G1 X272.554 Y123.49 E23.28163
G1 X274.82 Y124.62 E23.349
G1 X277.104 Y125.679 E23.41599
G1 X279.48 Y126.701 E23.48481
G1 X281.829 Y127.634 E23.55206
G1 X284.196 Y128.495 E23.61908
G1 X286.019 Y129.091 E23.67012
G1 X287.342 Y129.533 E23.70723
G1 X288.184 Y129.856 E23.73123
G1 X288.993 Y130.252 E23.75519
G1 X289.764 Y130.719 E23.77918
G1 X290.491 Y131.252 E23.80316
G1 X291.168 Y131.848 E23.82716
G1 X291.789 Y132.501 E23.85114
G1 X292.349 Y133.207 E23.87512
G1 X292.846 Y133.959 E23.8991
G1 X293.273 Y134.753 E23.92309
G1 X293.628 Y135.581 E23.94706
G1 X293.909 Y136.438 E23.97106
G1 X294.113 Y137.316 E23.99504
G1 X294.237 Y138.208 E24.01901
G1 X294.279 Y138.896 E24.03735
G1 X294.308 Y140.018 E24.06721
G1 X295.12 Y242.139 E26.78454
G1 X295.144 Y245.189 E26.8657
G1 X295.14 Y245.849 E26.88326
G1 X295.094 Y246.749 E26.90724
G1 X294.969 Y247.641 E26.93121
G1 X294.766 Y248.519 E26.95519
G1 X294.485 Y249.376 E26.97918
G1 X294.13 Y250.204 E27.00315
G1 X293.702 Y250.998 E27.02716
G1 X293.206 Y251.75 E27.05113
G1 X292.645 Y252.456 E27.07512
G1 X292.024 Y253.109 E27.0991
G1 X291.347 Y253.704 E27.12308
G1 X290.62 Y254.237 E27.14706
G1 X289.849 Y254.704 E27.17105
G1 X288.761 Y255.217 E27.20306
G1 X287.916 Y255.554 E27.22726
G1 X284.625 Y256.8 E27.3209
G1 X283.659 Y257.173 E27.34845
G1 X280.438 Y258.435 E27.4405
G1 X279.397 Y258.849 E27.47031
G1 X276.111 Y260.179 E27.56463
G1 X275.157 Y260.571 E27.59207
G1 X271.572 Y262.07 E27.69547
G1 X266.576 Y264.221 E27.8402
G1 F2700 E22.8402
G0 F6000 X218.164 Y287.508
G0 X81.008 Y287.698
G1 F2700 E27.8402
G1 F1200 X79.946 Y287.74 E27.86848
G1 X75.565 Y287.936 E27.98516
G1 X74.517 Y287.989 E28.01309
G1 X69.792 Y288.255 E28.13901
G1 X68.74 Y288.32 E28.16705
G1 X63.657 Y288.666 E28.30262
G1 X57.47 Y289.127 E28.4677
G1 X54.455 Y289.37 E28.54818
G1 X51.568 Y289.625 E28.6253
G1 X48.014 Y289.979 E28.72033
G1 X45.218 Y290.293 E28.79519
G1 X42.785 Y290.596 E28.86043
G1 X40.604 Y290.888 E28.91898
G1 X39.535 Y291.04 E28.94771
G1 X36.803 Y291.443 E29.02119
G1 X35.486 Y291.648 E29.05666
G1 X33.116 Y292.033 E29.12054
G1 X31.696 Y292.275 E29.15887
G1 X29.154 Y292.726 E29.22757
G1 X27.859 Y292.965 E29.26261
G1 X25.468 Y293.426 E29.3274
G1 X24.114 Y293.697 E29.36414
G1 X21.493 Y294.242 E29.43537
G1 X20.178 Y294.525 E29.47116
G1 X17.631 Y295.091 E29.54059
G1 X17.008 Y295.22 E29.55751
G1 X16.283 Y295.347 E29.5771
G1 X15.371 Y295.433 E29.60147
G1 X14.456 Y295.439 E29.62582
G1 X13.544 Y295.364 E29.65017
G1 X12.641 Y295.211 E29.67454
G1 X11.755 Y294.979 E29.69891
G1 X10.893 Y294.671 E29.72326
G1 X10.062 Y294.289 E29.7476
G1 X9.266 Y293.836 E29.77197
G1 X8.513 Y293.315 E29.79633
G1 X7.809 Y292.73 E29.82069
G1 X7.158 Y292.086 E29.84505
G1 X6.566 Y291.388 E29.86941
G1 X6.037 Y290.641 E29.89376
G1 X5.576 Y289.85 E29.91812
G1 X5.185 Y289.023 E29.94246
G1 X4.868 Y288.164 E29.96683
G1 X4.627 Y287.281 E29.99118
G1 X4.464 Y286.38 E30.01554
G1 X4.38 Y285.468 E30.03991
G1 X4.376 Y284.553 E30.06426
G1 X4.452 Y283.641 E30.08861
G1 X4.587 Y282.833 E30.11041
G1 X4.786 Y281.882 E30.13626
G1 X24.889 Y192.33 E32.57837
G1 X25.403 Y189.875 E32.64511
G1 X25.86 Y187.341 E32.71362
G1 X26.236 Y184.853 E32.78058
G1 X26.544 Y182.346 E32.84778
G1 X26.779 Y179.835 E32.91489
G1 X26.944 Y177.297 E32.98256
G1 X27.038 Y174.771 E33.04982
G1 X27.061 Y172.221 E33.11767
G1 X27.011 Y169.698 E33.18482
G1 X26.891 Y167.186 E33.25174
G1 X26.697 Y164.642 E33.31962
G1 X26.435 Y162.143 E33.38648
G1 X26.096 Y159.612 E33.45443
G1 X25.692 Y157.12 E33.5216
G1 X25.213 Y154.619 E33.58936
G1 X24.676 Y152.195 E33.65542
G1 X24.05 Y149.693 E33.72404
G1 X23.373 Y147.289 E33.7905
G1 X22.613 Y144.855 E33.85835
G1 X21.787 Y142.447 E33.92608
G1 X20.907 Y140.103 E33.9927
G1 X19.934 Y137.717 E34.06127
G1 X18.928 Y135.437 E34.12758
G1 X17.831 Y133.13 E34.19555
G1 X16.684 Y130.884 E34.26265
G1 X15.481 Y128.684 E34.32937
G1 X14.198 Y126.486 E34.39709
G1 X12.851 Y124.325 E34.46484
G1 X11.458 Y122.222 E34.53196
G1 X9.988 Y120.137 E34.59984
G1 X8.46 Y118.092 E34.66777
G1 X6.932 Y116.164 E34.73323
G1 X5.693 Y114.683 E34.7846
G1 X5.484 Y114.425 E34.79344
