;FLAVOR:Marlin
;TIME:12489
;Filament used: 11.9605m
;Layer height: 0.2
;MINX:2.826
;MINY:2.805
;MINZ:0.16
;MAXX:295.783
;MAXY:297.334
;MAXZ:2.96
;Generated with Cura_SteamEngine 4.6.1
M140 S50
M105
M190 S50
M104 S210
M105
M109 S210
M82 ;absolute extrusion mode
M201 X500.00 Y500.00 Z100.00 E5000.00 ;Setup machine max acceleration
M203 X500.00 Y500.00 Z10.00 E50.00 ;Setup machine max feedrate
M204 P500.00 R1000.00 T500.00 ;Setup Print/Retract/Travel acceleration
M205 X8.00 Y8.00 Z0.40 E5.00 ;Setup Jerk
M220 S100 ;Reset Feedrate
M221 S100 ;Reset Flowrate

G28 ;Home

G92 E0 ;Reset Extruder
G1 Z2.0 F3000 ;Move Z Axis up
G1 X10.1 Y20 Z0.28 F5000.0 ;Move to start position
G1 X10.1 Y200.0 Z0.28 F1500.0 E15 ;Draw the first line
G1 X10.4 Y200.0 Z0.28 F5000.0 ;Move to side a little
G1 X10.4 Y20 Z0.28 F1500.0 E30 ;Draw the second line
G92 E0 ;Reset Extruder
G1 Z2.0 F3000 ;Move Z Axis up

G92 E0
G92 E0
G1 F2700 E-5
;LAYER_COUNT:15
;LAYER:0
M107
G0 F6000 X275.129 Y260.582 Z0.16
;TYPE:SKIRT
G1 F2700 E0
G1 F1200 X271.668 Y262.029 E0.07985
G1 X270.678 Y262.45 E0.10275
G1 X266.677 Y264.178 E0.19552
G1 X263.61 Y265.541 E0.26697
G1 X260.914 Y266.77 E0.33004
G1 X259.591 Y267.388 E0.36112
G1 X258.568 Y267.873 E0.38522
G1 X257.661 Y268.309 E0.40664
G1 X256.315 Y268.97 E0.43856
G1 X253.981 Y270.173 E0.49445
G1 X251.771 Y271.395 E0.54821
G1 X249.589 Y272.683 E0.60214
G1 X247.443 Y274.031 E0.65609
G1 X245.298 Y275.464 E0.711
G1 X244.127 Y276.286 E0.74146
G1 X242.971 Y277.122 E0.77182
G1 X241.512 Y278.214 E0.81062
G1 X239.978 Y279.41 E0.85202
G1 X238.756 Y280.395 E0.88543
G1 X237.304 Y281.61 E0.92573
G1 X236.099 Y282.656 E0.9597
G1 X234.631 Y283.977 E1.00174
G1 X233.768 Y284.781 E1.02684
G1 X232.271 Y286.219 E1.07103
G1 X231.172 Y287.314 E1.10405
G1 X229.849 Y288.681 E1.14455
G1 X228.736 Y289.875 E1.17929
G1 X227.54 Y291.202 E1.21732
G1 X225.783 Y293.215 E1.2742
G1 X225.161 Y293.867 E1.29338
G1 X224.483 Y294.461 E1.31257
G1 X223.756 Y294.993 E1.33174
G1 X222.984 Y295.459 E1.35094
G1 X222.174 Y295.854 E1.37012
G1 X221.332 Y296.176 E1.38931
G1 X220.465 Y296.422 E1.40849
G1 X219.579 Y296.59 E1.42769
G1 X218.682 Y296.679 E1.44688
G1 X217.781 Y296.688 E1.46606
G1 X216.882 Y296.617 E1.48525
G1 X215.994 Y296.467 E1.50442
G1 X215.122 Y296.239 E1.52361
G1 X214.273 Y295.934 E1.54281
G1 X213.564 Y295.611 E1.5594
G1 X210.321 Y293.98 E1.63667
G1 X208.027 Y292.906 E1.69059
G1 X205.664 Y291.88 E1.74542
G1 X203.323 Y290.94 E1.79912
G1 X200.932 Y290.06 E1.85335
G1 X198.519 Y289.248 E1.90755
G1 X196.116 Y288.513 E1.96104
G1 X193.655 Y287.836 E2.01537
G1 X191.174 Y287.229 E2.06974
G1 X188.695 Y286.695 E2.12372
G1 X186.185 Y286.231 E2.17806
G1 X183.686 Y285.84 E2.2319
G1 X181.19 Y285.522 E2.28546
G1 X178.642 Y285.27 E2.33996
G1 X176.1 Y285.091 E2.39421
G1 X173.569 Y284.984 E2.44813
G1 X171.032 Y284.949 E2.50214
G1 X168.496 Y284.986 E2.55613
G1 X165.929 Y285.096 E2.61082
G1 X163.436 Y285.273 E2.66402
G1 X160.866 Y285.53 E2.719
G1 X158.383 Y285.848 E2.77229
G1 X155.847 Y286.247 E2.82693
G1 X153.356 Y286.711 E2.88087
G1 X150.869 Y287.248 E2.93503
G1 X148.451 Y287.841 E2.98802
G1 X145.733 Y288.597 E3.04808
G1 X144.401 Y288.987 E3.07762
G1 X143.526 Y289.201 E3.0968
G1 X142.635 Y289.338 E3.11598
G1 X141.735 Y289.394 E3.13518
G1 X140.65 Y289.356 E3.15829
G1 X139.52 Y289.255 E3.18244
G1 X136.556 Y288.939 E3.24589
G1 X135.481 Y288.831 E3.26889
G1 X132.163 Y288.517 E3.33983
G1 X131.08 Y288.421 E3.36298
G1 X127.817 Y288.152 E3.43267
G1 X126.777 Y288.072 E3.45487
G1 X123.399 Y287.833 E3.52696
G1 X122.273 Y287.761 E3.55098
G1 X118.885 Y287.564 E3.62322
G1 X117.842 Y287.509 E3.64545
G1 X114.71 Y287.363 E3.71219
G1 X113.498 Y287.314 E3.73801
G1 X110.229 Y287.201 E3.80764
G1 X109.017 Y287.166 E3.83345
G1 X105.621 Y287.089 E3.90576
G1 X104.438 Y287.071 E3.93094
G1 X101.142 Y287.036 E4.0011
G1 X99.987 Y287.03 E4.02569
G1 X96.437 Y287.034 E4.10126
G1 X95.294 Y287.042 E4.12559
G1 X91.049 Y287.1 E4.21596
G1 X86.496 Y287.201 E4.3129
G1 X85.43 Y287.23 E4.3356
G1 X80.952 Y287.38 E4.43097
G1 X79.944 Y287.419 E4.45245
G1 X75.483 Y287.618 E4.5475
G1 X74.432 Y287.671 E4.5699
G1 X69.889 Y287.927 E4.66676
G1 X68.874 Y287.991 E4.68841
G1 X63.528 Y288.355 E4.80247
G1 X57.501 Y288.803 E4.93112
G1 X54.42 Y289.051 E4.99691
G1 X51.56 Y289.305 E5.05803
G1 X48.622 Y289.593 E5.12087
G1 X45.963 Y289.883 E5.17781
G1 X44.521 Y290.054 E5.20872
G1 X41.338 Y290.464 E5.27703
G1 X40.478 Y290.582 E5.29551
G1 X39.554 Y290.714 E5.31538
G1 X36.749 Y291.129 E5.37574
G1 X35.502 Y291.322 E5.4026
G1 X33.075 Y291.716 E5.45493
G1 X31.639 Y291.96 E5.48594
G1 X29.098 Y292.411 E5.54087
G1 X27.749 Y292.66 E5.57008
G1 X25.325 Y293.128 E5.62263
G1 X24.077 Y293.378 E5.64972
G1 X21.449 Y293.923 E5.70685
G1 X20.14 Y294.205 E5.73535
G1 X17.517 Y294.788 E5.79255
G1 X16.888 Y294.917 E5.80622
G1 X15.998 Y295.059 E5.8254
G1 X15.099 Y295.121 E5.84459
G1 X14.198 Y295.103 E5.86377
G1 X13.302 Y295.006 E5.88295
G1 X12.418 Y294.829 E5.90214
G1 X11.553 Y294.575 E5.92133
G1 X10.714 Y294.245 E5.94052
G1 X9.908 Y293.843 E5.9597
G1 X9.14 Y293.37 E5.9789
G1 X8.418 Y292.831 E5.99808
G1 X7.746 Y292.23 E6.01727
G1 X7.13 Y291.572 E6.03645
G1 X6.575 Y290.863 E6.05562
G1 X6.084 Y290.106 E6.07483
G1 X5.663 Y289.309 E6.09401
G1 X5.314 Y288.478 E6.1132
G1 X5.04 Y287.62 E6.13237
G1 X4.843 Y286.74 E6.15157
G1 X4.725 Y285.846 E6.17076
G1 X4.687 Y284.946 E6.18994
G1 X4.729 Y284.046 E6.20912
G1 X4.902 Y282.884 E6.23412
G1 X5.098 Y281.955 E6.25433
G1 X25.18 Y192.498 E8.20595
G1 X25.719 Y189.928 E8.26185
G1 X26.174 Y187.405 E8.31642
G1 X26.552 Y184.905 E8.37024
G1 X26.861 Y182.38 E8.42439
G1 X27.101 Y179.819 E8.47914
G1 X27.264 Y177.33 E8.53224
G1 X27.358 Y174.787 E8.58641
G1 X27.381 Y172.218 E8.64109
G1 X27.331 Y169.679 E8.69515
G1 X27.211 Y167.183 E8.74834
G1 X27.016 Y164.621 E8.80304
G1 X26.748 Y162.069 E8.85766
G1 X26.418 Y159.596 E8.91077
G1 X26.007 Y157.069 E8.96527
G1 X25.528 Y154.567 E9.01949
G1 X24.986 Y152.119 E9.07286
G1 X24.355 Y149.599 E9.12816
G1 X23.677 Y147.188 E9.18147
G1 X22.922 Y144.768 E9.23544
G1 X22.093 Y142.354 E9.28977
G1 X21.191 Y139.951 E9.3444
G1 X20.243 Y137.624 E9.39789
G1 X19.218 Y135.304 E9.45188
G1 X18.131 Y133.017 E9.50578
G1 X16.962 Y130.729 E9.56047
G1 X15.746 Y128.504 E9.61445
G1 X14.462 Y126.306 E9.66863
G1 X13.122 Y124.155 E9.72258
G1 X11.726 Y122.048 E9.77638
G1 X10.25 Y119.954 E9.83091
G1 X8.733 Y117.924 E9.88486
G1 X7.148 Y115.922 E9.93921
G1 X5.733 Y114.223 E9.98628
G1 X5.197 Y113.499 E10.00545
G1 X4.727 Y112.729 E10.02466
G1 X4.328 Y111.921 E10.04384
G1 X4.002 Y111.081 E10.06302
G1 X3.751 Y110.215 E10.08221
G1 X3.578 Y109.331 E10.10139
G1 X3.484 Y108.434 E10.12058
G1 X3.47 Y107.533 E10.13977
G1 X3.536 Y106.634 E10.15895
G1 X3.681 Y105.745 E10.17813
G1 X3.784 Y105.303 E10.18779
G1 X3.992 Y104.496 E10.20553
G1 X24.164 Y30.223 E11.84381
G1 X24.567 Y28.747 E11.87638
G1 X24.77 Y28.04 E11.89204
G1 X25.057 Y27.186 E11.91122
G1 X25.418 Y26.36 E11.9304
G1 X25.851 Y25.57 E11.94958
G1 X26.353 Y24.821 E11.96877
G1 X26.919 Y24.119 E11.98797
G1 X27.545 Y23.471 E12.00715
G1 X28.226 Y22.88 E12.02634
G1 X28.956 Y22.352 E12.04552
G1 X29.731 Y21.891 E12.06471
G1 X30.543 Y21.501 E12.08389
G1 X31.387 Y21.184 E12.10308
G1 X32.256 Y20.943 E12.12228
G1 X33.142 Y20.78 E12.14145
G1 X34.04 Y20.696 E12.16065
G1 X34.941 Y20.692 E12.17983
G1 X35.782 Y20.761 E12.19779
G1 X36.62 Y20.866 E12.21577
G1 X39.912 Y21.326 E12.28653
G1 X41.402 Y21.522 E12.31852
G1 X44.71 Y21.932 E12.38947
G1 X46.077 Y22.091 E12.41877
G1 X49.437 Y22.456 E12.49071
G1 X50.905 Y22.604 E12.52212
G1 X54.091 Y22.901 E12.59023
G1 X55.589 Y23.029 E12.62223
G1 X58.814 Y23.28 E12.69109
G1 X60.307 Y23.384 E12.72295
G1 X63.722 Y23.595 E12.79578
G1 X65.025 Y23.666 E12.82356
G1 X68.494 Y23.83 E12.89748
G1 X69.729 Y23.879 E12.92379
G1 X72.023 Y23.953 E12.97265
G1 X73.414 Y23.986 E13.00227
G1 X74.451 Y24.004 E13.02434
G1 X76.71 Y24.028 E13.07243
G1 X78.26 Y24.033 E13.10543
G1 X79.272 Y24.031 E13.12697
G1 X81.709 Y24.008 E13.17885
G1 X84.1 Y23.966 E13.22975
G1 X87.868 Y23.86 E13.30999
G1 X89.2 Y23.813 E13.33836
G1 X92.002 Y23.702 E13.39805
G1 X95.08 Y23.563 E13.46364
G1 X99.831 Y23.321 E13.5649
G1 X118.138 Y22.272 E13.95523
G1 X121.942 Y22.032 E14.03637
G1 X124.346 Y21.869 E14.08766
G1 X126.66 Y21.701 E14.13704
G1 X129.093 Y21.513 E14.18899
G1 X131.079 Y21.346 E14.23141
G1 X133.143 Y21.157 E14.27553
G1 X135.319 Y20.942 E14.32208
G1 X137.109 Y20.751 E14.36039
G1 X139.221 Y20.507 E14.40565
G1 X140.937 Y20.292 E14.44246
G1 X142.978 Y20.018 E14.4863
G1 X144.783 Y19.759 E14.52512
G1 X146.599 Y19.482 E14.56422
G1 X147.656 Y19.313 E14.587
G1 X148.573 Y19.161 E14.60679
G1 X150.591 Y18.816 E14.65037
G1 X153.52 Y18.278 E14.71376
G1 X154.881 Y18.012 E14.74328
G1 X156.581 Y17.665 E14.78021
G1 X158.032 Y17.353 E14.81181
G1 X159.515 Y17.018 E14.84417
G1 X160.605 Y16.76 E14.86801
G1 X163.126 Y16.115 E14.9234
G1 X165.553 Y15.422 E14.97713
G1 X167.996 Y14.648 E15.03168
G1 X170.373 Y13.82 E15.08526
G1 X173.177 Y12.746 E15.14918
G1 X176.209 Y11.464 E15.21925
G1 X178.816 Y10.265 E15.28033
G1 X181.136 Y9.118 E15.33542
G1 X182.155 Y8.588 E15.35987
G1 X182.923 Y8.179 E15.37839
G1 X186.418 Y6.202 E15.46387
G1 X188.585 Y4.897 E15.51771
G1 X189.377 Y4.467 E15.5369
G1 X190.204 Y4.108 E15.55609
G1 X191.06 Y3.825 E15.57528
G1 X191.937 Y3.618 E15.59446
G1 X192.829 Y3.49 E15.61364
G1 X193.729 Y3.441 E15.63283
G1 X194.63 Y3.473 E15.65202
G1 X195.525 Y3.584 E15.67122
G1 X196.406 Y3.774 E15.6904
G1 X197.266 Y4.041 E15.70957
G1 X198.1 Y4.384 E15.72877
G1 X198.9 Y4.799 E15.74795
G1 X199.66 Y5.283 E15.76713
G1 X200.375 Y5.833 E15.78633
G1 X200.746 Y6.162 E15.79689
G1 X201.23 Y6.615 E15.811
G1 X202.993 Y8.327 E15.86331
G1 X203.457 Y8.79 E15.87726
G1 X204.126 Y9.526 E15.89843
G1 X204.625 Y10.136 E15.91521
G1 X204.991 Y10.602 E15.92782
G1 X205.563 Y11.342 E15.94773
G1 X206.516 Y12.61 E15.9815
G1 X206.935 Y13.182 E15.99659
G1 X207.932 Y14.574 E16.03304
G1 X208.421 Y15.274 E16.05121
G1 X208.848 Y15.898 E16.06731
G1 X209.725 Y17.21 E16.1009
G1 X210.281 Y18.066 E16.12263
G1 X210.682 Y18.694 E16.13849
G1 X211.122 Y19.395 E16.15611
G1 X211.984 Y20.809 E16.19136
G1 X212.334 Y21.4 E16.20598
G1 X212.83 Y22.25 E16.22693
G1 X213.64 Y23.683 E16.26197
G1 X214.008 Y24.351 E16.2782
G1 X214.386 Y25.051 E16.29514
G1 X214.771 Y25.779 E16.31267
G1 X215.517 Y27.231 E16.34741
G1 X215.904 Y28.004 E16.36582
G1 X216.683 Y29.587 E16.40337
G1 X217.189 Y30.644 E16.42832
G1 X217.754 Y31.859 E16.45684
G1 X218.361 Y33.211 E16.48839
G1 X218.949 Y34.575 E16.52
G1 X219.583 Y36.113 E16.55541
G1 X220.381 Y38.173 E16.60244
G1 X220.713 Y39.078 E16.62296
G1 X221.1 Y40.177 E16.64776
G1 X221.394 Y41.049 E16.66735
G1 X222.006 Y42.965 E16.71017
G1 X222.531 Y44.751 E16.74979
G1 X222.812 Y45.781 E16.77252
G1 X223.045 Y46.678 E16.79225
G1 X223.3 Y47.717 E16.81502
G1 X223.516 Y48.653 E16.83547
G1 X223.742 Y49.688 E16.85802
G1 X223.979 Y50.865 E16.88357
G1 X224.216 Y52.156 E16.91151
G1 X224.433 Y53.482 E16.94012
G1 X224.616 Y54.735 E16.96707
G1 X224.672 Y55.161 E16.97622
G1 X225.046 Y57.755 E17.032
G1 X225.481 Y60.265 E17.08623
G1 X225.987 Y62.762 E17.14046
G1 X226.554 Y65.202 E17.19379
G1 X227.208 Y67.694 E17.24863
G1 X227.923 Y70.136 E17.30279
G1 X228.703 Y72.546 E17.35671
G1 X229.558 Y74.952 E17.41107
G1 X230.473 Y77.313 E17.46496
G1 X231.455 Y79.647 E17.51887
G1 X232.502 Y81.955 E17.57281
G1 X233.622 Y84.246 E17.6271
G1 X234.803 Y86.5 E17.68126
G1 X236.05 Y88.723 E17.73552
G1 X237.353 Y90.899 E17.78951
G1 X238.709 Y93.028 E17.84324
G1 X240.15 Y95.151 E17.89786
G1 X241.628 Y97.204 E17.95171
G1 X243.174 Y99.225 E18.00587
G1 X244.765 Y101.191 E18.05971
G1 X246.417 Y103.115 E18.11369
G1 X248.133 Y105.005 E18.16803
G1 X249.898 Y106.84 E18.22222
G1 X251.726 Y108.637 E18.27679
G1 X253.573 Y110.352 E18.33044
G1 X255.459 Y112.007 E18.38385
G1 X257.437 Y113.645 E18.43852
G1 X259.447 Y115.219 E18.49286
G1 X261.479 Y116.716 E18.54659
G1 X263.562 Y118.163 E18.60057
G1 X265.683 Y119.55 E18.65452
G1 X267.875 Y120.895 E18.70926
G1 X270.07 Y122.159 E18.76318
G1 X272.291 Y123.355 E18.81688
G1 X274.555 Y124.493 E18.87081
G1 X276.866 Y125.573 E18.92511
G1 X279.217 Y126.593 E18.97967
G1 X281.576 Y127.539 E19.03377
G1 X283.966 Y128.416 E19.08796
G1 X286.368 Y129.223 E19.1419
G1 X287.195 Y129.485 E19.16037
G1 X288.041 Y129.796 E19.17955
G1 X288.856 Y130.18 E19.19873
G1 X289.635 Y130.635 E19.21793
G1 X290.369 Y131.157 E19.23711
G1 X291.055 Y131.742 E19.2563
G1 X291.686 Y132.386 E19.27549
G1 X292.257 Y133.083 E19.29467
G1 X292.765 Y133.827 E19.31385
G1 X293.204 Y134.614 E19.33303
G1 X293.572 Y135.437 E19.35222
G1 X293.866 Y136.289 E19.3714
G1 X294.083 Y137.164 E19.39059
G1 X294.222 Y138.055 E19.40979
G1 X294.279 Y138.89 E19.4276
G1 X294.308 Y139.996 E19.45116
G1 X295.125 Y242.867 E21.64099
G1 X295.143 Y245.124 E21.68903
G1 X295.139 Y245.846 E21.7044
G1 X295.094 Y246.746 E21.72358
G1 X294.969 Y247.639 E21.74278
G1 X294.766 Y248.517 E21.76196
G1 X294.486 Y249.374 E21.78115
G1 X294.131 Y250.202 E21.80033
G1 X293.704 Y250.996 E21.81952
G1 X293.208 Y251.749 E21.83871
G1 X292.648 Y252.455 E21.85789
G1 X292.027 Y253.108 E21.87708
G1 X291.35 Y253.704 E21.89628
G1 X290.624 Y254.238 E21.91546
G1 X289.853 Y254.705 E21.93465
G1 X288.728 Y255.233 E21.9611
G1 X287.895 Y255.562 E21.98017
G1 X284.687 Y256.776 E22.05318
G1 X283.659 Y257.173 E22.07664
G1 X279.46 Y258.823 E22.17267
G1 X276.141 Y260.166 E22.24889
G1 X275.129 Y260.582 E22.27218
G0 F6000 X266.748 Y264.497
G1 F1200 X263.811 Y265.801 E22.34058
G1 X261.047 Y267.061 E22.40524
G1 X259.729 Y267.677 E22.43621
G1 X257.827 Y268.583 E22.48106
G1 X256.46 Y269.255 E22.51348
G1 X254.14 Y270.451 E22.56904
G1 X251.929 Y271.673 E22.62282
G1 X249.752 Y272.958 E22.67663
G1 X247.622 Y274.296 E22.73017
G1 X245.452 Y275.746 E22.78572
G1 X244.367 Y276.508 E22.81395
G1 X243.148 Y277.389 E22.84596
G1 X241.708 Y278.467 E22.88425
G1 X240.175 Y279.662 E22.92563
G1 X238.968 Y280.635 E22.95863
G1 X237.521 Y281.847 E22.99881
G1 X236.297 Y282.909 E23.0333
G1 X234.868 Y284.194 E23.07421
G1 X233.98 Y285.021 E23.10004
G1 X232.484 Y286.459 E23.14421
G1 X231.391 Y287.548 E23.17706
G1 X230.061 Y288.923 E23.21778
G1 X228.942 Y290.124 E23.25272
G1 X227.793 Y291.398 E23.28924
G1 X226.024 Y293.425 E23.34651
G1 X225.392 Y294.088 E23.366
G1 X224.706 Y294.693 E23.38547
G1 X223.968 Y295.236 E23.40498
G1 X223.187 Y295.712 E23.42445
G1 X222.367 Y296.119 E23.44393
G1 X221.514 Y296.452 E23.46343
G1 X220.636 Y296.71 E23.4829
G1 X219.738 Y296.89 E23.5024
G1 X218.828 Y296.991 E23.52189
G1 X217.913 Y297.012 E23.54137
G1 X216.999 Y296.953 E23.56087
G1 X216.095 Y296.815 E23.58033
G1 X215.205 Y296.598 E23.59983
G1 X214.338 Y296.305 E23.61932
G1 X213.42 Y295.897 E23.6407
G1 X210.184 Y294.27 E23.7178
G1 X207.865 Y293.183 E23.77232
G1 X205.562 Y292.183 E23.82576
G1 X203.195 Y291.233 E23.88005
G1 X200.832 Y290.363 E23.93365
G1 X198.425 Y289.554 E23.98771
G1 X196.017 Y288.817 E24.04131
G1 X193.596 Y288.152 E24.09475
G1 X191.107 Y287.543 E24.1493
G1 X188.6 Y287.002 E24.20389
G1 X186.153 Y286.55 E24.25686
G1 X183.666 Y286.161 E24.31045
G1 X181.115 Y285.835 E24.36519
G1 X178.624 Y285.589 E24.41847
G1 X176.102 Y285.411 E24.47229
G1 X173.55 Y285.304 E24.52666
G1 X171.032 Y285.269 E24.58027
G1 X168.48 Y285.306 E24.63459
G1 X165.965 Y285.414 E24.68818
G1 X163.455 Y285.593 E24.74174
G1 X160.938 Y285.844 E24.79559
G1 X158.404 Y286.169 E24.84997
G1 X155.92 Y286.559 E24.90349
G1 X153.413 Y287.027 E24.95778
G1 X150.936 Y287.561 E25.01172
G1 X148.51 Y288.157 E25.06489
G1 X145.823 Y288.904 E25.12426
G1 X144.491 Y289.294 E25.1538
G1 X143.602 Y289.512 E25.17329
G1 X142.697 Y289.653 E25.19279
G1 X141.784 Y289.713 E25.21226
G1 X140.622 Y289.675 E25.23701
G1 X139.486 Y289.573 E25.26129
G1 X136.586 Y289.264 E25.32337
G1 X135.391 Y289.144 E25.34893
G1 X132.193 Y288.841 E25.41731
G1 X131.054 Y288.74 E25.44165
G1 X127.791 Y288.471 E25.51135
G1 X126.754 Y288.391 E25.53349
G1 X123.434 Y288.156 E25.60433
G1 X122.195 Y288.077 E25.63076
G1 X118.925 Y287.886 E25.70049
G1 X117.809 Y287.828 E25.72428
G1 X114.631 Y287.68 E25.792
G1 X113.546 Y287.635 E25.81511
G1 X110.212 Y287.521 E25.88612
