;FLAVOR:Marlin
;TIME:2169
;Filament used: 1.17529m
;Layer height: 0.2
;MINX:124.712
;MINY:111.709
;MINZ:0.16
;MAXX:175.293
;MAXY:188.29
;MAXZ:5.96
;Generated with Cura_SteamEngine 4.6.1
M140 S80
M105
M190 S80
M104 S240
M105
M109 S240
M82 ;absolute extrusion mode
M201 X500.00 Y500.00 Z100.00 E5000.00 ;Setup machine max acceleration
M203 X500.00 Y500.00 Z10.00 E50.00 ;Setup machine max feedrate
M204 P500.00 R1000.00 T500.00 ;Setup Print/Retract/Travel acceleration
M205 X8.00 Y8.00 Z0.40 E5.00 ;Setup Jerk
M220 S100 ;Reset Feedrate
M221 S100 ;Reset Flowrate

G28 ;Home

G92 E0 ;Reset Extruder
G1 Z2.0 F3000 ;Move Z Axis up
G1 X10.1 Y20 Z0.28 F5000.0 ;Move to start position
G1 X10.1 Y200.0 Z0.28 F1500.0 E15 ;Draw the first line
G1 X10.4 Y200.0 Z0.28 F5000.0 ;Move to side a little
G1 X10.4 Y20 Z0.28 F1500.0 E30 ;Draw the second line
G92 E0 ;Reset Extruder
G1 Z2.0 F3000 ;Move Z Axis up

G92 E0
G92 E0
G1 F2700 E-1
;LAYER_COUNT:30
;LAYER:0
M107
G0 F6000 X151.108 Y112.374 Z0.16
;TYPE:SKIRT
G1 F2700 E0
G1 F900 X151.608 Y112.402 E0.01066
G1 X152.339 Y112.461 E0.02627
G1 X152.739 Y112.501 E0.03483
G1 X153.17 Y112.553 E0.04407
G1 X153.533 Y112.604 E0.05187
G1 X154.181 Y112.706 E0.06584
G1 X154.664 Y112.794 E0.07629
G1 X155.339 Y112.934 E0.09096
G1 X155.821 Y113.046 E0.10149
G1 X156.536 Y113.231 E0.11721
G1 X157.018 Y113.368 E0.12788
G1 X157.662 Y113.569 E0.14224
G1 X158.404 Y113.825 E0.15895
G1 X159.015 Y114.055 E0.17285
G1 X159.48 Y114.244 E0.18353
G1 X160.093 Y114.51 E0.19776
G1 X160.514 Y114.704 E0.20762
G1 X161.166 Y115.023 E0.22307
G1 X161.637 Y115.269 E0.23439
G1 X162.29 Y115.632 E0.25029
G1 X162.727 Y115.889 E0.26108
G1 X163.369 Y116.289 E0.27718
G1 X163.82 Y116.587 E0.28869
G1 X164.419 Y117.006 E0.30425
G1 X164.824 Y117.304 E0.31495
G1 X165.391 Y117.744 E0.33023
G1 X165.796 Y118.076 E0.34138
G1 X166.405 Y118.601 E0.35849
G1 X166.776 Y118.937 E0.36915
G1 X167.253 Y119.391 E0.38316
G1 X167.8 Y119.945 E0.39974
G1 X168.215 Y120.387 E0.41264
G1 X168.556 Y120.769 E0.42354
G1 X169.149 Y121.474 E0.44315
G1 X169.475 Y121.886 E0.45434
G1 X169.825 Y122.348 E0.46667
G1 X170.1 Y122.728 E0.47666
G1 X170.511 Y123.326 E0.4921
G1 X170.782 Y123.743 E0.50269
G1 X171.155 Y124.347 E0.5178
G1 X171.414 Y124.791 E0.52874
G1 X171.812 Y125.515 E0.54633
G1 X172.061 Y125.997 E0.55788
G1 X172.452 Y126.818 E0.57723
G1 X172.647 Y127.262 E0.58756
G1 X172.891 Y127.847 E0.60105
G1 X173.099 Y128.39 E0.61343
G1 X173.384 Y129.201 E0.63173
G1 X173.527 Y129.639 E0.64153
G1 X173.699 Y130.21 E0.65423
G1 X173.83 Y130.686 E0.66474
G1 X173.998 Y131.361 E0.67954
G1 X174.104 Y131.836 E0.6899
G1 X174.245 Y132.546 E0.70531
G1 X174.333 Y133.055 E0.71631
G1 X174.45 Y133.855 E0.73352
G1 X174.514 Y134.389 E0.74497
G1 X174.573 Y135.027 E0.7586
G1 X174.607 Y135.527 E0.76927
G1 X174.644 Y136.389 E0.78764
G1 X174.652 Y136.946 E0.7995
G1 X174.644 Y137.618 E0.8138
G1 X174.628 Y138.077 E0.82358
G1 X174.588 Y138.776 E0.83848
G1 X174.554 Y139.214 E0.84783
G1 X174.243 Y142.3 E0.91386
G1 X174.061 Y144.839 E0.96804
G1 X173.952 Y147.348 E1.0215
G1 X173.913 Y149.897 E1.07576
G1 X173.946 Y152.455 E1.13022
G1 X174.051 Y154.986 E1.18414
G1 X174.227 Y157.512 E1.23804
G1 X174.577 Y161.095 E1.31468
G1 X174.618 Y161.694 E1.32746
G1 X174.647 Y162.453 E1.34362
G1 X174.653 Y162.956 E1.35433
G1 X174.632 Y164.059 E1.37782
G1 X174.566 Y165.092 E1.39985
G1 X174.516 Y165.604 E1.4108
G1 X174.443 Y166.222 E1.42405
G1 X174.377 Y166.684 E1.43398
G1 X174.234 Y167.532 E1.45229
G1 X174.122 Y168.093 E1.46446
G1 X173.992 Y168.674 E1.47714
G1 X173.878 Y169.133 E1.4872
G1 X173.677 Y169.869 E1.50344
G1 X173.527 Y170.366 E1.5145
G1 X173.246 Y171.211 E1.53345
G1 X173.067 Y171.698 E1.5445
G1 X172.854 Y172.244 E1.55697
G1 X172.671 Y172.684 E1.56711
G1 X172.383 Y173.331 E1.58219
G1 X172.167 Y173.786 E1.59291
G1 X171.829 Y174.454 E1.60885
G1 X171.594 Y174.891 E1.61941
G1 X171.235 Y175.522 E1.63486
G1 X170.96 Y175.977 E1.64618
G1 X170.563 Y176.597 E1.66185
G1 X170.269 Y177.031 E1.67301
G1 X169.816 Y177.664 E1.68958
G1 X169.51 Y178.07 E1.7004
G1 X169.093 Y178.595 E1.71467
G1 X168.569 Y179.215 E1.73195
G1 X168.183 Y179.647 E1.74428
G1 X167.863 Y179.988 E1.75424
G1 X167.373 Y180.488 E1.76914
G1 X167.009 Y180.842 E1.77995
G1 X166.422 Y181.384 E1.79696
G1 X166.039 Y181.72 E1.8078
G1 X165.556 Y182.123 E1.82119
G1 X165.097 Y182.488 E1.83367
G1 X164.877 Y182.656 E1.83957
G1 X164.399 Y183.009 E1.85222
G1 X164.014 Y183.279 E1.86223
G1 X163.394 Y183.694 E1.87811
G1 X162.955 Y183.972 E1.88917
G1 X162.381 Y184.315 E1.9034
G1 X161.983 Y184.541 E1.91314
G1 X161.353 Y184.88 E1.92837
G1 X160.873 Y185.122 E1.93981
G1 X160.184 Y185.447 E1.95603
G1 X159.715 Y185.654 E1.96694
G1 X158.993 Y185.951 E1.98356
G1 X158.485 Y186.144 E1.99513
G1 X157.555 Y186.465 E2.01607
G1 X157.112 Y186.602 E2.02594
G1 X156.502 Y186.778 E2.03946
G1 X156.025 Y186.903 E2.04995
G1 X155.387 Y187.054 E2.06391
G1 X154.929 Y187.151 E2.07387
G1 X154.144 Y187.299 E2.09088
G1 X153.6 Y187.386 E2.10261
G1 X152.765 Y187.494 E2.12053
G1 X152.483 Y187.524 E2.12657
G1 X152.095 Y187.558 E2.13486
G1 X151.18 Y187.62 E2.15438
G1 X150.612 Y187.642 E2.16648
G1 X149.927 Y187.65 E2.18106
G1 X149.439 Y187.644 E2.19145
G1 X148.778 Y187.62 E2.20553
G1 X148.306 Y187.592 E2.21559
G1 X147.596 Y187.533 E2.23076
G1 X147.056 Y187.474 E2.24232
G1 X146.218 Y187.359 E2.26033
G1 X145.68 Y187.27 E2.27193
G1 X145.077 Y187.154 E2.28501
G1 X144.607 Y187.052 E2.29524
G1 X143.768 Y186.849 E2.31362
G1 X143.245 Y186.708 E2.32515
G1 X142.231 Y186.395 E2.34774
G1 X141.967 Y186.305 E2.35367
G1 X141.36 Y186.088 E2.3674
G1 X140.898 Y185.91 E2.37794
G1 X140.32 Y185.671 E2.39125
G1 X139.89 Y185.482 E2.40125
G1 X139.203 Y185.16 E2.4174
G1 X138.73 Y184.922 E2.42867
G1 X138.067 Y184.568 E2.44467
G1 X137.625 Y184.318 E2.45548
G1 X137.03 Y183.961 E2.47025
G1 X136.606 Y183.693 E2.48093
G1 X135.953 Y183.256 E2.49765
G1 X135.529 Y182.956 E2.50871
G1 X134.796 Y182.403 E2.52825
G1 X134.409 Y182.092 E2.53882
G1 X133.906 Y181.67 E2.5528
G1 X133.559 Y181.365 E2.56263
G1 X133.087 Y180.931 E2.57628
G1 X132.739 Y180.595 E2.58658
G1 X132.213 Y180.063 E2.6025
G1 X131.866 Y179.694 E2.61328
G1 X131.348 Y179.115 E2.62982
G1 X130.997 Y178.701 E2.64138
G1 X130.59 Y178.194 E2.65521
G1 X130.298 Y177.812 E2.66545
G1 X129.833 Y177.173 E2.68227
G1 X129.522 Y176.721 E2.69395
G1 X129.161 Y176.164 E2.70808
G1 X128.912 Y175.76 E2.71818
G1 X128.525 Y175.097 E2.73452
G1 X128.276 Y174.642 E2.74556
G1 X127.915 Y173.944 E2.76229
G1 X127.679 Y173.458 E2.77379
G1 X127.329 Y172.674 E2.79207
G1 X127.133 Y172.202 E2.80295
G1 X126.941 Y171.712 E2.81415
G1 X126.772 Y171.246 E2.8247
G1 X126.526 Y170.515 E2.84112
G1 X126.376 Y170.031 E2.85191
G1 X126.173 Y169.311 E2.86783
G1 X126.049 Y168.825 E2.87851
G1 X125.905 Y168.197 E2.89222
G1 X125.804 Y167.698 E2.90306
G1 X125.666 Y166.919 E2.9199
G1 X125.587 Y166.397 E2.93114
G1 X125.497 Y165.671 E2.94671
G1 X125.447 Y165.163 E2.95757
G1 X125.395 Y164.453 E2.97273
G1 X125.371 Y163.951 E2.98343
G1 X125.353 Y163.188 E2.99967
G1 X125.354 Y162.68 E3.01049
G1 X125.373 Y161.961 E3.0258
G1 X125.399 Y161.447 E3.03675
G1 X125.472 Y160.557 E3.05576
G1 X125.582 Y159.514 E3.07808
G1 X125.821 Y156.894 E3.13409
G1 X125.981 Y154.351 E3.18833
G1 X126.068 Y151.824 E3.24215
G1 X126.084 Y149.282 E3.29626
G1 X126.028 Y146.72 E3.35081
G1 X125.902 Y144.239 E3.40369
G1 X125.581 Y140.456 E3.4845
G1 X125.461 Y139.319 E3.50884
G1 X125.422 Y138.829 E3.51931
G1 X125.372 Y137.955 E3.53794
G1 X125.355 Y137.423 E3.54927
G1 X125.352 Y136.794 E3.56266
G1 X125.361 Y136.324 E3.57267
G1 X125.391 Y135.602 E3.58805
G1 X125.426 Y135.078 E3.59923
G1 X125.497 Y134.319 E3.61545
G1 X125.56 Y133.792 E3.62675
G1 X125.669 Y133.048 E3.64276
G1 X125.756 Y132.547 E3.65358
G1 X125.881 Y131.916 E3.66728
G1 X125.984 Y131.453 E3.67737
G1 X126.177 Y130.672 E3.6945
G1 X126.33 Y130.12 E3.70669
G1 X126.547 Y129.415 E3.72239
G1 X126.703 Y128.948 E3.73287
G1 X126.949 Y128.268 E3.74827
G1 X127.135 Y127.792 E3.75914
G1 X127.386 Y127.194 E3.77295
G1 X127.583 Y126.754 E3.78321
G1 X127.951 Y125.982 E3.80142
G1 X128.212 Y125.471 E3.81363
G1 X128.52 Y124.909 E3.82727
G1 X128.737 Y124.533 E3.83651
G1 X129.097 Y123.938 E3.85132
G1 X129.382 Y123.493 E3.86256
G1 X129.842 Y122.815 E3.88
G1 X130.156 Y122.378 E3.89146
G1 X130.552 Y121.856 E3.90541
G1 X130.851 Y121.481 E3.91562
G1 X131.381 Y120.847 E3.93321
G1 X131.767 Y120.41 E3.94562
G1 X132.194 Y119.955 E3.9589
G1 X132.509 Y119.635 E3.96846
G1 X133.117 Y119.042 E3.98654
G1 X133.531 Y118.66 E3.99853
G1 X134.057 Y118.201 E4.01339
G1 X134.405 Y117.91 E4.02304
G1 X134.858 Y117.549 E4.03537
G1 X135.355 Y117.172 E4.04865
G1 X135.578 Y117.01 E4.05452
G1 X136.033 Y116.689 E4.06637
G1 X136.418 Y116.431 E4.07624
G1 X137.014 Y116.05 E4.0913
G1 X137.428 Y115.798 E4.10161
G1 X138.09 Y115.418 E4.11786
G1 X138.56 Y115.165 E4.12922
G1 X139.133 Y114.875 E4.14289
G1 X139.559 Y114.672 E4.15294
G1 X140.285 Y114.346 E4.16988
G1 X140.798 Y114.132 E4.18171
G1 X141.51 Y113.858 E4.19795
G1 X142 Y113.683 E4.20903
G1 X143.043 Y113.352 E4.23232
G1 X143.308 Y113.277 E4.23818
G1 X143.937 Y113.108 E4.25205
G1 X144.383 Y112.999 E4.26182
G1 X145.448 Y112.773 E4.28499
G1 X145.697 Y112.729 E4.29038
G1 X146.286 Y112.631 E4.30309
G1 X146.762 Y112.563 E4.31332
G1 X147.397 Y112.488 E4.32693
G1 X147.896 Y112.442 E4.3376
G1 X148.759 Y112.383 E4.35601
G1 X149.284 Y112.36 E4.3672
G1 X149.951 Y112.349 E4.3814
G1 X150.436 Y112.353 E4.39172
G1 X151.108 Y112.374 E4.40603
G0 F6000 X151.118 Y112.054
G1 F900 X151.634 Y112.083 E4.41704
G1 X152.365 Y112.142 E4.43265
G1 X152.777 Y112.183 E4.44146
G1 X153.208 Y112.235 E4.4507
G1 X153.583 Y112.287 E4.45876
G1 X154.231 Y112.389 E4.47272
G1 X154.729 Y112.48 E4.4835
G1 X155.404 Y112.62 E4.49817
G1 X155.901 Y112.736 E4.50904
G1 X156.616 Y112.921 E4.52476
G1 X157.113 Y113.063 E4.53576
G1 X158.074 Y113.368 E4.55722
G1 X158.517 Y113.526 E4.56723
G1 X159.128 Y113.756 E4.58113
G1 X159.608 Y113.95 E4.59215
G1 X160.221 Y114.216 E4.60638
G1 X160.655 Y114.416 E4.61655
G1 X161.307 Y114.735 E4.632
G1 X161.793 Y114.989 E4.64367
G1 X162.446 Y115.352 E4.65958
G1 X162.896 Y115.617 E4.67069
G1 X163.538 Y116.017 E4.68679
G1 X164.003 Y116.324 E4.69865
G1 X164.602 Y116.743 E4.71421
G1 X165.02 Y117.052 E4.72528
G1 X165.587 Y117.492 E4.74056
G1 X166.005 Y117.833 E4.75204
G1 X166.614 Y118.358 E4.76916
G1 X166.996 Y118.705 E4.78014
G1 X167.473 Y119.159 E4.79416
G1 X168.033 Y119.726 E4.81112
G1 X168.448 Y120.168 E4.82403
G1 X168.8 Y120.562 E4.83527
G1 X169.399 Y121.273 E4.85506
G1 X169.731 Y121.693 E4.86646
G1 X170.081 Y122.155 E4.8788
G1 X170.364 Y122.547 E4.88909
G1 X170.775 Y123.145 E4.90454
G1 X171.055 Y123.574 E4.91544
G1 X171.428 Y124.178 E4.93055
G1 X171.695 Y124.636 E4.94184
G1 X172.093 Y125.36 E4.95942
G1 X172.35 Y125.859 E4.97137
G1 X172.744 Y126.687 E4.99089
G1 X172.942 Y127.139 E5.00139
G1 X173.186 Y127.724 E5.01489
G1 X173.401 Y128.283 E5.02764
G1 X173.686 Y129.094 E5.04593
G1 X173.834 Y129.546 E5.05606
G1 X174.006 Y130.117 E5.06875
G1 X174.141 Y130.609 E5.07961
G1 X174.309 Y131.284 E5.09442
G1 X174.418 Y131.774 E5.1051
G1 X174.559 Y132.484 E5.12051
G1 X174.65 Y133.008 E5.13183
G1 X174.767 Y133.808 E5.14904
G1 X174.832 Y134.36 E5.16088
G1 X174.891 Y134.998 E5.17451
G1 X174.926 Y135.514 E5.18552
G1 X174.963 Y136.376 E5.20389
G1 X174.972 Y136.95 E5.21611
G1 X174.964 Y137.622 E5.23041
G1 X174.948 Y138.096 E5.24051
G1 X174.908 Y138.795 E5.25541
G1 X174.872 Y139.246 E5.26504
G1 X174.562 Y142.319 E5.33079
G1 X174.382 Y144.841 E5.38461
G1 X174.272 Y147.368 E5.43845
G1 X174.233 Y149.897 E5.49229
G1 X174.266 Y152.436 E5.54634
G1 X174.37 Y154.953 E5.59997
G1 X174.55 Y157.53 E5.65496
G1 X174.895 Y161.064 E5.73054
G1 X174.937 Y161.682 E5.74373
G1 X174.966 Y162.441 E5.75989
G1 X174.973 Y162.959 E5.77092
G1 X174.951 Y164.071 E5.7946
G1 X174.938 Y164.336 E5.80024
G1 X174.864 Y165.344 E5.82176
G1 X174.834 Y165.641 E5.82811
G1 X174.761 Y166.259 E5.84136
G1 X174.693 Y166.736 E5.85162
G1 X174.548 Y167.592 E5.8701
G1 X174.434 Y168.163 E5.88249
G1 X174.304 Y168.744 E5.89516
G1 X174.187 Y169.217 E5.90554
G1 X173.986 Y169.953 E5.92178
G1 X173.831 Y170.466 E5.93318
G1 X173.547 Y171.319 E5.95232
G1 X173.365 Y171.815 E5.96357
G1 X173.152 Y172.361 E5.97604
G1 X172.963 Y172.814 E5.98649
G1 X172.675 Y173.461 E6.00157
G1 X172.452 Y173.931 E6.01264
G1 X172.114 Y174.599 E6.02858
G1 X171.872 Y175.049 E6.03945
G1 X171.513 Y175.68 E6.05491
G1 X171.23 Y176.149 E6.06657
G1 X170.833 Y176.769 E6.08224
G1 X170.529 Y177.217 E6.09376
G1 X170.076 Y177.85 E6.11033
G1 X169.76 Y178.269 E6.1215
G1 X169.343 Y178.794 E6.13577
G1 X168.97 Y179.242 E6.14818
G1 X168.808 Y179.428 E6.15343
G1 X168.422 Y179.86 E6.16577
G1 X168.092 Y180.212 E6.17604
G1 X167.602 Y180.712 E6.19094
G1 X167.226 Y181.077 E6.20209
G1 X166.639 Y181.619 E6.2191
G1 X166.244 Y181.966 E6.23029
G1 X165.761 Y182.369 E6.24368
G1 X165.295 Y182.74 E6.25636
G1 X165.067 Y182.913 E6.26245
G1 X164.589 Y183.266 E6.2751
G1 X164.192 Y183.545 E6.28543
G1 X163.572 Y183.96 E6.30131
G1 X163.119 Y184.247 E6.31273
G1 X162.545 Y184.59 E6.32696
G1 X162.135 Y184.823 E6.337
G1 X161.505 Y185.162 E6.35223
G1 X161.01 Y185.411 E6.36402
G1 X160.321 Y185.736 E6.38024
G1 X159.837 Y185.95 E6.3915
G1 X159.115 Y186.247 E6.40812
G1 X158.591 Y186.446 E6.42005
G1 X157.652 Y186.77 E6.4412
G1 X157.2 Y186.909 E6.45126
G1 X156.59 Y187.085 E6.46478
G1 X156.099 Y187.214 E6.47559
G1 X155.461 Y187.365 E6.48954
G1 X154.989 Y187.466 E6.49982
G1 X154.204 Y187.614 E6.51682
G1 X153.642 Y187.704 E6.52894
G1 X152.799 Y187.812 E6.54703
G1 X152.517 Y187.842 E6.55306
G1 X152.116 Y187.877 E6.56163
G1 X151.201 Y187.939 E6.58115
G1 X150.615 Y187.962 E6.59364
G1 X149.93 Y187.97 E6.60822
G1 X149.428 Y187.964 E6.61891
G1 X148.767 Y187.94 E6.63299
G1 X148.279 Y187.911 E6.64339
G1 X147.569 Y187.852 E6.65856
G1 X147.012 Y187.791 E6.67048
G1 X146.174 Y187.676 E6.68849
G1 X145.619 Y187.584 E6.70047
G1 X145.016 Y187.468 E6.71354
G1 X144.531 Y187.363 E6.7241
G1 X143.692 Y187.16 E6.74247
G1 X143.154 Y187.014 E6.75434
G1 X142.131 Y186.699 E6.77713
G1 X141.859 Y186.606 E6.78324
G1 X141.252 Y186.389 E6.79697
G1 X140.775 Y186.206 E6.80784
G1 X140.197 Y185.967 E6.82116
G1 X139.754 Y185.771 E6.83147
G1 X139.067 Y185.449 E6.84762
G1 X138.579 Y185.205 E6.85923
G1 X137.916 Y184.851 E6.87523
G1 X137.46 Y184.593 E6.88638
G1 X136.865 Y184.236 E6.90115
G1 X136.428 Y183.959 E6.91217
G1 X135.775 Y183.522 E6.92889
G1 X135.338 Y183.212 E6.9403
G1 X134.597 Y182.654 E6.96004
G1 X134.203 Y182.337 E6.97081
G1 X133.7 Y181.915 E6.98478
G1 X133.343 Y181.601 E6.9949
G1 X132.871 Y181.167 E7.00855
G1 X132.512 Y180.82 E7.01918
G1 X131.986 Y180.288 E7.03511
G1 X131.628 Y179.908 E7.04622
G1 X131.11 Y179.329 E7.06276
G1 X130.748 Y178.902 E7.07467
G1 X130.341 Y178.395 E7.08851
G1 X130.039 Y178 E7.0991
G1 X129.574 Y177.361 E7.11592
G1 X129.254 Y176.895 E7.12795
G1 X128.893 Y176.338 E7.14208
G1 X128.636 Y175.921 E7.15251
G1 X128.249 Y175.258 E7.16885
G1 X127.991 Y174.789 E7.18024
G1 X127.63 Y174.091 E7.19697
G1 X127.388 Y173.59 E7.20881
G1 X127.034 Y172.799 E7.22726
G1 X126.835 Y172.318 E7.23834
G1 X126.643 Y171.828 E7.24954
G1 X126.468 Y171.348 E7.26042
G1 X126.222 Y170.617 E7.27684
G1 X126.068 Y170.118 E7.28795
G1 X125.865 Y169.398 E7.30388
G1 X125.737 Y168.896 E7.3149
G1 X125.593 Y168.268 E7.32862
G1 X125.489 Y167.754 E7.33978
G1 X125.351 Y166.975 E7.35662
G1 X125.27 Y166.436 E7.36823
G1 X125.18 Y165.71 E7.3838
G1 X125.128 Y165.186 E7.39501
G1 X125.076 Y164.476 E7.41016
G1 X125.051 Y163.958 E7.4212
G1 X125.033 Y163.195 E7.43745
G1 X125.034 Y162.671 E7.4486
G1 X125.053 Y161.952 E7.46391
G1 X125.08 Y161.423 E7.47519
G1 X125.154 Y160.523 E7.49441
G1 X125.26 Y159.519 E7.5159
G1 X125.504 Y156.845 E7.57305
G1 X125.661 Y154.355 E7.62616
G1 X125.748 Y151.811 E7.68035
G1 X125.764 Y149.251 E7.73484
G1 X125.71 Y146.778 E7.7875
G1 X125.582 Y144.253 E7.84131
G1 X125.261 Y140.471 E7.92211
G1 X125.143 Y139.353 E7.94604
G1 X125.102 Y138.848 E7.95682
G1 X125.052 Y137.974 E7.97546
G1 X125.035 Y137.425 E7.98715
G1 X125.032 Y136.796 E8.00054
G1 X125.041 Y136.311 E8.01087
G1 X125.071 Y135.589 E8.02625
G1 X125.108 Y135.048 E8.03779
