;FLAVOR:Marlin
;TIME:2070
;Filament used: 1.06828m
;Layer height: 0.2
;MINX:134.851
;MINY:122.661
;MINZ:0.16
;MAXX:165.161
;MAXY:178.165
;MAXZ:5.96
;Generated with Cura_SteamEngine 4.6.1
M140 S90
M105
M190 S90
M104 S250
M105
M109 S250
M82 ;absolute extrusion mode
M201 X500.00 Y500.00 Z100.00 E5000.00 ;Setup machine max acceleration
M203 X500.00 Y500.00 Z10.00 E50.00 ;Setup machine max feedrate
M204 P500.00 R1000.00 T500.00 ;Setup Print/Retract/Travel acceleration
M205 X8.00 Y8.00 Z0.40 E5.00 ;Setup Jerk
M220 S100 ;Reset Feedrate
M221 S100 ;Reset Flowrate

G28 ;Home

G92 E0 ;Reset Extruder
G1 Z2.0 F3000 ;Move Z Axis up
G1 X10.1 Y20 Z0.28 F5000.0 ;Move to start position
G1 X10.1 Y200.0 Z0.28 F1500.0 E15 ;Draw the first line
G1 X10.4 Y200.0 Z0.28 F5000.0 ;Move to side a little
G1 X10.4 Y20 Z0.28 F1500.0 E30 ;Draw the second line
G92 E0 ;Reset Extruder
G1 Z2.0 F3000 ;Move Z Axis up

G92 E0
G92 E0
G1 F2700 E-1
;LAYER_COUNT:30
;LAYER:0
M107
;MESH:plant_clip_V3.STL(20)
G0 F6000 X151.978 Y176.551 Z0.16
;TYPE:WALL-INNER
G1 F2700 E0
G1 F900 X150.949 Y175.525 E0.03093
G1 X150.7 Y175.277 E0.03841
G1 X151.051 Y175.254 E0.04249
G1 X151.163 Y175.246 E0.04488
G1 X151.796 Y175.169 E0.05845
G1 X152.422 Y175.06 E0.07198
G1 X153.043 Y174.918 E0.08554
G1 X153.655 Y174.746 E0.09907
G1 X154.258 Y174.54 E0.11263
G1 X154.849 Y174.304 E0.12618
G1 X155.428 Y174.039 E0.13973
G1 X155.992 Y173.745 E0.15327
G1 X156.539 Y173.42 E0.16682
G1 X157.069 Y173.067 E0.18037
G1 X157.58 Y172.688 E0.19391
G1 X158.071 Y172.284 E0.20745
G1 X158.54 Y171.855 E0.22098
G1 X158.988 Y171.401 E0.23456
G1 X159.41 Y170.924 E0.24811
G1 X159.807 Y170.427 E0.26165
G1 X160.178 Y169.91 E0.2752
G1 X160.522 Y169.374 E0.28876
G1 X160.837 Y168.822 E0.30228
G1 X161.123 Y168.254 E0.31582
G1 X161.38 Y167.672 E0.32936
G1 X161.607 Y167.076 E0.34294
G1 X161.803 Y166.47 E0.3565
G1 X161.966 Y165.855 E0.37004
G1 X162.098 Y165.233 E0.38358
G1 X162.197 Y164.605 E0.39711
G1 X162.264 Y163.971 E0.41068
G1 X162.298 Y163.336 E0.42422
G1 X162.299 Y162.699 E0.43778
G1 X162.267 Y162.064 E0.45131
G1 X162.201 Y161.43 E0.46488
G1 X162.141 Y161.043 E0.47321
G1 X162.02 Y160.712 E0.48072
G1 X161.873 Y160.459 E0.48694
G1 X161.649 Y160.195 E0.49431
G1 X161.419 Y160.006 E0.50065
G1 X161.117 Y159.838 E0.50801
G1 X160.929 Y159.772 E0.51225
G1 X160.861 Y159.749 E0.51378
G1 X160.847 Y159.744 E0.51409
G1 X160.77 Y159.73 E0.51576
G1 X160.798 Y159.7
G1 X160.927 Y159.559 E0.5186
G1 X160.963 Y159.497 E0.51991
G1 X161.112 Y159.247 E0.5261
G1 X161.208 Y158.989 E0.53196
G1 X161.255 Y158.789 E0.53634
G1 X161.282 Y158.518 E0.54213
G1 X161.266 Y158.239 E0.54808
G1 X161.208 Y157.967 E0.554
G1 X161.116 Y157.727 E0.55947
G1 X160.86 Y157.221 E0.57155
G1 X160.539 Y156.656 E0.58538
G1 X160.197 Y156.12 E0.59891
G1 X159.829 Y155.603 E0.61242
G1 X159.432 Y155.102 E0.62603
G1 X159.01 Y154.626 E0.63957
G1 X158.566 Y154.17 E0.65312
G1 X158.098 Y153.739 E0.66666
G1 X157.608 Y153.332 E0.68022
G1 X157.098 Y152.954 E0.69373
G1 X156.57 Y152.599 E0.70727
G1 X156.02 Y152.273 E0.72088
G1 X155.459 Y151.977 E0.73439
G1 X154.882 Y151.709 E0.74793
G1 X154.292 Y151.472 E0.76146
G1 X153.109 Y151.066 E0.78809
G1 X152.686 Y151.742 E0.80506
G1 X152.585 Y151.888 E0.80884
G1 X152.48 Y152.025 E0.81252
G1 X152.373 Y152.151 E0.81603
G1 X152.275 Y152.251 E0.81901
G1 X152.132 Y152.386 E0.8232
G1 X152.031 Y152.473 E0.82604
G1 X151.871 Y152.596 E0.83033
G1 X151.758 Y152.674 E0.83326
G1 X151.611 Y152.765 E0.83694
G1 X151.466 Y152.843 E0.84044
G1 X151.306 Y152.921 E0.84423
G1 X151.174 Y152.977 E0.84728
G1 X150.996 Y153.041 E0.85131
G1 X150.869 Y153.079 E0.85413
G1 X150.676 Y153.129 E0.85837
G1 X150.549 Y153.153 E0.86113
G1 X150.387 Y153.175 E0.86461
G1 X150.214 Y153.19 E0.8683
G1 X150.021 Y153.199 E0.87242
G1 X149.874 Y153.198 E0.87554
G1 X149.723 Y153.188 E0.87877
G1 X149.539 Y153.167 E0.88271
G1 X149.392 Y153.142 E0.88588
G1 X149.238 Y153.107 E0.88924
G1 X149.062 Y153.059 E0.89313
G1 X148.908 Y153.007 E0.89659
G1 X148.76 Y152.95 E0.89996
G1 X148.608 Y152.88 E0.90353
G1 X148.461 Y152.805 E0.90704
G1 X148.314 Y152.719 E0.91066
G1 X148.198 Y152.642 E0.91363
G1 X148.039 Y152.525 E0.91783
G1 X147.918 Y152.428 E0.92113
G1 X147.794 Y152.316 E0.92469
G1 X147.693 Y152.214 E0.92774
G1 X147.574 Y152.083 E0.93151
G1 X147.473 Y151.959 E0.93491
G1 X147.361 Y151.806 E0.93895
G1 X147.273 Y151.671 E0.94238
G1 X147.196 Y151.539 E0.94563
G1 X147.118 Y151.385 E0.94931
G1 X147.05 Y151.235 E0.95281
G1 X146.999 Y151.102 E0.95585
G1 X146.941 Y150.931 E0.95969
G1 X146.78 Y150.345 E0.97263
G1 X145.699 Y150.006 E0.99674
G1 X145.042 Y149.772 E1.01159
G1 X144.422 Y149.512 E1.0259
G1 X143.796 Y149.212 E1.04067
G1 X143.164 Y148.871 E1.05596
G1 X142.604 Y148.53 E1.06992
G1 X142.013 Y148.129 E1.08512
G1 X141.478 Y147.724 E1.0994
G1 X140.931 Y147.265 E1.1146
G1 X140.429 Y146.8 E1.12917
G1 X139.967 Y146.324 E1.14329
G1 X139.489 Y145.783 E1.15866
G1 X139.067 Y145.254 E1.17306
G1 X138.67 Y144.7 E1.18757
G1 X138.299 Y144.121 E1.20221
G1 X137.945 Y143.501 E1.2174
G1 X137.64 Y142.903 E1.23169
G1 X137.36 Y142.277 E1.24629
G1 X137.102 Y141.607 E1.26157
G1 X136.894 Y140.977 E1.2757
G1 X136.704 Y140.287 E1.29093
G1 X136.563 Y139.654 E1.30474
G1 X136.442 Y138.935 E1.32026
G1 X136.36 Y138.248 E1.33498
G1 X136.317 Y137.592 E1.34898
G1 X136.303 Y136.91 E1.3635
G1 X136.325 Y136.197 E1.37868
G1 X136.383 Y135.502 E1.39353
G1 X136.473 Y134.843 E1.40769
G1 X136.603 Y134.141 E1.42288
G1 X136.755 Y133.503 E1.43684
G1 X136.96 Y132.803 E1.45237
G1 X137.177 Y132.182 E1.46637
G1 X137.445 Y131.521 E1.48156
G1 X137.737 Y130.899 E1.49618
G1 X138.051 Y130.302 E1.51054
G1 X138.416 Y129.688 E1.52575
G1 X138.776 Y129.146 E1.5396
G1 X139.184 Y128.593 E1.55423
G1 X139.628 Y128.053 E1.56911
G1 X140.107 Y127.525 E1.58428
G1 X140.579 Y127.057 E1.59843
G1 X141.11 Y126.579 E1.61364
G1 X141.629 Y126.157 E1.62788
G1 X142.201 Y125.74 E1.64295
G1 X142.758 Y125.373 E1.65714
G1 X143.345 Y125.027 E1.67165
G1 X143.991 Y124.689 E1.68717
G1 X144.603 Y124.409 E1.70149
G1 X145.229 Y124.16 E1.71584
G1 X145.889 Y123.934 E1.73068
G1 X146.568 Y123.74 E1.74572
G1 X147.216 Y123.587 E1.75989
G1 X147.917 Y123.46 E1.77505
G1 X148.571 Y123.376 E1.78909
G1 X149.101 Y123.335 E1.80041
G1 X149.273 Y123.322 E1.80408
G1 X149.549 Y123.314 E1.80996
G1 X149.408 Y123.456 E1.8109
G1 X149.286 Y123.578 E1.81388
G1 X148.001 Y124.868 E1.85264
G1 X147.647 Y124.928 E1.86028
G1 X147.025 Y125.065 E1.87384
G1 X146.41 Y125.236 E1.88742
G1 X145.805 Y125.438 E1.901
G1 X145.211 Y125.671 E1.91458
G1 X144.63 Y125.934 E1.92816
G1 X144.064 Y126.229 E1.94175
G1 X143.514 Y126.55 E1.9553
G1 X142.981 Y126.9 E1.96887
G1 X142.467 Y127.278 E1.98246
G1 X141.974 Y127.681 E1.99601
G1 X141.501 Y128.11 E2.0096
G1 X141.052 Y128.563 E2.02318
G1 X140.626 Y129.038 E2.03676
G1 X140.225 Y129.535 E2.05036
G1 X139.853 Y130.051 E2.0639
G1 X139.506 Y130.586 E2.07747
G1 X139.186 Y131.14 E2.09109
G1 X138.899 Y131.707 E2.10462
G1 X138.638 Y132.29 E2.11821
G1 X138.409 Y132.886 E2.1318
G1 X138.213 Y133.492 E2.14536
G1 X138.046 Y134.108 E2.15895
G1 X137.912 Y134.732 E2.17253
G1 X137.812 Y135.36 E2.18607
G1 X137.742 Y135.995 E2.19967
G1 X137.707 Y136.632 E2.21325
G1 X137.705 Y137.269 E2.22681
G1 X137.735 Y137.906 E2.24038
G1 X137.798 Y138.54 E2.25394
G1 X137.895 Y139.17 E2.26751
G1 X138.023 Y139.795 E2.28109
G1 X138.184 Y140.413 E2.29469
G1 X138.379 Y141.021 E2.30828
G1 X138.601 Y141.617 E2.32182
G1 X138.856 Y142.202 E2.3354
G1 X139.14 Y142.773 E2.34898
G1 X139.456 Y143.329 E2.36259
G1 X139.796 Y143.867 E2.37614
G1 X140.166 Y144.386 E2.3897
G1 X140.561 Y144.886 E2.40327
G1 X140.983 Y145.365 E2.41686
G1 X141.429 Y145.822 E2.43045
G1 X141.898 Y146.253 E2.44401
G1 X142.389 Y146.66 E2.45758
G1 X142.9 Y147.042 E2.47116
G1 X143.429 Y147.397 E2.48473
G1 X143.977 Y147.724 E2.49831
G1 X144.542 Y148.022 E2.51191
G1 X145.119 Y148.29 E2.52545
G1 X145.711 Y148.528 E2.53903
G1 X146.9 Y148.936 E2.56579
G1 X147.327 Y148.242 E2.58313
G1 X147.412 Y148.122 E2.58626
G1 X147.532 Y147.966 E2.59045
G1 X147.64 Y147.84 E2.59399
G1 X147.729 Y147.749 E2.5967
G1 X147.872 Y147.614 E2.60088
G1 X147.988 Y147.515 E2.60413
G1 X148.259 Y147.317 E2.61127
G1 X148.384 Y147.24 E2.6144
G1 X148.553 Y147.149 E2.61848
G1 X148.698 Y147.079 E2.62191
G1 X148.83 Y147.023 E2.62496
G1 X149.008 Y146.959 E2.62899
G1 X149.135 Y146.921 E2.63181
G1 X149.323 Y146.873 E2.63594
G1 X149.459 Y146.847 E2.63889
G1 X149.792 Y146.81 E2.64602
G1 X149.983 Y146.801 E2.65009
G1 X150.13 Y146.802 E2.65322
G1 X150.281 Y146.812 E2.65644
G1 X150.465 Y146.833 E2.66038
G1 X150.612 Y146.858 E2.66356
G1 X150.766 Y146.893 E2.66692
G1 X150.942 Y146.941 E2.6708
G1 X151.096 Y146.993 E2.67426
G1 X151.244 Y147.05 E2.67764
G1 X151.396 Y147.12 E2.6812
G1 X151.543 Y147.195 E2.68471
G1 X151.68 Y147.275 E2.68809
G1 X151.813 Y147.362 E2.69147
G1 X151.95 Y147.463 E2.6951
G1 X152.084 Y147.571 E2.69876
G1 X152.21 Y147.684 E2.70236
G1 X152.312 Y147.787 E2.70545
G1 X152.43 Y147.915 E2.70915
G1 X152.521 Y148.028 E2.71224
G1 X152.643 Y148.194 E2.71663
G1 X152.71 Y148.297 E2.71924
G1 X152.805 Y148.458 E2.72322
G1 X152.871 Y148.586 E2.72629
G1 X152.953 Y148.764 E2.73046
G1 X153.006 Y148.9 E2.73357
G1 X153.061 Y149.063 E2.73723
G1 X153.224 Y149.655 E2.7503
G1 X154.315 Y149.997 E2.77464
G1 X154.962 Y150.23 E2.78928
G1 X155.608 Y150.501 E2.80419
G1 X156.259 Y150.813 E2.81955
G1 X156.86 Y151.141 E2.83413
G1 X157.452 Y151.503 E2.8489
G1 X158.043 Y151.908 E2.86415
G1 X158.579 Y152.317 E2.8785
G1 X159.117 Y152.772 E2.8935
G1 X159.632 Y153.258 E2.90857
G1 X160.122 Y153.768 E2.92363
G1 X160.56 Y154.27 E2.93781
G1 X160.995 Y154.825 E2.95282
G1 X161.422 Y155.434 E2.96865
G1 X161.789 Y156.019 E2.98335
G1 X162.118 Y156.607 E2.9977
G1 X162.425 Y157.225 E3.01239
G1 X162.703 Y157.867 E3.02728
G1 X162.959 Y158.552 E3.04284
G1 X163.159 Y159.189 E3.05706
G1 X163.344 Y159.894 E3.07257
G1 X163.481 Y160.555 E3.08694
G1 X163.592 Y161.27 E3.10234
G1 X163.658 Y161.933 E3.11653
G1 X163.696 Y162.664 E3.13211
G1 X163.698 Y163.329 E3.14626
G1 X163.661 Y164.066 E3.16197
G1 X163.595 Y164.721 E3.17598
G1 X163.488 Y165.42 E3.19104
G1 X163.345 Y166.103 E3.20589
G1 X163.162 Y166.804 E3.22131
G1 X162.963 Y167.44 E3.2355
G1 X162.719 Y168.095 E3.25038
G1 X162.432 Y168.76 E3.26579
G1 X162.119 Y169.391 E3.28079
G1 X161.794 Y169.974 E3.29499
G1 X161.419 Y170.572 E3.31002
G1 X161.001 Y171.166 E3.32548
G1 X160.594 Y171.688 E3.33957
G1 X160.119 Y172.235 E3.35499
G1 X159.63 Y172.744 E3.37002
G1 X159.139 Y173.207 E3.38438
G1 X158.584 Y173.679 E3.39989
G1 X158.056 Y174.082 E3.41403
G1 X157.469 Y174.484 E3.42917
G1 X156.875 Y174.85 E3.44403
G1 X156.246 Y175.194 E3.45929
G1 X155.627 Y175.493 E3.47392
G1 X154.995 Y175.756 E3.48849
G1 X154.316 Y176.002 E3.50386
G1 X153.668 Y176.2 E3.51829
G1 X152.985 Y176.37 E3.53327
G1 X152.304 Y176.503 E3.54804
G1 X151.978 Y176.551 E3.55505
G0 F6000 X151.866 Y176.891
G1 F900 X150.213 Y175.244 E3.60472
G1 X149.947 Y174.979 E3.61272
G1 X150.322 Y174.974 E3.61702
G1 X150.323 Y174.973 E3.61705
G1 X150.516 Y174.969 E3.62116
G1 X151.133 Y174.927 E3.63433
G1 X151.749 Y174.852 E3.64754
G1 X152.359 Y174.746 E3.66072
G1 X152.964 Y174.608 E3.67392
G1 X153.56 Y174.44 E3.68711
G1 X154.147 Y174.24 E3.70031
G1 X154.723 Y174.01 E3.71351
G1 X155.287 Y173.752 E3.72671
G1 X155.836 Y173.465 E3.7399
G1 X156.369 Y173.149 E3.75309
G1 X156.885 Y172.805 E3.76629
G1 X157.383 Y172.436 E3.77948
G1 X157.861 Y172.042 E3.79267
G1 X158.318 Y171.624 E3.80585
G1 X158.754 Y171.182 E3.81907
G1 X159.165 Y170.718 E3.83226
G1 X159.552 Y170.234 E3.84545
G1 X159.913 Y169.73 E3.85865
G1 X160.248 Y169.208 E3.87185
G1 X160.555 Y168.671 E3.88502
G1 X160.834 Y168.117 E3.89822
G1 X161.084 Y167.55 E3.91141
G1 X161.305 Y166.97 E3.92462
G1 X161.496 Y166.38 E3.93783
G1 X161.655 Y165.781 E3.95102
G1 X161.783 Y165.175 E3.9642
G1 X161.88 Y164.563 E3.97739
G1 X161.945 Y163.946 E3.9906
G1 X161.978 Y163.327 E4.00379
G1 X161.979 Y162.707 E4.01699
G1 X161.948 Y162.089 E4.03016
G1 X161.884 Y161.471 E4.04339
G1 X161.83 Y161.124 E4.05086
G1 X161.729 Y160.849 E4.0571
G1 X161.61 Y160.644 E4.06215
G1 X161.424 Y160.424 E4.06828
G1 X161.238 Y160.272 E4.07339
G1 X160.986 Y160.131 E4.07954
G1 X160.766 Y160.055 E4.08449
G1 X160.548 Y160.016 E4.08921
G1 X160.424 Y160.01 E4.09185
G1 X160.403 Y160.009 E4.0923
G1 X160.215 Y160.009 E4.0963
G1 X159.933 Y160.011 E4.1023
G1 X159.641 Y160.013 E4.10852
G1 X159.283 Y160.015 E4.11614
G1 X159.197 Y160.016 E4.11797
G1 X159.119 Y160.03 E4.11966
G1 X158.933 Y160.066 E4.12369
G1 X158.855 Y160.09 E4.12543
G1 X158.755 Y160.122 E4.12766
G1 X158.678 Y160.156 E4.12945
G1 X158.612 Y160.185 E4.13099
G1 X158.587 Y160.197 E4.13158
G1 X158.452 Y160.276 E4.13491
G1 X158.425 Y160.292 E4.13557
G1 X158.395 Y160.315 E4.13638
G1 X158.232 Y160.438 E4.14073
G1 X158.219 Y160.448 E4.14108
G1 X158.124 Y160.544 E4.14395
G1 X158.087 Y160.582 E4.14508
G1 X158.005 Y160.683 E4.14785
G1 X157.973 Y160.722 E4.14892
G1 X157.9 Y160.834 E4.15177
G1 X157.874 Y160.874 E4.15278
G1 X157.821 Y160.979 E4.15529
G1 X157.792 Y161.036 E4.15665
G1 X157.752 Y161.141 E4.15904
G1 X157.725 Y161.211 E4.16064
G1 X157.703 Y161.308 E4.16275
G1 X157.681 Y161.398 E4.16473
G1 X157.664 Y161.469 E4.16628
G1 X157.655 Y161.585 E4.16876
G1 X157.643 Y161.714 E4.17152
G1 X157.641 Y161.824 E4.17386
G1 X157.639 Y161.851 E4.17443
G1 X157.624 Y162 E4.17762
G1 X157.615 Y162.048 E4.17866
G1 X157.585 Y162.194 E4.18183
G1 X157.565 Y162.264 E4.18338
G1 X157.55 Y162.303 E4.18427
G1 X157.5 Y162.435 E4.18728
G1 X157.476 Y162.484 E4.18844
G1 X157.411 Y162.616 E4.19157
G1 X157.345 Y162.721 E4.19421
G1 X157.32 Y162.759 E4.19518
G1 X157.202 Y162.91 E4.19926
G1 X157.178 Y162.936 E4.20001
G1 X157.142 Y162.975 E4.20114
G1 X157.041 Y163.066 E4.20404
G1 X157.008 Y163.096 E4.20498
G1 X156.89 Y163.185 E4.20813
G1 X156.861 Y163.207 E4.20891
G1 X156.706 Y163.3 E4.21275
G1 X156.657 Y163.325 E4.21392
G1 X156.624 Y163.342 E4.21471
G1 X156.45 Y163.411 E4.2187
G1 X156.406 Y163.425 E4.21968
G1 X156.368 Y163.437 E4.22053
G1 X156.222 Y163.471 E4.22372
G1 X156.183 Y163.481 E4.22458
G1 X156.091 Y163.495 E4.22656
G1 X156.031 Y163.499 E4.22784
G1 X155.908 Y163.508 E4.23046
G1 X155.769 Y163.506 E4.23342
G1 X155.742 Y163.505 E4.234
G1 X155.573 Y163.483 E4.23763
G1 X155.538 Y163.478 E4.23838
G1 X155.466 Y163.463 E4.23994
G1 X155.31 Y163.417 E4.24341
G1 X155.29 Y163.411 E4.24385
G1 X155.123 Y163.342 E4.2477
G1 X155.056 Y163.306 E4.24932
G1 X154.944 Y163.246 E4.25202
G1 X154.886 Y163.208 E4.2535
G1 X154.82 Y163.159 E4.25525
G1 X154.732 Y163.092 E4.2576
G1 X154.665 Y163.033 E4.2595
G1 X154.615 Y162.98 E4.26105
G1 X154.535 Y162.896 E4.26352
G1 X154.488 Y162.836 E4.26514
G1 X154.42 Y162.748 E4.26751
G1 X154.38 Y162.688 E4.26905
G1 X154.371 Y162.675 E4.26938
G1 X154.326 Y162.598 E4.27128
G1 X154.291 Y162.527 E4.27297
G1 X154.246 Y162.436 E4.27513
G1 X154.218 Y162.357 E4.27691
G1 X154.181 Y162.257 E4.27918
G1 X154.162 Y162.18 E4.28087
G1 X154.139 Y162.088 E4.28289
G1 X154.126 Y161.995 E4.28489
G1 X154.113 Y161.911 E4.2867
G1 X154.104 Y161.714 E4.29089
G1 X154.106 Y161.635 E4.29258
G1 X154.114 Y161.542 E4.29456
G1 X154.551 Y157.653 E4.37787
G1 X154.56 Y157.578 E4.37947
G1 X154.571 Y157.488 E4.3814
G1 X154.566 Y157.376 E4.38379
G1 X154.562 Y157.291 E4.3856
G1 X154.535 Y157.127 E4.38914
G1 X154.518 Y157.031 E4.39122
G1 X154.514 Y157.018 E4.39151
G1 X154.459 Y156.859 E4.39509
G1 X154.43 Y156.775 E4.39698
G1 X154.39 Y156.698 E4.39883
G1 X154.308 Y156.542 E4.40258
G1 X154.242 Y156.449 E4.405
G1 X154.196 Y156.384 E4.4067
G1 X154.07 Y156.248 E4.41065
G1 X154.021 Y156.195 E4.41218
G1 X153.943 Y156.13 E4.41434
G1 X153.873 Y156.071 E4.41629
G1 X153.797 Y156.023 E4.41821
G1 X153.726 Y155.978 E4.42
G1 X153.65 Y155.93 E4.42191
G1 X153.57 Y155.896 E4.42376
G1 X153.409 Y155.825 E4.4275
G1 X153.223 Y155.772 E4.43162
G1 X153.046 Y155.746 E4.43543
G1 X152.961 Y155.733 E4.43726
G1 X152.772 Y155.734 E4.44128
G1 X152.697 Y155.735 E4.44288
G1 X152.508 Y155.762 E4.44694
G1 X152.253 Y155.831 E4.45257
G1 X152.08 Y155.909 E4.45661
G1 X152.013 Y155.94 E4.45818
G1 X151.922 Y155.995 E4.46044
G1 X151.853 Y156.038 E4.46217
G1 X151.705 Y156.153 E4.46616
