;FLAVOR:Marlin
;TIME:3310
;Filament used: 1.58715m
;Layer height: 0.2
;MINX:94.581
;MINY:104.34
;MINZ:0.12
;MAXX:191.419
;MAXY:195.658
;MAXZ:2.72
;Generated with Cura_SteamEngine 4.6.1
M140 S60
M105
M190 S60
M104 S220
M105
M109 S220
M82 ;absolute extrusion mode
M201 X500.00 Y500.00 Z100.00 E5000.00 ;Setup machine max acceleration
M203 X500.00 Y500.00 Z10.00 E50.00 ;Setup machine max feedrate
M204 P500.00 R1000.00 T500.00 ;Setup Print/Retract/Travel acceleration
M205 X8.00 Y8.00 Z0.40 E5.00 ;Setup Jerk
M220 S100 ;Reset Feedrate
M221 S100 ;Reset Flowrate

G28 ;Home

G92 E0 ;Reset Extruder
G1 Z2.0 F3000 ;Move Z Axis up
G1 X10.1 Y20 Z0.28 F5000.0 ;Move to start position
G1 X10.1 Y200.0 Z0.28 F1500.0 E15 ;Draw the first line
G1 X10.4 Y200.0 Z0.28 F5000.0 ;Move to side a little
G1 X10.4 Y20 Z0.28 F1500.0 E30 ;Draw the second line
G92 E0 ;Reset Extruder
G1 Z2.0 F3000 ;Move Z Axis up

G92 E0
G92 E0
G1 F2700 E-5
;LAYER_COUNT:14
;LAYER:0
M107
G0 F6000 X110.788 Y105.073 Z0.12
;TYPE:SKIRT
G1 F2700 E0
G1 F600 X113.658 Y105.156 E0.05157
G1 X116.144 Y105.156 E0.09622
G1 X117.861 Y105.097 E0.12707
G1 X119.8 Y105.06 E0.16191
G1 X123.978 Y105.061 E0.23694
G1 X124.788 Y105.073 E0.25149
G1 X127.658 Y105.156 E0.30306
G1 X130.144 Y105.156 E0.34771
G1 X131.861 Y105.097 E0.37857
G1 X133.8 Y105.06 E0.4134
G1 X137.978 Y105.061 E0.48844
G1 X138.788 Y105.073 E0.50299
G1 X141.658 Y105.156 E0.55456
G1 X144.144 Y105.156 E0.59921
G1 X145.861 Y105.097 E0.63006
G1 X147.8 Y105.06 E0.66489
G1 X151.978 Y105.061 E0.73993
G1 X152.788 Y105.073 E0.75448
G1 X155.658 Y105.156 E0.80605
G1 X158.144 Y105.156 E0.8507
G1 X159.861 Y105.097 E0.88156
G1 X161.8 Y105.06 E0.91639
G1 X165.978 Y105.061 E0.99143
G1 X166.788 Y105.073 E1.00598
G1 X169.658 Y105.156 E1.05755
G1 X172.144 Y105.156 E1.1022
G1 X173.861 Y105.097 E1.13305
G1 X175.8 Y105.06 E1.16788
G1 X179.976 Y105.061 E1.24289
G1 X180.64 Y105.07 E1.25481
G1 X181.541 Y105.122 E1.27102
G1 X182.433 Y105.254 E1.28722
G1 X183.311 Y105.464 E1.30343
G1 X184.166 Y105.751 E1.31963
G1 X184.992 Y106.113 E1.33583
G1 X185.784 Y106.546 E1.35204
G1 X186.534 Y107.048 E1.36825
G1 X187.236 Y107.614 E1.38444
G1 X187.885 Y108.241 E1.40065
G1 X188.477 Y108.922 E1.41686
G1 X189.006 Y109.653 E1.43306
G1 X189.468 Y110.428 E1.44927
G1 X189.86 Y111.241 E1.46548
G1 X190.178 Y112.085 E1.48168
G1 X190.42 Y112.954 E1.49788
G1 X190.584 Y113.841 E1.51408
G1 X190.668 Y114.712 E1.5298
G1 X190.685 Y115.034 E1.53559
G1 X190.699 Y115.571 E1.54524
G1 X190.699 Y162.111 E2.38112
G1 X190.689 Y162.807 E2.39362
G1 X190.636 Y163.708 E2.40983
G1 X190.487 Y164.682 E2.42753
G1 X190.176 Y166.215 E2.45562
G1 X189.963 Y167.199 E2.4737
G1 X189.502 Y169.669 E2.51883
G1 X189.104 Y172.203 E2.5649
G1 X188.814 Y174.43 E2.60524
G1 X188.614 Y176.286 E2.63876
G1 X188.402 Y178.849 E2.68495
G1 X188.268 Y181.344 E2.72983
G1 X188.216 Y183.769 E2.77339
G1 X188.195 Y184.298 E2.7829
G1 X188.178 Y184.988 E2.7953
G1 X188.116 Y185.888 E2.8115
G1 X187.975 Y186.779 E2.8277
G1 X187.755 Y187.654 E2.84391
G1 X187.459 Y188.506 E2.86011
G1 X187.088 Y189.329 E2.87632
G1 X186.646 Y190.115 E2.89252
G1 X186.136 Y190.86 E2.90873
G1 X185.562 Y191.556 E2.92494
G1 X184.929 Y192.199 E2.94114
G1 X184.242 Y192.783 E2.95734
G1 X183.505 Y193.304 E2.97355
G1 X182.725 Y193.757 E2.98975
G1 X181.908 Y194.14 E3.00595
G1 X181.061 Y194.449 E3.02215
G1 X180.189 Y194.682 E3.03836
G1 X179.3 Y194.837 E3.05457
G1 X178.273 Y194.916 E3.07307
G1 X177.563 Y194.935 E3.08582
G1 X177.157 Y194.938 E3.09311
G1 X176.264 Y194.922 E3.10916
G1 X175.398 Y194.885 E3.12472
G1 X174.046 Y194.81 E3.14904
G1 X171.522 Y194.743 E3.19439
G1 X168.953 Y194.747 E3.24053
G1 X166.43 Y194.823 E3.28587
G1 X165.9 Y194.853 E3.2954
G1 X164.277 Y194.923 E3.32458
G1 X163.156 Y194.938 E3.34471
G1 X162.262 Y194.922 E3.36077
G1 X161.398 Y194.885 E3.37631
G1 X160.046 Y194.81 E3.40063
G1 X157.522 Y194.743 E3.44597
G1 X154.952 Y194.747 E3.49213
G1 X152.429 Y194.823 E3.53747
G1 X151.9 Y194.853 E3.54698
G1 X150.277 Y194.923 E3.57616
G1 X149.156 Y194.938 E3.5963
G1 X148.262 Y194.922 E3.61235
G1 X147.398 Y194.885 E3.62789
G1 X146.046 Y194.81 E3.65221
G1 X143.522 Y194.743 E3.69756
G1 X140.952 Y194.747 E3.74371
G1 X138.429 Y194.823 E3.78905
G1 X137.9 Y194.853 E3.79856
G1 X136.277 Y194.923 E3.82774
G1 X135.156 Y194.938 E3.84788
G1 X134.262 Y194.922 E3.86394
G1 X133.398 Y194.885 E3.87947
G1 X132.046 Y194.81 E3.90379
G1 X129.522 Y194.743 E3.94914
G1 X126.952 Y194.747 E3.9953
G1 X124.429 Y194.823 E4.04063
G1 X123.9 Y194.853 E4.05015
G1 X122.277 Y194.923 E4.07932
G1 X121.156 Y194.938 E4.09946
G1 X120.262 Y194.922 E4.11552
G1 X119.398 Y194.885 E4.13105
G1 X118.046 Y194.81 E4.15537
G1 X115.522 Y194.743 E4.20072
G1 X112.952 Y194.747 E4.24688
G1 X110.429 Y194.823 E4.29221
G1 X109.9 Y194.853 E4.30173
G1 X108.277 Y194.923 E4.3309
G1 X107.156 Y194.938 E4.35104
G1 X106.55 Y194.93 E4.36193
G1 X105.649 Y194.878 E4.37813
G1 X104.756 Y194.747 E4.39434
G1 X103.879 Y194.537 E4.41054
G1 X103.023 Y194.25 E4.42676
G1 X102.197 Y193.889 E4.44295
G1 X101.405 Y193.455 E4.45917
G1 X100.655 Y192.954 E4.47537
G1 X99.953 Y192.388 E4.49156
G1 X99.303 Y191.762 E4.50777
G1 X98.711 Y191.081 E4.52398
G1 X98.438 Y190.72 E4.53211
G1 X98.265 Y190.481 E4.53741
G1 X98.075 Y190.209 E4.54336
G1 X97.348 Y189.131 E4.56672
G1 X96.979 Y188.568 E4.57881
G1 X96.518 Y187.793 E4.595
G1 X96.128 Y186.979 E4.61121
G1 X95.811 Y186.134 E4.62742
G1 X95.571 Y185.265 E4.64362
G1 X95.408 Y184.377 E4.65983
G1 X95.315 Y183.199 E4.68105
G1 X95.308 Y182.862 E4.68711
G1 X95.307 Y182.49 E4.69379
G1 X95.312 Y182.174 E4.69947
G1 X95.367 Y181.273 E4.71568
G1 X95.434 Y180.756 E4.72504
G1 X95.714 Y178.972 E4.75748
G1 X96.07 Y176.392 E4.80425
G1 X96.339 Y173.93 E4.84873
G1 X96.548 Y171.355 E4.89513
G1 X96.679 Y168.857 E4.94006
G1 X96.748 Y165.293 E5.00408
G1 X96.749 Y134.658 E5.5543
G1 X96.712 Y132.05 E5.60115
G1 X96.603 Y129.482 E5.64731
G1 X96.425 Y126.977 E5.69242
G1 X96.177 Y124.467 E5.73772
G1 X95.851 Y121.921 E5.78382
G1 X95.564 Y120.131 E5.81638
G1 X95.425 Y119.193 E5.83341
G1 X95.326 Y118.174 E5.8518
G1 X95.316 Y117.959 E5.85566
G1 X95.306 Y117.6 E5.86211
G1 X95.301 Y117.136 E5.87045
G1 X95.301 Y115.76 E5.89516
G1 X95.31 Y115.115 E5.90675
G1 X95.363 Y114.214 E5.92296
G1 X95.495 Y113.322 E5.93915
G1 X95.705 Y112.444 E5.95537
G1 X95.993 Y111.589 E5.97157
G1 X96.355 Y110.763 E5.98777
G1 X96.788 Y109.972 E6.00396
G1 X97.291 Y109.222 E6.02018
G1 X97.857 Y108.52 E6.03638
G1 X98.484 Y107.871 E6.05259
G1 X99.165 Y107.28 E6.06878
G1 X99.896 Y106.751 E6.08499
G1 X100.671 Y106.289 E6.10119
G1 X101.484 Y105.898 E6.1174
G1 X102.329 Y105.58 E6.13361
G1 X103.198 Y105.338 E6.14981
G1 X104.085 Y105.174 E6.16601
G1 X104.933 Y105.092 E6.18132
G1 X105.244 Y105.075 E6.18691
G1 X105.8 Y105.06 E6.1969
G1 X109.978 Y105.061 E6.27194
G1 X110.788 Y105.073 E6.28649
G0 F6000 X110.799 Y104.713
G1 F600 X113.669 Y104.796 E6.33806
G1 X116.131 Y104.796 E6.38227
G1 X117.854 Y104.737 E6.41324
G1 X119.8 Y104.7 E6.4482
G1 X123.983 Y104.701 E6.52332
G1 X124.799 Y104.713 E6.53798
G1 X127.669 Y104.796 E6.58955
G1 X130.131 Y104.796 E6.63377
G1 X131.854 Y104.737 E6.66473
G1 X133.8 Y104.7 E6.69969
G1 X137.983 Y104.701 E6.77482
G1 X138.799 Y104.713 E6.78948
G1 X141.669 Y104.796 E6.84104
G1 X144.131 Y104.796 E6.88526
G1 X145.854 Y104.737 E6.91623
G1 X147.8 Y104.7 E6.95118
G1 X151.983 Y104.701 E7.02631
G1 X152.799 Y104.713 E7.04097
G1 X155.669 Y104.796 E7.09254
G1 X158.131 Y104.796 E7.13676
G1 X159.854 Y104.737 E7.16772
G1 X161.8 Y104.7 E7.20268
G1 X165.983 Y104.701 E7.27781
G1 X166.799 Y104.713 E7.29246
G1 X169.669 Y104.796 E7.34403
G1 X172.131 Y104.796 E7.38825
G1 X173.854 Y104.737 E7.41922
G1 X175.8 Y104.7 E7.45417
G1 X179.981 Y104.701 E7.52927
G1 X180.645 Y104.71 E7.54119
G1 X181.561 Y104.762 E7.55767
G1 X182.47 Y104.894 E7.57417
G1 X183.363 Y105.105 E7.59065
G1 X184.235 Y105.392 E7.60714
G1 X185.079 Y105.755 E7.62364
G1 X185.888 Y106.189 E7.64013
G1 X186.656 Y106.692 E7.65661
G1 X187.377 Y107.26 E7.6731
G1 X188.046 Y107.888 E7.68958
G1 X188.658 Y108.573 E7.70608
G1 X189.208 Y109.308 E7.72257
G1 X189.692 Y110.088 E7.73905
G1 X190.106 Y110.907 E7.75554
G1 X190.448 Y111.759 E7.77202
G1 X190.714 Y112.638 E7.78852
G1 X190.902 Y113.537 E7.80501
G1 X191.027 Y114.693 E7.8259
G1 X191.044 Y115.015 E7.83169
G1 X191.059 Y115.571 E7.84168
G1 X191.059 Y162.116 E8.67765
G1 X191.049 Y162.812 E8.69015
G1 X190.996 Y163.729 E8.70665
G1 X190.84 Y164.754 E8.72527
G1 X190.528 Y166.291 E8.75344
G1 X190.316 Y167.271 E8.77145
G1 X189.851 Y169.76 E8.81692
G1 X189.465 Y172.222 E8.86168
G1 X189.171 Y174.476 E8.90251
G1 X188.974 Y176.313 E8.93569
G1 X188.762 Y178.865 E8.98168
G1 X188.627 Y181.37 E9.02674
G1 X188.576 Y183.783 E9.07009
G1 X188.555 Y184.32 E9.07974
G1 X188.538 Y184.997 E9.0919
G1 X188.476 Y185.913 E9.10839
G1 X188.334 Y186.82 E9.12488
G1 X188.114 Y187.711 E9.14136
G1 X187.817 Y188.58 E9.15786
G1 X187.445 Y189.419 E9.17434
G1 X187.002 Y190.223 E9.19083
G1 X186.491 Y190.986 E9.20732
G1 X185.915 Y191.701 E9.22381
G1 X185.28 Y192.363 E9.24029
G1 X184.589 Y192.968 E9.25678
G1 X183.848 Y193.51 E9.27327
G1 X183.062 Y193.985 E9.28977
G1 X182.239 Y194.391 E9.30625
G1 X181.383 Y194.723 E9.32274
G1 X180.501 Y194.979 E9.33923
G1 X179.601 Y195.158 E9.35572
G1 X178.283 Y195.276 E9.37948
G1 X177.573 Y195.295 E9.39224
G1 X177.152 Y195.298 E9.3998
G1 X176.249 Y195.282 E9.41602
G1 X175.378 Y195.245 E9.43168
G1 X174.015 Y195.17 E9.4562
G1 X171.513 Y195.103 E9.50115
G1 X168.964 Y195.107 E9.54693
G1 X166.462 Y195.182 E9.59189
G1 X165.916 Y195.213 E9.60171
G1 X164.283 Y195.283 E9.63107
G1 X163.151 Y195.298 E9.6514
G1 X162.247 Y195.282 E9.66764
G1 X161.378 Y195.245 E9.68326
G1 X160.015 Y195.17 E9.70778
G1 X157.513 Y195.103 E9.75273
G1 X154.963 Y195.107 E9.79853
G1 X152.46 Y195.182 E9.8435
G1 X151.916 Y195.213 E9.85329
G1 X150.283 Y195.283 E9.88265
G1 X149.151 Y195.298 E9.90298
G1 X148.247 Y195.282 E9.91922
G1 X147.378 Y195.245 E9.93484
G1 X146.015 Y195.17 E9.95936
G1 X143.513 Y195.103 E10.00431
G1 X140.963 Y195.107 E10.05011
G1 X138.46 Y195.182 E10.09509
G1 X137.916 Y195.213 E10.10487
G1 X136.283 Y195.283 E10.13423
G1 X135.151 Y195.298 E10.15456
G1 X134.247 Y195.282 E10.1708
G1 X133.378 Y195.245 E10.18642
G1 X132.015 Y195.17 E10.21094
G1 X129.513 Y195.103 E10.25589
G1 X126.963 Y195.107 E10.30169
G1 X124.46 Y195.182 E10.34667
G1 X123.916 Y195.213 E10.35645
G1 X122.283 Y195.283 E10.38581
G1 X121.151 Y195.298 E10.40614
G1 X120.247 Y195.282 E10.42238
G1 X119.378 Y195.245 E10.438
G1 X118.015 Y195.17 E10.46252
G1 X115.513 Y195.103 E10.50747
G1 X112.963 Y195.107 E10.55327
G1 X110.46 Y195.182 E10.59825
G1 X109.916 Y195.213 E10.60803
G1 X108.283 Y195.283 E10.63739
G1 X107.151 Y195.298 E10.65772
G1 X106.545 Y195.29 E10.66861
G1 X105.628 Y195.238 E10.68511
G1 X104.72 Y195.106 E10.70158
G1 X103.826 Y194.896 E10.71808
G1 X102.954 Y194.609 E10.73457
G1 X102.11 Y194.247 E10.75106
G1 X101.301 Y193.813 E10.76755
G1 X100.533 Y193.31 E10.78404
G1 X99.812 Y192.743 E10.80051
G1 X99.143 Y192.114 E10.817
G1 X98.53 Y191.43 E10.8335
G1 X98.146 Y190.931 E10.84481
G1 X97.973 Y190.692 E10.85011
G1 X97.776 Y190.411 E10.85627
G1 X97.047 Y189.329 E10.87971
G1 X96.678 Y188.766 E10.8918
G1 X96.208 Y187.977 E10.90829
G1 X95.809 Y187.15 E10.92478
G1 X95.484 Y186.291 E10.94128
G1 X95.235 Y185.408 E10.95775
G1 X95.063 Y184.506 E10.97425
G1 X94.955 Y183.207 E10.99766
G1 X94.948 Y182.87 E11.00371
G1 X94.947 Y182.484 E11.01064
G1 X94.952 Y182.168 E11.01632
G1 X95.007 Y181.252 E11.0328
G1 X95.078 Y180.701 E11.04278
G1 X95.357 Y178.926 E11.07505
G1 X95.71 Y176.37 E11.12139
G1 X95.984 Y173.862 E11.16671
G1 X96.186 Y171.376 E11.2115
G1 X96.32 Y168.833 E11.25724
G1 X96.388 Y165.286 E11.32096
G1 X96.389 Y134.663 E11.87096
G1 X96.352 Y132.07 E11.91754
G1 X96.244 Y129.525 E11.96329
G1 X96.065 Y127.003 E12.0087
G1 X95.815 Y124.478 E12.05427
G1 X95.497 Y121.99 E12.09932
G1 X95.208 Y120.184 E12.13217
G1 X95.069 Y119.246 E12.1492
G1 X94.966 Y118.191 E12.16824
G1 X94.956 Y117.976 E12.1721
G1 X94.946 Y117.604 E12.17879
G1 X94.941 Y117.137 E12.18718
G1 X94.941 Y115.755 E12.212
G1 X94.95 Y115.11 E12.22358
G1 X95.003 Y114.193 E12.24008
G1 X95.135 Y113.285 E12.25656
G1 X95.346 Y112.391 E12.27306
G1 X95.634 Y111.52 E12.28953
G1 X95.996 Y110.676 E12.30603
G1 X96.431 Y109.868 E12.32251
G1 X96.934 Y109.1 E12.339
G1 X97.503 Y108.379 E12.35549
G1 X98.131 Y107.71 E12.37198
G1 X98.816 Y107.098 E12.38847
G1 X99.551 Y106.549 E12.40495
G1 X100.332 Y106.065 E12.42145
G1 X101.151 Y105.651 E12.43793
G1 X102.003 Y105.31 E12.45442
G1 X102.882 Y105.044 E12.47091
G1 X103.781 Y104.856 E12.48741
G1 X104.914 Y104.733 E12.50788
G1 X105.225 Y104.716 E12.51347
G1 X105.8 Y104.7 E12.5238
G1 X109.983 Y104.701 E12.59893
G1 X110.799 Y104.713 E12.61359
G0 F6000 X110.809 Y104.354
G1 F600 X113.644 Y104.436 E12.66453
G1 X116.146 Y104.436 E12.70946
G1 X117.847 Y104.377 E12.74003
G1 X119.8 Y104.34 E12.77512
G1 X123.988 Y104.341 E12.85033
G1 X124.809 Y104.354 E12.86508
G1 X127.644 Y104.436 E12.91602
G1 X130.146 Y104.436 E12.96096
G1 X131.847 Y104.377 E12.99153
G1 X133.8 Y104.34 E13.02661
G1 X137.988 Y104.341 E13.10183
G1 X138.809 Y104.354 E13.11658
G1 X141.644 Y104.436 E13.16752
G1 X144.146 Y104.436 E13.21245
G1 X145.847 Y104.377 E13.24302
G1 X147.8 Y104.34 E13.2781
G1 X151.988 Y104.341 E13.35332
G1 X152.809 Y104.354 E13.36807
G1 X155.644 Y104.436 E13.41901
G1 X158.146 Y104.436 E13.46395
G1 X159.847 Y104.377 E13.49452
G1 X161.8 Y104.34 E13.5296
G1 X165.988 Y104.341 E13.60482
G1 X166.809 Y104.354 E13.61956
G1 X169.644 Y104.436 E13.6705
G1 X172.146 Y104.436 E13.71544
G1 X173.847 Y104.377 E13.74601
G1 X175.8 Y104.34 E13.78109
G1 X179.986 Y104.341 E13.85628
G1 X180.65 Y104.35 E13.8682
G1 X181.582 Y104.403 E13.88497
G1 X182.506 Y104.535 E13.90173
G1 X183.416 Y104.746 E13.91851
G1 X184.304 Y105.033 E13.93527
G1 X185.164 Y105.396 E13.95204
G1 X185.99 Y105.831 E13.9688
G1 X186.776 Y106.335 E13.98557
G1 X187.515 Y106.905 E14.00234
G1 X188.204 Y107.536 E14.01912
G1 X188.835 Y108.223 E14.03587
G1 X189.406 Y108.962 E14.05264
G1 X189.911 Y109.747 E14.06941
G1 X190.348 Y110.572 E14.08618
G1 X190.712 Y111.432 E14.10295
G1 X191.001 Y112.32 E14.11972
G1 X191.213 Y113.229 E14.13648
G1 X191.347 Y114.153 E14.15325
G1 X191.387 Y114.674 E14.16264
G1 X191.404 Y114.996 E14.16843
G1 X191.419 Y115.571 E14.17876
G1 X191.419 Y162.122 E15.01484
G1 X191.409 Y162.818 E15.02734
G1 X191.355 Y163.75 E15.04411
G1 X191.193 Y164.825 E15.06363
G1 X190.88 Y166.367 E15.09189
G1 X190.669 Y167.342 E15.10981
G1 X190.208 Y169.811 E15.15492
G1 X189.819 Y172.289 E15.19997
G1 X189.529 Y174.511 E15.24022
G1 X189.333 Y176.341 E15.27327
G1 X189.12 Y178.914 E15.31964
G1 X188.988 Y181.368 E15.36378
G1 X188.935 Y183.797 E15.40742
G1 X188.916 Y184.279 E15.41608
G1 X188.898 Y185.005 E15.42913
G1 X188.835 Y185.937 E15.4459
G1 X188.693 Y186.86 E15.46268
G1 X188.472 Y187.767 E15.47944
G1 X188.175 Y188.652 E15.49621
G1 X187.803 Y189.508 E15.51297
G1 X187.359 Y190.329 E15.52974
G1 X186.846 Y191.11 E15.54652
G1 X186.269 Y191.843 E15.56327
G1 X185.631 Y192.525 E15.58005
G1 X184.936 Y193.149 E15.59682
G1 X184.191 Y193.712 E15.61359
G1 X183.401 Y194.208 E15.63035
G1 X182.571 Y194.636 E15.64712
G1 X181.707 Y194.99 E15.66389
G1 X180.817 Y195.27 E15.68065
G1 X179.905 Y195.472 E15.69742
G1 X178.98 Y195.596 E15.71419
G1 X178.293 Y195.636 E15.72655
G1 X177.583 Y195.655 E15.7393
G1 X177.147 Y195.658 E15.74713
G1 X176.234 Y195.642 E15.76353
G1 X175.358 Y195.604 E15.77928
G1 X174.021 Y195.53 E15.80333
G1 X171.504 Y195.463 E15.84855
G1 X168.975 Y195.467 E15.89398
G1 X166.459 Y195.542 E15.93918
G1 X165.933 Y195.573 E15.94865
G1 X164.599 Y195.634 E15.97263
G1 X164.289 Y195.643 E15.9782
G1 X163.146 Y195.658 E15.99873
G1 X162.232 Y195.642 E16.01515
G1 X161.358 Y195.604 E16.03086
G1 X160.021 Y195.53 E16.05491
G1 X157.504 Y195.463 E16.10014
G1 X154.975 Y195.467 E16.14556
G1 X152.457 Y195.543 E16.1908
G1 X151.933 Y195.573 E16.20023
G1 X150.599 Y195.634 E16.22421
G1 X150.289 Y195.643 E16.22978
G1 X149.146 Y195.658 E16.25032
G1 X148.232 Y195.642 E16.26673
G1 X147.358 Y195.604 E16.28245
G1 X146.021 Y195.53 E16.3065
G1 X143.504 Y195.463 E16.35172
