;FLAVOR:Marlin
;TIME:3369
;Filament used: 1.62549m
;Layer height: 0.2
;MINX:94.662
;MINY:104.42
;MINZ:0.16
;MAXX:191.338
;MAXY:195.578
;MAXZ:2.76
;Generated with Cura_SteamEngine 4.6.1
M140 S60
M105
M190 S60
M104 S220
M105
M109 S220
M82 ;absolute extrusion mode
M201 X500.00 Y500.00 Z100.00 E5000.00 ;Setup machine max acceleration
M203 X500.00 Y500.00 Z10.00 E50.00 ;Setup machine max feedrate
M204 P500.00 R1000.00 T500.00 ;Setup Print/Retract/Travel acceleration
M205 X8.00 Y8.00 Z0.40 E5.00 ;Setup Jerk
M220 S100 ;Reset Feedrate
M221 S100 ;Reset Flowrate

G28 ;Home

G92 E0 ;Reset Extruder
G1 Z2.0 F3000 ;Move Z Axis up
G1 X10.1 Y20 Z0.28 F5000.0 ;Move to start position
G1 X10.1 Y200.0 Z0.28 F1500.0 E15 ;Draw the first line
G1 X10.4 Y200.0 Z0.28 F5000.0 ;Move to side a little
G1 X10.4 Y20 Z0.28 F1500.0 E30 ;Draw the second line
G92 E0 ;Reset Extruder
G1 Z2.0 F3000 ;Move Z Axis up

G92 E0
G92 E0
G1 F2700 E-5
;LAYER_COUNT:14
;LAYER:0
M107
G0 F6000 X110.817 Y105.074 Z0.16
;TYPE:SKIRT
G1 F2700 E0
G1 F600 X113.658 Y105.155 E0.06655
G1 X116.151 Y105.155 E0.12492
G1 X117.844 Y105.097 E0.16459
G1 X119.782 Y105.06 E0.20998
G1 X124.009 Y105.061 E0.30895
G1 X124.817 Y105.074 E0.32787
G1 X127.658 Y105.155 E0.39442
G1 X130.151 Y105.155 E0.4528
G1 X131.844 Y105.097 E0.49246
G1 X133.782 Y105.06 E0.53785
G1 X138.009 Y105.061 E0.63682
G1 X138.817 Y105.074 E0.65575
G1 X141.658 Y105.155 E0.7223
G1 X144.151 Y105.155 E0.78067
G1 X145.844 Y105.097 E0.82033
G1 X147.782 Y105.06 E0.86572
G1 X152.009 Y105.061 E0.9647
G1 X152.817 Y105.074 E0.98362
G1 X155.658 Y105.155 E1.05017
G1 X158.151 Y105.155 E1.10854
G1 X159.844 Y105.097 E1.14821
G1 X161.782 Y105.06 E1.19359
G1 X166.009 Y105.061 E1.29257
G1 X166.817 Y105.074 E1.31149
G1 X169.658 Y105.155 E1.37804
G1 X172.151 Y105.155 E1.43641
G1 X173.844 Y105.097 E1.47608
G1 X175.782 Y105.06 E1.52147
G1 X179.995 Y105.061 E1.62011
G1 X180.659 Y105.07 E1.63566
G1 X181.559 Y105.122 E1.65677
G1 X182.45 Y105.254 E1.67786
G1 X183.327 Y105.464 E1.69898
G1 X184.181 Y105.751 E1.72007
G1 X185.007 Y106.113 E1.74119
G1 X185.797 Y106.546 E1.76229
G1 X186.546 Y107.048 E1.7834
G1 X187.247 Y107.614 E1.80449
G1 X187.895 Y108.24 E1.82559
G1 X188.486 Y108.921 E1.8467
G1 X189.013 Y109.652 E1.86781
G1 X189.474 Y110.427 E1.88892
G1 X189.865 Y111.239 E1.91002
G1 X190.182 Y112.083 E1.93113
G1 X190.422 Y112.951 E1.95222
G1 X190.585 Y113.838 E1.97334
G1 X190.666 Y114.683 E1.99321
G1 X190.683 Y114.999 E2.00062
G1 X190.698 Y115.545 E2.01341
G1 X190.698 Y162.113 E3.10381
G1 X190.688 Y162.809 E3.12011
G1 X190.635 Y163.709 E3.14122
G1 X190.487 Y164.68 E3.16422
G1 X190.33 Y165.455 E3.18273
G1 X189.946 Y167.282 E3.22645
G1 X189.482 Y169.785 E3.28605
G1 X189.104 Y172.198 E3.34324
G1 X188.779 Y174.723 E3.40285
G1 X188.728 Y175.226 E3.41469
G1 X188.682 Y175.614 E3.42384
G1 X188.581 Y176.728 E3.45003
G1 X188.5 Y177.543 E3.46921
G1 X188.458 Y178.078 E3.48177
G1 X188.318 Y180.236 E3.53241
G1 X188.29 Y180.935 E3.54879
G1 X188.26 Y181.515 E3.56239
G1 X188.248 Y182.071 E3.57541
G1 X188.22 Y182.809 E3.5927
G1 X188.209 Y183.646 E3.6123
G1 X188.177 Y185 E3.64402
G1 X188.116 Y185.899 E3.66512
G1 X187.975 Y186.79 E3.68624
G1 X187.756 Y187.664 E3.70734
G1 X187.46 Y188.515 E3.72843
G1 X187.091 Y189.337 E3.74953
G1 X186.649 Y190.123 E3.77065
G1 X186.14 Y190.867 E3.79175
G1 X185.567 Y191.562 E3.81284
G1 X184.934 Y192.204 E3.83395
G1 X184.247 Y192.788 E3.85507
G1 X183.511 Y193.308 E3.87617
G1 X182.732 Y193.761 E3.89727
G1 X181.916 Y194.143 E3.91837
G1 X181.069 Y194.452 E3.93948
G1 X180.198 Y194.684 E3.96058
G1 X179.31 Y194.838 E3.98169
G1 X178.287 Y194.917 E4.00571
G1 X177.563 Y194.936 E4.02267
G1 X177.166 Y194.938 E4.03196
G1 X176.247 Y194.922 E4.05349
G1 X175.373 Y194.884 E4.07397
G1 X174.078 Y194.812 E4.10434
G1 X171.547 Y194.744 E4.16363
G1 X169.012 Y194.748 E4.22298
G1 X166.43 Y194.824 E4.28347
G1 X165.918 Y194.853 E4.29547
G1 X164.292 Y194.924 E4.33358
G1 X163.467 Y194.938 E4.3529
G1 X163.165 Y194.938 E4.35998
G1 X162.245 Y194.922 E4.38152
G1 X161.373 Y194.884 E4.40196
G1 X160.078 Y194.812 E4.43233
G1 X157.547 Y194.744 E4.49161
G1 X155.011 Y194.748 E4.55099
G1 X152.428 Y194.825 E4.6115
G1 X151.918 Y194.853 E4.62346
G1 X150.292 Y194.924 E4.66157
G1 X149.467 Y194.938 E4.68089
G1 X149.165 Y194.938 E4.68796
G1 X148.245 Y194.922 E4.70951
G1 X147.373 Y194.884 E4.72994
G1 X146.078 Y194.812 E4.76031
G1 X143.547 Y194.744 E4.8196
G1 X141.011 Y194.748 E4.87898
G1 X138.428 Y194.825 E4.93949
G1 X137.918 Y194.853 E4.95145
G1 X136.292 Y194.924 E4.98956
G1 X135.467 Y194.938 E5.00888
G1 X135.165 Y194.938 E5.01595
G1 X134.245 Y194.922 E5.03749
G1 X133.373 Y194.884 E5.05793
G1 X132.078 Y194.812 E5.0883
G1 X129.547 Y194.744 E5.14759
G1 X127.011 Y194.748 E5.20697
G1 X124.428 Y194.825 E5.26748
G1 X123.918 Y194.853 E5.27943
G1 X122.292 Y194.924 E5.31754
G1 X121.467 Y194.938 E5.33686
G1 X121.165 Y194.938 E5.34394
G1 X120.245 Y194.922 E5.36548
G1 X119.373 Y194.884 E5.38592
G1 X118.078 Y194.812 E5.41629
G1 X115.547 Y194.744 E5.47557
G1 X113.011 Y194.748 E5.53495
G1 X110.428 Y194.825 E5.59546
G1 X109.918 Y194.853 E5.60742
G1 X108.292 Y194.924 E5.64553
G1 X107.467 Y194.938 E5.66485
G1 X107.164 Y194.938 E5.67195
G1 X106.542 Y194.93 E5.68651
G1 X105.642 Y194.879 E5.70762
G1 X104.751 Y194.747 E5.72871
G1 X103.874 Y194.538 E5.74982
G1 X103.02 Y194.251 E5.77091
G1 X102.194 Y193.89 E5.79202
G1 X101.403 Y193.457 E5.81314
G1 X100.654 Y192.956 E5.83424
G1 X99.952 Y192.391 E5.85534
G1 X99.303 Y191.765 E5.87645
G1 X98.713 Y191.084 E5.89755
G1 X98.434 Y190.715 E5.90838
G1 X98.095 Y190.238 E5.92208
G1 X97.339 Y189.117 E5.95374
G1 X96.975 Y188.562 E5.96928
G1 X96.515 Y187.787 E5.99039
G1 X96.125 Y186.974 E6.0115
G1 X95.809 Y186.131 E6.03258
G1 X95.568 Y185.262 E6.0537
G1 X95.406 Y184.375 E6.07481
G1 X95.312 Y183.116 E6.10437
G1 X95.308 Y182.524 E6.11823
G1 X95.313 Y182.17 E6.12652
G1 X95.366 Y181.27 E6.14763
G1 X95.435 Y180.738 E6.16019
G1 X95.714 Y178.961 E6.20231
G1 X96.062 Y176.442 E6.26185
G1 X96.343 Y173.878 E6.32225
G1 X96.549 Y171.334 E6.38201
G1 X96.68 Y168.837 E6.44056
G1 X96.749 Y165.271 E6.52408
G1 X96.75 Y134.68 E7.24037
G1 X96.713 Y132.071 E7.30146
G1 X96.606 Y129.538 E7.36083
G1 X96.423 Y126.959 E7.42137
G1 X96.178 Y124.487 E7.47953
G1 X95.855 Y121.967 E7.53902
G1 X95.565 Y120.15 E7.58211
G1 X95.426 Y119.212 E7.60431
G1 X95.327 Y118.195 E7.62823
G1 X95.317 Y117.98 E7.63327
G1 X95.307 Y117.622 E7.64166
G1 X95.302 Y117.158 E7.65252
G1 X95.302 Y115.754 E7.6854
G1 X95.311 Y115.097 E7.70078
G1 X95.363 Y114.197 E7.72189
G1 X95.495 Y113.305 E7.74301
G1 X95.705 Y112.429 E7.7641
G1 X95.993 Y111.575 E7.7852
G1 X96.354 Y110.749 E7.80631
G1 X96.788 Y109.959 E7.82742
G1 X97.29 Y109.21 E7.84853
G1 X97.856 Y108.509 E7.86963
G1 X98.482 Y107.861 E7.89072
G1 X99.163 Y107.27 E7.91184
G1 X99.894 Y106.743 E7.93294
G1 X100.669 Y106.282 E7.95405
G1 X101.481 Y105.892 E7.97514
G1 X102.325 Y105.575 E7.99625
G1 X103.194 Y105.334 E8.01737
G1 X104.08 Y105.171 E8.03846
G1 X104.95 Y105.089 E8.05892
G1 X105.262 Y105.073 E8.06624
G1 X105.782 Y105.06 E8.07842
G1 X110.009 Y105.061 E8.1774
G1 X110.817 Y105.074 E8.19632
G0 F6000 X110.826 Y104.754
G1 F600 X113.667 Y104.835 E8.26287
G1 X116.139 Y104.835 E8.32075
G1 X117.837 Y104.777 E8.36053
G1 X119.782 Y104.74 E8.40608
G1 X124.013 Y104.741 E8.50515
G1 X124.826 Y104.754 E8.52419
G1 X127.667 Y104.835 E8.59074
G1 X130.139 Y104.835 E8.64862
G1 X131.837 Y104.777 E8.6884
G1 X133.782 Y104.74 E8.73395
G1 X138.013 Y104.741 E8.83302
G1 X138.826 Y104.754 E8.85206
G1 X141.667 Y104.835 E8.91861
G1 X144.139 Y104.835 E8.97649
G1 X145.837 Y104.777 E9.01628
G1 X147.782 Y104.74 E9.06183
G1 X152.013 Y104.741 E9.1609
G1 X152.826 Y104.754 E9.17994
G1 X155.667 Y104.835 E9.24648
G1 X158.139 Y104.835 E9.30437
G1 X159.837 Y104.777 E9.34415
G1 X161.782 Y104.74 E9.3897
G1 X166.013 Y104.741 E9.48877
G1 X166.826 Y104.754 E9.50781
G1 X169.667 Y104.835 E9.57436
G1 X172.139 Y104.835 E9.63224
G1 X173.837 Y104.777 E9.67202
G1 X175.782 Y104.74 E9.71757
G1 X179.999 Y104.741 E9.81631
G1 X180.663 Y104.75 E9.83186
G1 X181.577 Y104.802 E9.8533
G1 X182.483 Y104.934 E9.87474
G1 X183.374 Y105.145 E9.89618
G1 X184.243 Y105.432 E9.91761
G1 X185.084 Y105.794 E9.93904
G1 X185.89 Y106.228 E9.96048
G1 X186.654 Y106.731 E9.9819
G1 X187.373 Y107.299 E10.00335
G1 X188.039 Y107.927 E10.02479
G1 X188.647 Y108.611 E10.04622
G1 X189.194 Y109.345 E10.06765
G1 X189.674 Y110.125 E10.08909
G1 X190.084 Y110.943 E10.11052
G1 X190.422 Y111.794 E10.13196
G1 X190.684 Y112.671 E10.15339
G1 X190.868 Y113.568 E10.17483
G1 X190.986 Y114.666 E10.20069
G1 X191.003 Y114.982 E10.2081
G1 X191.018 Y115.545 E10.22129
G1 X191.018 Y162.118 E11.3118
G1 X191.008 Y162.814 E11.3281
G1 X190.955 Y163.727 E11.34951
G1 X190.8 Y164.744 E11.3736
G1 X190.643 Y165.521 E11.39216
G1 X190.265 Y167.32 E11.43521
G1 X189.794 Y169.859 E11.49567
G1 X189.424 Y172.218 E11.55158
G1 X189.093 Y174.794 E11.6124
G1 X189.045 Y175.264 E11.62346
G1 X189.004 Y175.611 E11.63164
G1 X188.899 Y176.759 E11.65863
G1 X188.821 Y177.547 E11.67717
G1 X188.775 Y178.124 E11.69073
G1 X188.639 Y180.23 E11.74014
G1 X188.61 Y180.952 E11.75706
G1 X188.58 Y181.538 E11.7708
G1 X188.568 Y182.083 E11.78357
G1 X188.54 Y182.825 E11.80095
G1 X188.529 Y183.654 E11.82037
G1 X188.497 Y185.008 E11.85208
G1 X188.435 Y185.921 E11.87351
G1 X188.294 Y186.825 E11.89493
G1 X188.075 Y187.714 E11.91637
G1 X187.779 Y188.58 E11.9378
G1 X187.408 Y189.417 E11.95923
G1 X186.966 Y190.219 E11.98068
G1 X186.455 Y190.979 E12.00212
G1 X185.881 Y191.691 E12.02353
G1 X185.246 Y192.351 E12.04498
G1 X184.556 Y192.952 E12.06641
G1 X183.816 Y193.491 E12.08784
G1 X183.032 Y193.964 E12.10928
G1 X182.21 Y194.366 E12.13071
G1 X181.355 Y194.695 E12.15216
G1 X180.476 Y194.948 E12.17358
G1 X179.577 Y195.124 E12.19503
G1 X178.295 Y195.236 E12.22516
G1 X177.571 Y195.255 E12.24212
G1 X177.161 Y195.258 E12.25172
G1 X176.233 Y195.242 E12.27345
G1 X175.355 Y195.204 E12.29403
G1 X174.052 Y195.132 E12.32458
G1 X171.538 Y195.064 E12.38347
G1 X168.986 Y195.068 E12.44323
G1 X166.493 Y195.142 E12.50163
G1 X165.933 Y195.173 E12.51476
G1 X164.298 Y195.243 E12.55308
G1 X163.16 Y195.258 E12.57973
G1 X162.232 Y195.242 E12.60146
G1 X161.355 Y195.204 E12.62201
G1 X160.052 Y195.132 E12.65257
G1 X157.538 Y195.064 E12.71146
G1 X154.985 Y195.068 E12.77124
G1 X152.492 Y195.142 E12.82963
G1 X151.933 Y195.173 E12.84274
G1 X150.298 Y195.243 E12.88106
G1 X149.16 Y195.258 E12.90771
G1 X148.232 Y195.242 E12.92944
G1 X147.355 Y195.204 E12.95
G1 X146.052 Y195.132 E12.98055
G1 X143.538 Y195.064 E13.03944
G1 X140.985 Y195.068 E13.09922
G1 X138.492 Y195.142 E13.15762
G1 X137.933 Y195.173 E13.17073
G1 X136.298 Y195.243 E13.20905
G1 X135.16 Y195.258 E13.2357
G1 X134.232 Y195.242 E13.25743
G1 X133.355 Y195.204 E13.27798
G1 X132.052 Y195.132 E13.30854
G1 X129.538 Y195.064 E13.36743
G1 X126.985 Y195.068 E13.42721
G1 X124.492 Y195.142 E13.48561
G1 X123.933 Y195.173 E13.49872
G1 X122.298 Y195.243 E13.53703
G1 X121.16 Y195.258 E13.56368
G1 X120.232 Y195.242 E13.58542
G1 X119.355 Y195.204 E13.60597
G1 X118.052 Y195.132 E13.63653
G1 X115.538 Y195.064 E13.69541
G1 X112.985 Y195.068 E13.75519
G1 X110.492 Y195.142 E13.81359
G1 X109.933 Y195.173 E13.8267
G1 X108.298 Y195.243 E13.86502
G1 X107.16 Y195.258 E13.89167
G1 X106.538 Y195.25 E13.90623
G1 X105.624 Y195.198 E13.92767
G1 X104.718 Y195.067 E13.94911
G1 X103.827 Y194.857 E13.97054
G1 X102.958 Y194.57 E13.99197
G1 X102.117 Y194.209 E14.0134
G1 X101.311 Y193.775 E14.03483
G1 X100.545 Y193.273 E14.05628
G1 X99.827 Y192.706 E14.0777
G1 X99.161 Y192.078 E14.09913
G1 X98.552 Y191.395 E14.12056
G1 X98.174 Y190.903 E14.13509
G1 X98.016 Y190.684 E14.14141
G1 X97.83 Y190.417 E14.14903
G1 X97.072 Y189.293 E14.18077
G1 X96.708 Y188.738 E14.19632
G1 X96.24 Y187.951 E14.21775
G1 X95.842 Y187.126 E14.2392
G1 X95.518 Y186.27 E14.26063
G1 X95.269 Y185.389 E14.28207
G1 X95.099 Y184.49 E14.30349
G1 X95.008 Y183.579 E14.32493
G1 X94.992 Y183.12 E14.33569
G1 X94.988 Y182.519 E14.34976
G1 X94.993 Y182.165 E14.35805
G1 X95.046 Y181.251 E14.37949
G1 X95.119 Y180.688 E14.39278
G1 X95.397 Y178.92 E14.43469
G1 X95.745 Y176.395 E14.49437
G1 X96.023 Y173.856 E14.55417
G1 X96.229 Y171.325 E14.61363
G1 X96.361 Y168.815 E14.67249
G1 X96.429 Y165.265 E14.75563
G1 X96.43 Y134.684 E15.47168
G1 X96.393 Y132.088 E15.53248
G1 X96.285 Y129.539 E15.59221
G1 X96.106 Y127.016 E15.65144
G1 X95.855 Y124.486 E15.71097
G1 X95.54 Y122.025 E15.76907
G1 X95.248 Y120.197 E15.81241
G1 X95.109 Y119.259 E15.83461
G1 X95.007 Y118.21 E15.85929
G1 X94.997 Y117.995 E15.86433
G1 X94.987 Y117.625 E15.873
G1 X94.982 Y117.158 E15.88393
G1 X94.982 Y115.749 E15.91693
G1 X94.991 Y115.092 E15.93231
G1 X95.043 Y114.179 E15.95372
G1 X95.176 Y113.273 E15.97517
G1 X95.386 Y112.382 E15.9966
G1 X95.674 Y111.513 E16.01804
G1 X96.036 Y110.672 E16.03947
G1 X96.47 Y109.866 E16.06091
G1 X96.973 Y109.101 E16.08235
G1 X97.541 Y108.383 E16.10378
G1 X98.169 Y107.717 E16.12522
G1 X98.853 Y107.109 E16.14665
G1 X99.588 Y106.563 E16.16809
G1 X100.367 Y106.082 E16.18952
G1 X101.185 Y105.672 E16.21095
G1 X102.036 Y105.335 E16.23238
G1 X102.913 Y105.073 E16.25381
G1 X103.81 Y104.888 E16.27526
G1 X104.933 Y104.77 E16.3017
G1 X105.245 Y104.754 E16.30901
G1 X105.782 Y104.74 E16.32159
G1 X110.013 Y104.741 E16.42066
G1 X110.826 Y104.754 E16.4397
G0 F6000 X110.835 Y104.434
G1 F600 X113.676 Y104.515 E16.50625
G1 X116.157 Y104.515 E16.56434
G1 X117.831 Y104.457 E16.60356
G1 X119.782 Y104.42 E16.64925
G1 X124.018 Y104.421 E16.74844
G1 X124.835 Y104.434 E16.76757
G1 X127.676 Y104.515 E16.83412
G1 X130.157 Y104.515 E16.89221
G1 X131.831 Y104.457 E16.93143
G1 X133.782 Y104.42 E16.97713
G1 X138.018 Y104.421 E17.07631
G1 X138.835 Y104.434 E17.09544
G1 X141.676 Y104.515 E17.16199
G1 X144.157 Y104.515 E17.22009
G1 X145.831 Y104.457 E17.25931
G1 X147.782 Y104.42 E17.305
G1 X152.018 Y104.421 E17.40419
G1 X152.835 Y104.434 E17.42332
G1 X155.676 Y104.515 E17.48987
G1 X158.157 Y104.515 E17.54796
G1 X159.831 Y104.457 E17.58718
G1 X161.782 Y104.42 E17.63287
G1 X166.018 Y104.421 E17.73206
G1 X166.835 Y104.434 E17.75119
G1 X169.676 Y104.515 E17.81774
G1 X172.157 Y104.515 E17.87583
G1 X173.831 Y104.457 E17.91505
G1 X175.782 Y104.42 E17.96074
G1 X180.003 Y104.421 E18.05958
G1 X180.667 Y104.43 E18.07513
G1 X181.595 Y104.483 E18.09689
G1 X182.515 Y104.615 E18.11866
G1 X183.42 Y104.825 E18.14041
G1 X184.304 Y105.113 E18.16218
G1 X185.159 Y105.476 E18.18393
G1 X185.981 Y105.911 E18.20571
G1 X186.762 Y106.414 E18.22746
G1 X187.496 Y106.984 E18.24922
G1 X188.179 Y107.614 E18.27097
G1 X188.806 Y108.3 E18.29274
G1 X189.37 Y109.038 E18.31449
G1 X189.87 Y109.822 E18.33626
G1 X190.3 Y110.646 E18.35802
G1 X190.658 Y111.503 E18.37977
G1 X190.941 Y112.388 E18.40152
G1 X191.146 Y113.295 E18.4233
G1 X191.305 Y114.649 E18.45522
G1 X191.322 Y114.965 E18.46263
G1 X191.338 Y115.545 E18.47622
G1 X191.338 Y162.122 E19.56682
G1 X191.328 Y162.818 E19.58312
G1 X191.275 Y163.746 E19.60489
G1 X191.114 Y164.807 E19.63001
G1 X190.956 Y165.587 E19.64865
G1 X190.574 Y167.405 E19.69215
G1 X190.112 Y169.896 E19.75147
G1 X189.739 Y172.273 E19.80781
G1 X189.415 Y174.796 E19.86737
G1 X189.363 Y175.302 E19.87928
G1 X189.318 Y175.68 E19.88819
G1 X189.218 Y176.791 E19.91431
G1 X189.138 Y177.604 E19.93344
G1 X189.092 Y178.172 E19.94678
G1 X188.96 Y180.224 E19.99493
G1 X188.93 Y180.968 E20.01237
G1 X188.899 Y181.559 E20.02622
G1 X188.887 Y182.095 E20.03878
G1 X188.86 Y182.801 E20.05532
G1 X188.849 Y183.661 E20.07546
G1 X188.817 Y185.015 E20.10717
G1 X188.755 Y185.942 E20.12893
G1 X188.614 Y186.861 E20.1507
G1 X188.394 Y187.764 E20.17246
G1 X188.097 Y188.645 E20.19423
G1 X187.726 Y189.496 E20.21597
G1 X187.283 Y190.313 E20.23773
G1 X186.771 Y191.089 E20.2595
G1 X186.195 Y191.818 E20.28125
G1 X185.558 Y192.495 E20.30302
G1 X184.865 Y193.114 E20.32477
G1 X184.121 Y193.671 E20.34654
G1 X183.333 Y194.163 E20.36829
G1 X182.505 Y194.585 E20.39005
G1 X181.644 Y194.934 E20.4118
G1 X180.755 Y195.208 E20.43358
G1 X179.847 Y195.404 E20.45534
G1 X178.925 Y195.522 E20.4771
G1 X178.303 Y195.556 E20.49169
G1 X177.579 Y195.575 E20.50864
G1 X177.157 Y195.578 E20.51853
