;FLAVOR:Marlin
;TIME:5148
;Filament used: 2.39657m
;Layer height: 0.16
;MINX:103.449
;MINY:107.299
;MINZ:0.16
;MAXX:184.551
;MAXY:192.701
;MAXZ:2.68
;Generated with Cura_SteamEngine 4.6.1
M140 S60
M105
M190 S60
M104 S230
M105
M109 S230
M82 ;absolute extrusion mode
M201 X500.00 Y500.00 Z100.00 E5000.00 ;Setup machine max acceleration
M203 X500.00 Y500.00 Z10.00 E50.00 ;Setup machine max feedrate
M204 P500.00 R1000.00 T500.00 ;Setup Print/Retract/Travel acceleration
M205 X8.00 Y8.00 Z0.40 E5.00 ;Setup Jerk
M220 S100 ;Reset Feedrate
M221 S100 ;Reset Flowrate

G28 ;Home

G92 E0 ;Reset Extruder
G1 Z2.0 F3000 ;Move Z Axis up
G1 X10.1 Y20 Z0.28 F5000.0 ;Move to start position
G1 X10.1 Y200.0 Z0.28 F1500.0 E15 ;Draw the first line
G1 X10.4 Y200.0 Z0.28 F5000.0 ;Move to side a little
G1 X10.4 Y20 Z0.28 F1500.0 E30 ;Draw the second line
G92 E0 ;Reset Extruder
G1 Z2.0 F3000 ;Move Z Axis up

G92 E0
G92 E0
G1 F2700 E-5
;LAYER_COUNT:15
;LAYER:0
M107
G0 F6000 X105.871 Y109.472 Z0.16
;TYPE:SKIRT
G1 F2700 E0
G1 F600 X106.47 Y108.955 E0.02324
G1 X107.118 Y108.5 E0.0465
G1 X107.809 Y108.114 E0.06975
G1 X108.536 Y107.798 E0.09304
G1 X109.29 Y107.558 E0.11628
G1 X110.065 Y107.395 E0.13955
G1 X110.852 Y107.311 E0.1628
G1 X111.29 Y107.299 E0.17567
G1 X116.711 Y107.3 E0.33491
G1 X117.502 Y107.34 E0.35818
G1 X118.285 Y107.46 E0.38145
G1 X119.051 Y107.658 E0.40469
G1 X119.794 Y107.932 E0.42795
G1 X119.998 Y108.032 E0.43462
G1 X120.536 Y107.798 E0.45186
G1 X121.29 Y107.558 E0.4751
G1 X122.065 Y107.395 E0.49837
G1 X122.852 Y107.311 E0.52162
G1 X123.29 Y107.299 E0.53449
G1 X128.711 Y107.3 E0.69373
G1 X129.502 Y107.34 E0.717
G1 X130.285 Y107.46 E0.74027
G1 X131.051 Y107.658 E0.76351
G1 X131.794 Y107.932 E0.78677
G1 X131.998 Y108.032 E0.79344
G1 X132.536 Y107.798 E0.81068
G1 X133.29 Y107.558 E0.83392
G1 X134.065 Y107.395 E0.85719
G1 X134.852 Y107.311 E0.88044
G1 X135.29 Y107.299 E0.89331
G1 X140.711 Y107.3 E1.05255
G1 X141.502 Y107.34 E1.07582
G1 X142.285 Y107.46 E1.09909
G1 X143.051 Y107.658 E1.12233
G1 X143.794 Y107.932 E1.14559
G1 X143.998 Y108.032 E1.15226
G1 X144.536 Y107.798 E1.1695
G1 X145.29 Y107.558 E1.19274
G1 X146.065 Y107.395 E1.21601
G1 X146.852 Y107.311 E1.23926
G1 X147.29 Y107.299 E1.25213
G1 X152.711 Y107.3 E1.41137
G1 X153.502 Y107.34 E1.43464
G1 X154.285 Y107.46 E1.45791
G1 X155.051 Y107.658 E1.48115
G1 X155.794 Y107.932 E1.50441
G1 X155.998 Y108.032 E1.51108
G1 X156.536 Y107.798 E1.52832
G1 X157.29 Y107.558 E1.55156
G1 X158.065 Y107.395 E1.57483
G1 X158.852 Y107.311 E1.59807
G1 X159.29 Y107.299 E1.61095
G1 X164.711 Y107.3 E1.77019
G1 X165.502 Y107.34 E1.79346
G1 X166.285 Y107.46 E1.81672
G1 X167.051 Y107.658 E1.83997
G1 X167.794 Y107.932 E1.86323
G1 X167.998 Y108.032 E1.8699
G1 X168.536 Y107.798 E1.88714
G1 X169.29 Y107.558 E1.91038
G1 X170.065 Y107.395 E1.93364
G1 X170.852 Y107.311 E1.95689
G1 X171.29 Y107.299 E1.96977
G1 X176.711 Y107.3 E2.12901
G1 X177.502 Y107.34 E2.15227
G1 X178.285 Y107.46 E2.17554
G1 X179.051 Y107.658 E2.19879
G1 X179.794 Y107.932 E2.22205
G1 X180.505 Y108.28 E2.2453
G1 X181.178 Y108.698 E2.26857
G1 X181.805 Y109.181 E2.29182
G1 X182.38 Y109.725 E2.31508
G1 X182.897 Y110.325 E2.33834
G1 X183.351 Y110.973 E2.36158
G1 X183.737 Y111.664 E2.38483
G1 X184.052 Y112.391 E2.40811
G1 X184.292 Y113.145 E2.43135
G1 X184.454 Y113.92 E2.45461
G1 X184.538 Y114.707 E2.47786
G1 X184.55 Y115.14 E2.49058
G1 X184.551 Y162.683 E3.88718
G1 X184.511 Y163.474 E3.91044
G1 X184.356 Y164.423 E3.93869
G1 X184.01 Y165.943 E3.98448
G1 X183.711 Y167.359 E4.02699
G1 X183.439 Y168.772 E4.06926
G1 X183.173 Y170.281 E4.11427
G1 X182.949 Y171.683 E4.15598
G1 X182.733 Y173.209 E4.20126
G1 X182.56 Y174.583 E4.24194
G1 X182.402 Y176.031 E4.28472
G1 X182.263 Y177.536 E4.32912
G1 X182.148 Y179.06 E4.37402
G1 X182.069 Y180.405 E4.41359
G1 X182.001 Y181.972 E4.45967
G1 X181.965 Y183.34 E4.49987
G1 X181.949 Y184.938 E4.54681
G1 X181.901 Y185.729 E4.57009
G1 X181.773 Y186.51 E4.59334
G1 X181.568 Y187.275 E4.6166
G1 X181.286 Y188.015 E4.63987
G1 X180.932 Y188.722 E4.66309
G1 X180.507 Y189.391 E4.68638
G1 X180.018 Y190.013 E4.70962
G1 X179.468 Y190.583 E4.73289
G1 X178.863 Y191.094 E4.75615
G1 X178.21 Y191.542 E4.77941
G1 X177.516 Y191.921 E4.80264
G1 X176.786 Y192.229 E4.82591
G1 X176.029 Y192.461 E4.84917
G1 X175.253 Y192.616 E4.87242
G1 X174.114 Y192.7 E4.90597
G1 X172.583 Y192.701 E4.95094
G1 X171.792 Y192.662 E4.97421
G1 X171.01 Y192.543 E4.99744
G1 X170.243 Y192.345 E5.02071
G1 X169.5 Y192.072 E5.04396
G1 X168.789 Y191.724 E5.06722
G1 X168.116 Y191.307 E5.09047
G1 X167.488 Y190.824 E5.11375
G1 X167.344 Y190.688 E5.11956
G1 X166.863 Y191.094 E5.13806
G1 X166.21 Y191.542 E5.16132
G1 X165.516 Y191.921 E5.18455
G1 X164.786 Y192.229 E5.20782
G1 X164.029 Y192.461 E5.23108
G1 X163.253 Y192.616 E5.25432
G1 X162.114 Y192.7 E5.28787
G1 X160.583 Y192.701 E5.33285
G1 X159.792 Y192.662 E5.35611
G1 X159.01 Y192.543 E5.37935
G1 X158.243 Y192.345 E5.40262
G1 X157.5 Y192.072 E5.42587
G1 X156.789 Y191.724 E5.44912
G1 X156.116 Y191.307 E5.47238
G1 X155.488 Y190.824 E5.49565
G1 X155.344 Y190.688 E5.50147
G1 X154.863 Y191.094 E5.51996
G1 X154.21 Y191.542 E5.54322
G1 X153.516 Y191.921 E5.56645
G1 X152.786 Y192.229 E5.58973
G1 X152.029 Y192.461 E5.61298
G1 X151.253 Y192.616 E5.63623
G1 X150.114 Y192.7 E5.66978
G1 X148.583 Y192.701 E5.71475
G1 X147.792 Y192.662 E5.73802
G1 X147.01 Y192.543 E5.76125
G1 X146.243 Y192.345 E5.78452
G1 X145.5 Y192.072 E5.80778
G1 X144.789 Y191.724 E5.83103
G1 X144.116 Y191.307 E5.85429
G1 X143.488 Y190.824 E5.87756
G1 X143.344 Y190.688 E5.88338
G1 X142.863 Y191.094 E5.90187
G1 X142.21 Y191.542 E5.92513
G1 X141.516 Y191.921 E5.94836
G1 X140.786 Y192.229 E5.97163
G1 X140.029 Y192.461 E5.99489
G1 X139.253 Y192.616 E6.01814
G1 X138.114 Y192.7 E6.05169
G1 X136.583 Y192.701 E6.09666
G1 X135.792 Y192.662 E6.11992
G1 X135.01 Y192.543 E6.14316
G1 X134.243 Y192.345 E6.16643
G1 X133.5 Y192.072 E6.18968
G1 X132.789 Y191.724 E6.21293
G1 X132.116 Y191.307 E6.23619
G1 X131.488 Y190.824 E6.25946
G1 X131.344 Y190.688 E6.26528
G1 X130.863 Y191.094 E6.28377
G1 X130.21 Y191.542 E6.30704
G1 X129.516 Y191.921 E6.33026
G1 X128.786 Y192.229 E6.35354
G1 X128.029 Y192.461 E6.3768
G1 X127.253 Y192.616 E6.40004
G1 X126.114 Y192.7 E6.43359
G1 X124.583 Y192.701 E6.47857
G1 X123.792 Y192.662 E6.50183
G1 X123.01 Y192.543 E6.52507
G1 X122.243 Y192.345 E6.54833
G1 X121.5 Y192.072 E6.57159
G1 X120.789 Y191.724 E6.59484
G1 X120.116 Y191.307 E6.6181
G1 X119.488 Y190.824 E6.64137
G1 X119.344 Y190.688 E6.64719
G1 X118.863 Y191.094 E6.66568
G1 X118.21 Y191.542 E6.68894
G1 X117.516 Y191.921 E6.71217
G1 X116.786 Y192.229 E6.73544
G1 X116.029 Y192.461 E6.7587
G1 X115.253 Y192.616 E6.78195
G1 X114.114 Y192.7 E6.8155
G1 X112.583 Y192.701 E6.86047
G1 X111.792 Y192.662 E6.88374
G1 X111.01 Y192.543 E6.90697
G1 X110.243 Y192.345 E6.93024
G1 X109.5 Y192.072 E6.95349
G1 X108.789 Y191.724 E6.97675
G1 X108.116 Y191.307 E7
G1 X107.488 Y190.824 E7.02328
G1 X106.913 Y190.281 E7.04651
G1 X106.395 Y189.682 E7.06977
G1 X106.155 Y189.357 E7.08164
G1 X104.867 Y187.517 E7.14762
G1 X104.447 Y186.846 E7.17087
G1 X104.096 Y186.137 E7.19411
G1 X103.818 Y185.395 E7.21739
G1 X103.617 Y184.629 E7.24065
G1 X103.494 Y183.847 E7.2639
G1 X103.45 Y183.021 E7.2882
G1 X103.45 Y182.217 E7.31182
G1 X103.49 Y181.426 E7.33509
G1 X103.609 Y180.644 E7.35832
G1 X103.807 Y179.877 E7.38159
G1 X104.081 Y179.134 E7.40485
G1 X104.429 Y178.423 E7.42811
G1 X104.847 Y177.75 E7.45138
G1 X104.949 Y177.617 E7.4563
G1 X104.95 Y122.384 E9.07879
G1 X104.592 Y121.858 E9.09748
G1 X104.216 Y121.162 E9.12072
G1 X103.911 Y120.431 E9.14399
G1 X103.681 Y119.674 E9.16723
G1 X103.529 Y118.897 E9.19049
G1 X103.45 Y117.786 E9.2232
G1 X103.449 Y115.142 E9.30087
G1 X103.489 Y114.351 E9.32414
G1 X103.608 Y113.569 E9.34737
G1 X103.805 Y112.802 E9.37064
G1 X104.079 Y112.059 E9.3939
G1 X104.427 Y111.348 E9.41715
G1 X104.844 Y110.675 E9.44041
G1 X105.327 Y110.048 E9.46366
G1 X105.871 Y109.472 E9.48693
G0 F6000 X106.185 Y109.616
G1 F600 X106.781 Y109.12 E9.50971
G1 X107.425 Y108.688 E9.53249
G1 X108.11 Y108.324 E9.55528
G1 X108.829 Y108.033 E9.57806
G1 X109.573 Y107.817 E9.60082
G1 X110.336 Y107.68 E9.62359
G1 X111.29 Y107.619 E9.65167
G1 X116.711 Y107.62 E9.81092
G1 X117.486 Y107.66 E9.83371
G1 X118.252 Y107.78 E9.85649
G1 X119.001 Y107.978 E9.87925
G1 X119.727 Y108.252 E9.90204
G1 X119.994 Y108.386 E9.91082
G1 X120.11 Y108.324 E9.91468
G1 X120.829 Y108.033 E9.93747
G1 X121.573 Y107.817 E9.96022
G1 X122.336 Y107.68 E9.983
G1 X123.29 Y107.619 E10.01108
G1 X128.711 Y107.62 E10.17032
G1 X129.486 Y107.66 E10.19312
G1 X130.252 Y107.78 E10.21589
G1 X131.001 Y107.978 E10.23865
G1 X131.727 Y108.252 E10.26145
G1 X131.994 Y108.386 E10.27022
G1 X132.11 Y108.324 E10.27408
G1 X132.829 Y108.033 E10.29687
G1 X133.573 Y107.817 E10.31963
G1 X134.336 Y107.68 E10.3424
G1 X135.29 Y107.619 E10.37048
G1 X140.711 Y107.62 E10.52972
G1 X141.486 Y107.66 E10.55252
G1 X142.252 Y107.78 E10.5753
G1 X143.001 Y107.978 E10.59805
G1 X143.727 Y108.252 E10.62085
G1 X143.994 Y108.386 E10.62962
G1 X144.11 Y108.324 E10.63349
G1 X144.829 Y108.033 E10.65627
G1 X145.573 Y107.817 E10.67903
G1 X146.336 Y107.68 E10.7018
G1 X147.29 Y107.619 E10.72988
G1 X152.711 Y107.62 E10.88913
G1 X153.486 Y107.66 E10.91192
G1 X154.252 Y107.78 E10.9347
G1 X155.001 Y107.978 E10.95746
G1 X155.727 Y108.252 E10.98025
G1 X155.994 Y108.386 E10.98903
G1 X156.11 Y108.324 E10.99289
G1 X156.829 Y108.033 E11.01568
G1 X157.573 Y107.817 E11.03844
G1 X158.336 Y107.68 E11.06121
G1 X159.29 Y107.619 E11.08929
G1 X164.711 Y107.62 E11.24853
G1 X165.486 Y107.66 E11.27133
G1 X166.252 Y107.78 E11.2941
G1 X167.001 Y107.978 E11.31686
G1 X167.727 Y108.252 E11.33966
G1 X167.994 Y108.386 E11.34843
G1 X168.11 Y108.324 E11.3523
G1 X168.829 Y108.033 E11.37508
G1 X169.573 Y107.817 E11.39784
G1 X170.336 Y107.68 E11.42061
G1 X171.29 Y107.619 E11.44869
G1 X176.711 Y107.62 E11.60794
G1 X177.486 Y107.66 E11.63073
G1 X178.252 Y107.78 E11.65351
G1 X179.001 Y107.978 E11.67627
G1 X179.727 Y108.252 E11.69906
G1 X180.42 Y108.599 E11.72183
G1 X181.074 Y109.016 E11.74461
G1 X181.681 Y109.498 E11.76738
G1 X182.236 Y110.04 E11.79017
G1 X182.732 Y110.636 E11.81295
G1 X183.164 Y111.28 E11.83573
G1 X183.527 Y111.965 E11.8585
G1 X183.817 Y112.684 E11.88127
G1 X184.033 Y113.428 E11.90403
G1 X184.17 Y114.192 E11.92683
G1 X184.23 Y115.14 E11.95474
G1 X184.231 Y162.683 E13.35133
G1 X184.191 Y163.457 E13.37409
G1 X184.044 Y164.352 E13.40074
G1 X183.696 Y165.881 E13.4468
G1 X183.4 Y167.284 E13.48892
G1 X183.109 Y168.796 E13.53415
G1 X182.867 Y170.168 E13.57508
G1 X182.632 Y171.641 E13.61889
G1 X182.423 Y173.116 E13.66266
G1 X182.24 Y174.57 E13.70571
G1 X182.078 Y176.056 E13.74962
G1 X181.946 Y177.485 E13.79177
G1 X181.832 Y178.99 E13.83611
G1 X181.746 Y180.451 E13.8791
G1 X181.682 Y181.948 E13.92311
G1 X181.645 Y183.337 E13.96393
G1 X181.629 Y184.935 E14.01088
G1 X181.581 Y185.709 E14.03366
G1 X181.454 Y186.474 E14.05644
G1 X181.248 Y187.222 E14.07923
G1 X180.967 Y187.944 E14.10199
G1 X180.613 Y188.634 E14.12477
G1 X180.19 Y189.284 E14.14755
G1 X179.702 Y189.887 E14.17033
G1 X179.155 Y190.436 E14.1931
G1 X178.554 Y190.926 E14.21588
G1 X177.906 Y191.351 E14.23864
G1 X177.217 Y191.708 E14.26144
G1 X176.496 Y191.991 E14.28419
G1 X175.749 Y192.199 E14.30697
G1 X174.984 Y192.329 E14.32976
G1 X174.114 Y192.38 E14.35536
G1 X172.583 Y192.381 E14.40034
G1 X171.809 Y192.342 E14.4231
G1 X171.042 Y192.223 E14.4459
G1 X170.293 Y192.025 E14.46866
G1 X169.567 Y191.752 E14.49145
G1 X168.873 Y191.405 E14.51424
G1 X168.219 Y190.989 E14.53701
G1 X167.611 Y190.508 E14.55978
G1 X167.344 Y190.247 E14.57075
G1 X167.155 Y190.436 E14.5786
G1 X166.554 Y190.926 E14.60138
G1 X165.906 Y191.351 E14.62414
G1 X165.217 Y191.708 E14.64694
G1 X164.496 Y191.991 E14.66969
G1 X163.749 Y192.199 E14.69247
G1 X162.984 Y192.329 E14.71526
G1 X162.114 Y192.38 E14.74086
G1 X160.583 Y192.381 E14.78584
G1 X159.809 Y192.342 E14.8086
G1 X159.042 Y192.223 E14.8314
G1 X158.293 Y192.025 E14.85416
G1 X157.567 Y191.752 E14.87695
G1 X156.873 Y191.405 E14.89974
G1 X156.219 Y190.989 E14.92251
G1 X155.611 Y190.508 E14.94528
G1 X155.344 Y190.247 E14.95625
G1 X155.155 Y190.436 E14.9641
G1 X154.554 Y190.926 E14.98688
G1 X153.906 Y191.351 E15.00964
G1 X153.217 Y191.708 E15.03244
G1 X152.496 Y191.991 E15.05519
G1 X151.749 Y192.199 E15.07797
G1 X150.984 Y192.329 E15.10076
G1 X150.114 Y192.38 E15.12636
G1 X148.583 Y192.381 E15.17134
G1 X147.809 Y192.342 E15.1941
G1 X147.042 Y192.223 E15.2169
G1 X146.293 Y192.025 E15.23966
G1 X145.567 Y191.752 E15.26245
G1 X144.873 Y191.405 E15.28524
G1 X144.219 Y190.989 E15.30801
G1 X143.611 Y190.508 E15.33078
G1 X143.344 Y190.247 E15.34175
G1 X143.155 Y190.436 E15.3496
G1 X142.554 Y190.926 E15.37238
G1 X141.906 Y191.351 E15.39514
G1 X141.217 Y191.708 E15.41794
G1 X140.496 Y191.991 E15.44069
G1 X139.749 Y192.199 E15.46347
G1 X138.984 Y192.329 E15.48626
G1 X138.114 Y192.38 E15.51186
G1 X136.583 Y192.381 E15.55684
G1 X135.809 Y192.342 E15.5796
G1 X135.042 Y192.223 E15.6024
G1 X134.293 Y192.025 E15.62516
G1 X133.567 Y191.752 E15.64795
G1 X132.873 Y191.405 E15.67074
G1 X132.219 Y190.989 E15.69351
G1 X131.611 Y190.508 E15.71628
G1 X131.344 Y190.247 E15.72725
G1 X131.155 Y190.436 E15.7351
G1 X130.554 Y190.926 E15.75788
G1 X129.906 Y191.351 E15.78064
G1 X129.217 Y191.708 E15.80344
G1 X128.496 Y191.991 E15.82619
G1 X127.749 Y192.199 E15.84897
G1 X126.984 Y192.329 E15.87176
G1 X126.114 Y192.38 E15.89736
G1 X124.583 Y192.381 E15.94234
G1 X123.809 Y192.342 E15.9651
G1 X123.042 Y192.223 E15.9879
G1 X122.293 Y192.025 E16.01066
G1 X121.567 Y191.752 E16.03345
G1 X120.873 Y191.405 E16.05624
G1 X120.219 Y190.989 E16.07901
G1 X119.611 Y190.508 E16.10178
G1 X119.344 Y190.247 E16.11275
G1 X119.155 Y190.436 E16.1206
G1 X118.554 Y190.926 E16.14338
G1 X117.906 Y191.351 E16.16614
G1 X117.217 Y191.708 E16.18894
G1 X116.496 Y191.991 E16.21169
G1 X115.749 Y192.199 E16.23447
G1 X114.984 Y192.329 E16.25726
G1 X114.114 Y192.38 E16.28286
G1 X112.583 Y192.381 E16.32784
G1 X111.809 Y192.342 E16.3506
G1 X111.042 Y192.223 E16.3734
G1 X110.293 Y192.025 E16.39616
G1 X109.567 Y191.752 E16.41895
G1 X108.873 Y191.405 E16.44174
G1 X108.219 Y190.989 E16.46451
G1 X107.611 Y190.508 E16.48728
G1 X107.056 Y189.966 E16.51007
G1 X106.417 Y189.173 E16.53999
G1 X105.129 Y187.333 E16.60596
G1 X104.718 Y186.676 E16.62873
G1 X104.377 Y185.98 E16.65149
G1 X104.109 Y185.252 E16.67428
G1 X103.917 Y184.501 E16.69705
G1 X103.804 Y183.734 E16.71983
G1 X103.77 Y183.021 E16.7408
G1 X103.77 Y182.217 E16.76441
G1 X103.81 Y181.443 E16.78718
G1 X103.929 Y180.677 E16.80995
G1 X104.127 Y179.927 E16.83274
G1 X104.401 Y179.201 E16.85553
G1 X104.748 Y178.508 E16.8783
G1 X105.165 Y177.854 E16.90108
G1 X105.269 Y177.723 E16.906
G1 X105.27 Y122.28 E18.53466
G1 X105.198 Y122.191 E18.53802
G1 X104.776 Y121.541 E18.56078
G1 X104.424 Y120.85 E18.58356
G1 X104.144 Y120.126 E18.60637
G1 X103.941 Y119.378 E18.62913
G1 X103.816 Y118.613 E18.6519
G1 X103.77 Y117.786 E18.67624
G1 X103.769 Y115.142 E18.7539
G1 X103.809 Y114.367 E18.7767
G1 X103.928 Y113.601 E18.79947
G1 X104.125 Y112.852 E18.82222
G1 X104.399 Y112.126 E18.84502
G1 X104.746 Y111.433 E18.86778
G1 X105.162 Y110.779 E18.89055
G1 X105.644 Y110.171 E18.91334
G1 X106.185 Y109.616 E18.93611
G0 F6000 X106.499 Y109.763
G1 F600 X107.092 Y109.289 E18.95841
G1 X107.73 Y108.88 E18.98067
G1 X108.409 Y108.54 E19.00298
G1 X109.119 Y108.274 E19.02525
G1 X109.854 Y108.084 E19.04755
G1 X110.604 Y107.972 E19.06983
G1 X111.29 Y107.939 E19.09
G1 X116.711 Y107.94 E19.24925
G1 X117.469 Y107.98 E19.27154
G1 X118.218 Y108.1 E19.29383
G1 X118.951 Y108.298 E19.31613
G1 X119.658 Y108.571 E19.33839
G1 X119.998 Y108.746 E19.34963
G1 X120.409 Y108.54 E19.36313
G1 X121.119 Y108.274 E19.3854
G1 X121.854 Y108.084 E19.4077
G1 X122.604 Y107.972 E19.42998
G1 X123.29 Y107.939 E19.45016
G1 X128.711 Y107.94 E19.6094
G1 X129.469 Y107.98 E19.6317
G1 X130.218 Y108.1 E19.65398
G1 X130.951 Y108.298 E19.67628
G1 X131.658 Y108.571 E19.69855
G1 X131.998 Y108.746 E19.70978
G1 X132.409 Y108.54 E19.72328
G1 X133.119 Y108.274 E19.74556
