;FLAVOR:Marlin
;TIME:521
;Filament used: 0.280541m
;Layer height: 0.2
;MINX:136.562
;MINY:104.32
;MINZ:0.16
;MAXX:163.438
;MAXY:195.678
;MAXZ:2.76
;Generated with Cura_SteamEngine 4.6.1
M140 S60
M105
M190 S60
M104 S220
M105
M109 S220
M82 ;absolute extrusion mode
M201 X500.00 Y500.00 Z100.00 E5000.00 ;Setup machine max acceleration
M203 X500.00 Y500.00 Z10.00 E50.00 ;Setup machine max feedrate
M204 P500.00 R1000.00 T500.00 ;Setup Print/Retract/Travel acceleration
M205 X8.00 Y8.00 Z0.40 E5.00 ;Setup Jerk
M220 S100 ;Reset Feedrate
M221 S100 ;Reset Flowrate

G28 ;Home

G92 E0 ;Reset Extruder
G1 Z2.0 F3000 ;Move Z Axis up
G1 X10.1 Y20 Z0.28 F5000.0 ;Move to start position
G1 X10.1 Y200.0 Z0.28 F1500.0 E15 ;Draw the first line
G1 X10.4 Y200.0 Z0.28 F5000.0 ;Move to side a little
G1 X10.4 Y20 Z0.28 F1500.0 E30 ;Draw the second line
G92 E0 ;Reset Extruder
G1 Z2.0 F3000 ;Move Z Axis up

G92 E0
G92 E0
G1 F2700 E-5
;LAYER_COUNT:14
;LAYER:0
M107
G0 F6000 X152.659 Y105.05 Z0.16
;TYPE:SKIRT
G1 F2700 E0
G1 F1200 X153.56 Y105.102 E0.02161
G1 X154.452 Y105.234 E0.04321
G1 X155.33 Y105.444 E0.06482
G1 X156.185 Y105.731 E0.08642
G1 X157.011 Y106.093 E0.10802
G1 X157.803 Y106.526 E0.12963
G1 X158.553 Y107.028 E0.15125
G1 X159.255 Y107.594 E0.17284
G1 X159.904 Y108.221 E0.19445
G1 X160.496 Y108.902 E0.21606
G1 X161.025 Y109.633 E0.23767
G1 X161.487 Y110.408 E0.25928
G1 X161.879 Y111.221 E0.28089
G1 X162.197 Y112.065 E0.30249
G1 X162.439 Y112.934 E0.32409
G1 X162.603 Y113.821 E0.34569
G1 X162.686 Y114.682 E0.36641
G1 X162.703 Y114.998 E0.37398
G1 X162.718 Y115.545 E0.38709
G1 X162.718 Y162.113 E1.50227
G1 X162.708 Y162.809 E1.51894
G1 X162.655 Y163.71 E1.54055
G1 X162.506 Y164.684 E1.56414
G1 X162.349 Y165.459 E1.58308
G1 X161.973 Y167.246 E1.62681
G1 X161.501 Y169.795 E1.68889
G1 X161.124 Y172.201 E1.74721
G1 X160.799 Y174.729 E1.80825
G1 X160.747 Y175.228 E1.82026
G1 X160.705 Y175.581 E1.82878
G1 X160.601 Y176.73 E1.8564
G1 X160.52 Y177.55 E1.87614
G1 X160.478 Y178.079 E1.88884
G1 X160.338 Y180.239 E1.94068
G1 X160.31 Y180.936 E1.95738
G1 X160.28 Y181.516 E1.97129
G1 X160.268 Y182.072 E1.98461
G1 X160.24 Y182.811 E2.00232
G1 X160.229 Y183.647 E2.02234
G1 X160.197 Y185.001 E2.05477
G1 X160.136 Y185.901 E2.07638
G1 X159.995 Y186.792 E2.09798
G1 X159.776 Y187.667 E2.11958
G1 X159.48 Y188.519 E2.14118
G1 X159.11 Y189.342 E2.16279
G1 X158.669 Y190.129 E2.18439
G1 X158.16 Y190.874 E2.206
G1 X157.586 Y191.571 E2.22762
G1 X156.954 Y192.214 E2.24921
G1 X156.266 Y192.798 E2.27082
G1 X155.53 Y193.32 E2.29243
G1 X154.751 Y193.774 E2.31402
G1 X153.934 Y194.158 E2.33564
G1 X153.087 Y194.467 E2.35723
G1 X152.215 Y194.701 E2.37885
G1 X151.326 Y194.856 E2.40046
G1 X150.287 Y194.936 E2.42542
G1 X149.563 Y194.955 E2.44276
G1 X149.165 Y194.958 E2.45229
G1 X148.542 Y194.95 E2.46721
G1 X147.642 Y194.899 E2.4888
G1 X146.749 Y194.768 E2.51041
G1 X145.871 Y194.558 E2.53203
G1 X145.016 Y194.271 E2.55363
G1 X144.189 Y193.91 E2.57524
G1 X143.397 Y193.477 E2.59686
G1 X142.647 Y192.976 E2.61845
G1 X141.945 Y192.41 E2.64005
G1 X141.295 Y191.785 E2.66164
G1 X140.703 Y191.104 E2.68325
G1 X140.417 Y190.727 E2.69458
G1 X140.078 Y190.249 E2.70862
G1 X139.322 Y189.128 E2.741
G1 X138.958 Y188.573 E2.75689
G1 X138.498 Y187.797 E2.77849
G1 X138.107 Y186.984 E2.8001
G1 X137.79 Y186.139 E2.82171
G1 X137.55 Y185.27 E2.8433
G1 X137.387 Y184.382 E2.86492
G1 X137.292 Y183.116 E2.89532
G1 X137.288 Y182.523 E2.90952
G1 X137.293 Y182.169 E2.918
G1 X137.346 Y181.269 E2.93959
G1 X137.415 Y180.734 E2.95251
G1 X137.695 Y178.95 E2.99575
G1 X138.047 Y176.4 E3.0574
G1 X138.32 Y173.908 E3.11743
G1 X138.529 Y171.333 E3.1793
G1 X138.66 Y168.835 E3.2392
G1 X138.729 Y165.271 E3.32457
G1 X138.73 Y134.68 E4.05714
G1 X138.693 Y132.072 E4.1196
G1 X138.584 Y129.504 E4.18115
G1 X138.406 Y126.999 E4.24129
G1 X138.158 Y124.489 E4.30169
G1 X137.832 Y121.943 E4.36316
G1 X137.545 Y120.153 E4.40657
G1 X137.406 Y119.215 E4.42928
G1 X137.307 Y118.196 E4.4538
G1 X137.297 Y117.981 E4.45895
G1 X137.287 Y117.622 E4.46755
G1 X137.282 Y117.158 E4.47866
G1 X137.282 Y115.754 E4.51229
G1 X137.291 Y115.097 E4.52802
G1 X137.343 Y114.196 E4.54963
G1 X137.475 Y113.303 E4.57125
G1 X137.686 Y112.426 E4.59285
G1 X137.973 Y111.571 E4.61445
G1 X138.335 Y110.744 E4.63607
G1 X138.768 Y109.953 E4.65766
G1 X139.27 Y109.203 E4.67927
G1 X139.836 Y108.501 E4.70087
G1 X140.463 Y107.852 E4.72248
G1 X141.144 Y107.26 E4.74409
G1 X141.875 Y106.731 E4.7657
G1 X142.65 Y106.269 E4.7873
G1 X143.463 Y105.878 E4.80891
G1 X144.307 Y105.56 E4.83051
G1 X145.176 Y105.318 E4.85211
G1 X146.063 Y105.154 E4.87371
G1 X146.949 Y105.069 E4.89502
G1 X147.261 Y105.053 E4.9025
G1 X147.782 Y105.04 E4.91498
G1 X151.995 Y105.041 E5.01587
G1 X152.659 Y105.05 E5.03178
G0 F6000 X152.664 Y104.69
G1 F1200 X153.58 Y104.742 E5.05375
G1 X154.489 Y104.874 E5.07574
G1 X155.382 Y105.085 E5.09772
G1 X156.254 Y105.372 E5.1197
G1 X157.098 Y105.735 E5.1417
G1 X157.907 Y106.169 E5.16369
G1 X158.675 Y106.672 E5.18567
G1 X159.396 Y107.24 E5.20765
G1 X160.065 Y107.868 E5.22963
G1 X160.677 Y108.553 E5.25163
G1 X161.227 Y109.288 E5.27361
G1 X161.711 Y110.068 E5.29559
G1 X162.125 Y110.887 E5.31757
G1 X162.467 Y111.739 E5.33955
G1 X162.733 Y112.618 E5.36155
G1 X162.921 Y113.517 E5.38354
G1 X163.046 Y114.663 E5.41115
G1 X163.063 Y114.979 E5.41872
G1 X163.078 Y115.545 E5.43228
G1 X163.078 Y162.118 E6.54758
G1 X163.068 Y162.814 E6.56425
G1 X163.015 Y163.731 E6.58625
G1 X162.859 Y164.756 E6.61108
G1 X162.701 Y165.533 E6.63006
G1 X162.328 Y167.307 E6.67347
G1 X161.859 Y169.839 E6.73514
G1 X161.477 Y172.271 E6.79409
G1 X161.156 Y174.774 E6.85453
G1 X161.105 Y175.271 E6.86649
G1 X161.059 Y175.659 E6.87585
G1 X160.959 Y176.765 E6.90244
G1 X160.881 Y177.557 E6.9215
G1 X160.835 Y178.134 E6.93536
G1 X160.699 Y180.237 E6.98583
G1 X160.67 Y180.955 E7.00303
G1 X160.64 Y181.542 E7.01711
G1 X160.628 Y182.086 E7.03014
G1 X160.6 Y182.829 E7.04795
G1 X160.589 Y183.655 E7.06773
G1 X160.557 Y185.009 E7.10016
G1 X160.495 Y185.925 E7.12215
G1 X160.354 Y186.832 E7.14413
G1 X160.135 Y187.724 E7.16612
G1 X159.839 Y188.592 E7.18809
G1 X159.468 Y189.432 E7.21008
G1 X159.025 Y190.237 E7.23208
G1 X158.515 Y191 E7.25406
G1 X157.939 Y191.715 E7.27604
G1 X157.304 Y192.378 E7.29803
G1 X156.614 Y192.983 E7.32
G1 X155.873 Y193.525 E7.34199
G1 X155.088 Y194.001 E7.36397
G1 X154.265 Y194.407 E7.38595
G1 X153.409 Y194.74 E7.40795
G1 X152.528 Y194.997 E7.42992
G1 X151.628 Y195.177 E7.4519
G1 X150.297 Y195.296 E7.4839
G1 X149.573 Y195.315 E7.50125
G1 X149.161 Y195.318 E7.51111
G1 X148.538 Y195.31 E7.52603
G1 X147.621 Y195.258 E7.54803
G1 X146.712 Y195.127 E7.57002
G1 X145.819 Y194.917 E7.59199
G1 X144.947 Y194.63 E7.61397
G1 X144.103 Y194.269 E7.63596
G1 X143.294 Y193.835 E7.65794
G1 X142.525 Y193.332 E7.67995
G1 X141.804 Y192.765 E7.70191
G1 X141.134 Y192.137 E7.7239
G1 X140.522 Y191.453 E7.74588
G1 X140.125 Y190.938 E7.76145
G1 X139.967 Y190.719 E7.76792
G1 X139.78 Y190.45 E7.77577
G1 X139.021 Y189.325 E7.80827
G1 X138.657 Y188.77 E7.82416
G1 X138.188 Y187.982 E7.84612
G1 X137.789 Y187.155 E7.86811
G1 X137.463 Y186.296 E7.89011
G1 X137.213 Y185.413 E7.91209
G1 X137.041 Y184.511 E7.93408
G1 X136.949 Y183.598 E7.95605
G1 X136.932 Y183.121 E7.96748
G1 X136.928 Y182.518 E7.98192
G1 X136.933 Y182.164 E7.9904
G1 X136.986 Y181.248 E8.01237
G1 X137.059 Y180.679 E8.02611
G1 X137.338 Y178.904 E8.06914
G1 X137.691 Y176.348 E8.13093
G1 X137.965 Y173.84 E8.19135
G1 X138.167 Y171.354 E8.25108
G1 X138.301 Y168.811 E8.31206
G1 X138.369 Y165.264 E8.39702
G1 X138.37 Y134.685 E9.1293
G1 X138.333 Y132.092 E9.1914
G1 X138.225 Y129.547 E9.2524
G1 X138.046 Y127.025 E9.31295
G1 X137.796 Y124.5 E9.37371
G1 X137.478 Y122.012 E9.43378
G1 X137.189 Y120.206 E9.47758
G1 X137.05 Y119.268 E9.50028
G1 X136.947 Y118.213 E9.52567
G1 X136.937 Y117.998 E9.53082
G1 X136.927 Y117.626 E9.53973
G1 X136.922 Y117.158 E9.55094
G1 X136.922 Y115.749 E9.58468
G1 X136.931 Y115.092 E9.60042
G1 X136.984 Y114.175 E9.62242
G1 X137.116 Y113.267 E9.64439
G1 X137.326 Y112.373 E9.66638
G1 X137.614 Y111.501 E9.68837
G1 X137.976 Y110.658 E9.71034
G1 X138.411 Y109.849 E9.73234
G1 X138.914 Y109.081 E9.75432
G1 X139.482 Y108.36 E9.7763
G1 X140.11 Y107.691 E9.79828
G1 X140.795 Y107.079 E9.82027
G1 X141.53 Y106.529 E9.84226
G1 X142.31 Y106.045 E9.86424
G1 X143.13 Y105.631 E9.88624
G1 X143.982 Y105.29 E9.90821
G1 X144.861 Y105.024 E9.93021
G1 X145.759 Y104.836 E9.95218
G1 X146.93 Y104.71 E9.98038
G1 X147.242 Y104.694 E9.98786
G1 X147.782 Y104.68 E10.0008
G1 X152 Y104.681 E10.10181
G1 X152.664 Y104.69 E10.11771
G0 F6000 X152.669 Y104.33
G1 F1200 X153.601 Y104.383 E10.14007
G1 X154.525 Y104.515 E10.16242
G1 X155.435 Y104.726 E10.18479
G1 X156.323 Y105.013 E10.20714
G1 X157.183 Y105.376 E10.22949
G1 X158.009 Y105.811 E10.25185
G1 X158.795 Y106.315 E10.27421
G1 X159.534 Y106.885 E10.29656
G1 X160.223 Y107.516 E10.31893
G1 X160.854 Y108.203 E10.34127
G1 X161.425 Y108.942 E10.36363
G1 X161.93 Y109.727 E10.38598
G1 X162.367 Y110.552 E10.40834
G1 X162.731 Y111.412 E10.43071
G1 X163.02 Y112.3 E10.45307
G1 X163.232 Y113.209 E10.47542
G1 X163.366 Y114.133 E10.49778
G1 X163.405 Y114.643 E10.51003
G1 X163.422 Y114.959 E10.51761
G1 X163.438 Y115.545 E10.53164
G1 X163.438 Y162.124 E11.64709
G1 X163.428 Y162.82 E11.66375
G1 X163.374 Y163.752 E11.68611
G1 X163.212 Y164.827 E11.71215
G1 X163.054 Y165.607 E11.7312
G1 X162.677 Y167.4 E11.77508
G1 X162.209 Y169.925 E11.83658
G1 X161.836 Y172.302 E11.8942
G1 X161.513 Y174.819 E11.95497
G1 X161.462 Y175.313 E11.96686
G1 X161.42 Y175.663 E11.9753
G1 X161.317 Y176.8 E12.00264
G1 X161.241 Y177.569 E12.02114
G1 X161.192 Y178.183 E12.0359
G1 X161.06 Y180.233 E12.08509
G1 X161.029 Y180.974 E12.10285
G1 X161 Y181.538 E12.11637
G1 X160.987 Y182.099 E12.12981
G1 X160.96 Y182.807 E12.14678
G1 X160.949 Y183.664 E12.1673
G1 X160.917 Y185.018 E12.19974
G1 X160.855 Y185.949 E12.22208
G1 X160.713 Y186.872 E12.24444
G1 X160.494 Y187.779 E12.26679
G1 X160.197 Y188.664 E12.28914
G1 X159.825 Y189.521 E12.31152
G1 X159.382 Y190.342 E12.33386
G1 X158.87 Y191.123 E12.35622
G1 X158.293 Y191.857 E12.37858
G1 X157.655 Y192.539 E12.40094
G1 X156.962 Y193.164 E12.42329
G1 X156.217 Y193.727 E12.44565
G1 X155.427 Y194.224 E12.468
G1 X154.597 Y194.652 E12.49037
G1 X153.734 Y195.008 E12.51272
G1 X152.843 Y195.288 E12.53509
G1 X151.932 Y195.491 E12.55744
G1 X151.007 Y195.615 E12.57979
G1 X150.306 Y195.656 E12.5966
G1 X149.582 Y195.675 E12.61395
G1 X149.156 Y195.678 E12.62415
G1 X148.533 Y195.67 E12.63907
G1 X147.601 Y195.618 E12.66142
G1 X146.677 Y195.487 E12.68377
G1 X145.767 Y195.276 E12.70614
G1 X144.879 Y194.989 E12.72849
G1 X144.018 Y194.627 E12.75086
G1 X143.192 Y194.193 E12.7732
G1 X142.406 Y193.689 E12.79556
G1 X141.666 Y193.12 E12.81792
G1 X140.977 Y192.49 E12.84027
G1 X140.345 Y191.803 E12.86263
G1 X139.833 Y191.148 E12.88254
G1 X139.675 Y190.929 E12.889
G1 X139.482 Y190.652 E12.89709
G1 X138.72 Y189.523 E12.92971
G1 X138.356 Y188.968 E12.9456
G1 X137.878 Y188.166 E12.96796
G1 X137.471 Y187.326 E12.99031
G1 X137.136 Y186.454 E13.01268
G1 X136.878 Y185.557 E13.03503
G1 X136.697 Y184.641 E13.05739
G1 X136.595 Y183.713 E13.07975
G1 X136.572 Y183.125 E13.09384
G1 X136.568 Y182.513 E13.1085
G1 X136.573 Y182.159 E13.11698
G1 X136.626 Y181.227 E13.13933
G1 X136.704 Y180.623 E13.15392
G1 X136.974 Y178.902 E13.19563
G1 X137.334 Y176.295 E13.25866
G1 X137.606 Y173.811 E13.3185
G1 X137.81 Y171.304 E13.37873
G1 X137.94 Y168.815 E13.43842
G1 X138.009 Y165.257 E13.52364
G1 X138.01 Y134.69 E14.25564
G1 X137.973 Y132.077 E14.31822
G1 X137.867 Y129.587 E14.3779
G1 X137.687 Y127.05 E14.43881
G1 X137.44 Y124.549 E14.49899
G1 X137.12 Y122.051 E14.5593
G1 X136.833 Y120.259 E14.60276
G1 X136.694 Y119.321 E14.62547
G1 X136.588 Y118.229 E14.65174
G1 X136.578 Y118.014 E14.65689
G1 X136.567 Y117.63 E14.66609
G1 X136.562 Y117.159 E14.67737
G1 X136.562 Y115.744 E14.71126
G1 X136.571 Y115.087 E14.72699
G1 X136.624 Y114.155 E14.74935
G1 X136.756 Y113.23 E14.77172
G1 X136.967 Y112.321 E14.79407
G1 X137.255 Y111.433 E14.81643
G1 X137.618 Y110.573 E14.83878
G1 X138.053 Y109.747 E14.86114
G1 X138.557 Y108.961 E14.8835
G1 X139.127 Y108.221 E14.90587
G1 X139.758 Y107.533 E14.92822
G1 X140.445 Y106.902 E14.95056
G1 X141.184 Y106.331 E14.97292
G1 X141.969 Y105.826 E14.99528
G1 X142.795 Y105.39 E15.01764
G1 X143.655 Y105.026 E15.04001
G1 X144.542 Y104.737 E15.06235
G1 X145.451 Y104.525 E15.0847
G1 X146.375 Y104.391 E15.10706
G1 X146.912 Y104.35 E15.11996
G1 X147.224 Y104.334 E15.12744
G1 X147.782 Y104.32 E15.1408
G1 X152.005 Y104.321 E15.24193
G1 X152.669 Y104.33 E15.25784
G1 F2700 E10.25784
;MESH:Vise_Base_Clip.stl
G0 F6000 X152.184 Y114.554
G0 X152.184 Y115.574
G0 X149.809 Y173.279
;TYPE:WALL-INNER
G1 F2700 E15.25784
G1 F1200 X149.809 Y171.956 E15.28952
G1 X149.809 Y170.517 E15.32398
G1 X149.81 Y116.776 E16.61093
G1 X149.81 Y116.775 E16.61095
G1 X149.81 Y116.58 E16.61562
G1 X149.615 Y116.597 E16.61858
G1 X148.557 Y116.694 E16.64402
G1 X148.362 Y116.711 E16.64871
G1 X148.362 Y116.516 E16.65166
G1 X148.362 Y116.515 E16.65168
G1 X148.361 Y116.298 E16.65688
G1 X148.361 Y116.119 E16.66116
G1 X148.54 Y116.119 E16.66393
G1 X151.638 Y116.12 E16.73812
G1 X151.639 Y162.577 E17.85064
G1 X151.567 Y162.897 E17.8585
G1 X151.318 Y164.043 E17.88658
G1 X150.997 Y165.614 E17.92498
G1 X150.703 Y167.193 E17.96344
G1 X150.434 Y168.778 E18.00194
G1 X150.19 Y170.364 E18.04037
G1 X150.167 Y170.531 E18.04441
G1 X149.97 Y171.956 E18.06937
G1 X149.809 Y173.279 E18.07666
G0 F6000 X150.134 Y173.592
G1 F1200 X149.967 Y175.184 E18.115
G1 X149.824 Y176.779 E18.15334
G1 X149.807 Y176.998 E18.1586
G1 X149.706 Y178.376 E18.19169
G1 X149.613 Y179.975 E18.23005
G1 X149.547 Y181.576 E18.26842
G1 X149.509 Y183.026 E18.30316
G1 X149.505 Y183.177 E18.30677
G1 X149.495 Y184.24 E18.33223
G1 X148.955 Y184.241 E18.34516
G1 X148.259 Y183.211 E18.37493
G1 X148.049 Y182.899 E18.38394
G1 X148.424 Y182.932 E18.38888
G1 X149.449 Y183.025 E18.41353
G1 X149.449 Y181.576 E18.42116
G1 X149.449 Y179.975 E18.43515
G1 X149.449 Y178.376 E18.45759
G1 X149.449 Y176.994 E18.48599
G1 X149.45 Y117.17 E19.91862
G1 X149.45 Y117.169 E19.91864
G1 X149.45 Y116.974 E19.92331
G1 X149.255 Y116.991 E19.92627
G1 X148.197 Y117.088 E19.95171
G1 X148.002 Y117.105 E19.9564
G1 X148.002 Y116.91 E19.95934
G1 X148.002 Y116.909 E19.95937
G1 X148.001 Y115.938 E19.98262
G1 X148.001 Y115.759 E19.9869
G1 X148.18 Y115.759 E19.98968
G1 X151.998 Y115.76 E20.08111
G1 X151.999 Y162.616 E21.20318
G1 X151.918 Y162.975 E21.212
G1 X151.67 Y164.117 E21.23998
G1 X151.35 Y165.683 E21.27826
G1 X151.057 Y167.256 E21.31657
G1 X150.789 Y168.835 E21.35493
G1 X150.546 Y170.416 E21.39323
G1 X150.327 Y172.002 E21.43157
G1 X150.134 Y173.592 E21.46993
G0 F6000 X149.277 Y182.314
G0 X149.147 Y182.725
G0 X148.771 Y183.326
G1 F1200 X149.143 Y183.359 E21.47887
G1 X149.138 Y183.87 E21.49111
G1 X148.903 Y183.522 E21.49481
G1 X148.771 Y183.326 E21.49651
G1 F2700 E16.49651
G0 F6000 X149.623 Y184.369
G0 X149.851 Y184.6
;TYPE:WALL-OUTER
G1 F2700 E21.49651
G1 F1200 X148.764 Y184.601 E21.52254
G1 X147.642 Y182.939 E21.57057
G1 X147.642 Y182.501 E21.58105
G1 X149.089 Y182.631 E21.61585
G1 X149.09 Y117.368 E23.17872
G1 X147.642 Y117.499 E23.21354
G1 X147.641 Y115.399 E23.26382
G1 X152.358 Y115.4 E23.37678
G1 X152.359 Y162.654 E24.50839
G1 X152.27 Y163.053 E24.51818
G1 X152.022 Y164.191 E24.54607
G1 X151.703 Y165.752 E24.58423
G1 X151.411 Y167.319 E24.6224
G1 X151.144 Y168.892 E24.6606
G1 X150.902 Y170.468 E24.69879
G1 X150.684 Y172.048 E24.73698
G1 X150.492 Y173.632 E24.77519
G1 X150.325 Y175.219 E24.81341
G1 X150.183 Y176.808 E24.85161
G1 X150.065 Y178.4 E24.88984
G1 X149.973 Y179.993 E24.92805
G1 X149.907 Y181.588 E24.96628
G1 X149.865 Y183.184 E25.00451
G1 X149.851 Y184.6 E25.03842
G0 F6000 X149.623 Y184.369
G0 X150.159 Y168.305
;TYPE:SKIN
G1 F1200 X150.16 Y116.47 E26.27973
G1 X151.288 Y116.47 E26.30675
G1 X151.289 Y162.536 E27.4099
G1 X151.225 Y162.821 E27.4169
G1 X150.976 Y163.971 E27.44507
G1 X150.653 Y165.547 E27.4836
G1 X150.359 Y167.131 E27.52218
G1 X150.159 Y168.305 E27.5507
G0 F6000 X150.393 Y166.176
