;FLAVOR:Marlin
;TIME:3323
;Filament used: 1.61676m
;Layer height: 0.2
;MINX:94.562
;MINY:104.32
;MINZ:0.16
;MAXX:191.438
;MAXY:195.678
;MAXZ:2.76
;Generated with Cura_SteamEngine 4.6.1
M140 S60
M105
M190 S60
M104 S220
M105
M109 S220
M82 ;absolute extrusion mode
M201 X500.00 Y500.00 Z100.00 E5000.00 ;Setup machine max acceleration
M203 X500.00 Y500.00 Z10.00 E50.00 ;Setup machine max feedrate
M204 P500.00 R1000.00 T500.00 ;Setup Print/Retract/Travel acceleration
M205 X8.00 Y8.00 Z0.40 E5.00 ;Setup Jerk
M220 S100 ;Reset Feedrate
M221 S100 ;Reset Flowrate

G28 ;Home

G92 E0 ;Reset Extruder
G1 Z2.0 F3000 ;Move Z Axis up
G1 X10.1 Y20 Z0.28 F5000.0 ;Move to start position
G1 X10.1 Y200.0 Z0.28 F1500.0 E15 ;Draw the first line
G1 X10.4 Y200.0 Z0.28 F5000.0 ;Move to side a little
G1 X10.4 Y20 Z0.28 F1500.0 E30 ;Draw the second line
G92 E0 ;Reset Extruder
G1 Z2.0 F3000 ;Move Z Axis up

G92 E0
G92 E0
G1 F2700 E-5
;LAYER_COUNT:14
;LAYER:0
M107
G0 F6000 X110.817 Y105.054 Z0.16
;TYPE:SKIRT
G1 F2700 E0
G1 F600 X113.658 Y105.135 E0.06806
G1 X116.15 Y105.135 E0.12774
G1 X117.843 Y105.077 E0.16831
G1 X119.782 Y105.04 E0.21475
G1 X124.009 Y105.041 E0.31597
G1 X124.817 Y105.054 E0.33532
G1 X127.658 Y105.135 E0.40339
G1 X130.15 Y105.135 E0.46306
G1 X131.843 Y105.077 E0.50363
G1 X133.782 Y105.04 E0.55007
G1 X138.009 Y105.041 E0.6513
G1 X138.817 Y105.054 E0.67065
G1 X141.658 Y105.135 E0.73871
G1 X144.15 Y105.135 E0.79839
G1 X145.843 Y105.077 E0.83895
G1 X147.782 Y105.04 E0.8854
G1 X152.009 Y105.041 E0.98662
G1 X152.817 Y105.054 E1.00597
G1 X155.658 Y105.135 E1.07404
G1 X158.15 Y105.135 E1.13371
G1 X159.843 Y105.077 E1.17428
G1 X161.782 Y105.04 E1.22072
G1 X166.009 Y105.041 E1.32195
G1 X166.817 Y105.054 E1.3413
G1 X169.658 Y105.135 E1.40936
G1 X172.15 Y105.135 E1.46904
G1 X173.843 Y105.077 E1.5096
G1 X175.782 Y105.04 E1.55605
G1 X179.995 Y105.041 E1.65694
G1 X180.659 Y105.05 E1.67284
G1 X181.56 Y105.102 E1.69445
G1 X182.452 Y105.234 E1.71604
G1 X183.33 Y105.444 E1.73766
G1 X184.185 Y105.731 E1.75926
G1 X185.011 Y106.093 E1.78086
G1 X185.803 Y106.526 E1.80247
G1 X186.553 Y107.028 E1.82409
G1 X187.255 Y107.594 E1.84568
G1 X187.904 Y108.221 E1.86729
G1 X188.496 Y108.902 E1.8889
G1 X189.025 Y109.633 E1.91051
G1 X189.487 Y110.408 E1.93211
G1 X189.879 Y111.221 E1.95373
G1 X190.197 Y112.065 E1.97533
G1 X190.439 Y112.934 E1.99693
G1 X190.603 Y113.821 E2.01853
G1 X190.686 Y114.682 E2.03924
G1 X190.703 Y114.998 E2.04682
G1 X190.718 Y115.545 E2.05993
G1 X190.718 Y162.113 E3.1751
G1 X190.708 Y162.809 E3.19177
G1 X190.655 Y163.71 E3.21339
G1 X190.506 Y164.684 E3.23698
G1 X190.349 Y165.459 E3.25592
G1 X189.973 Y167.246 E3.29965
G1 X189.501 Y169.795 E3.36173
G1 X189.124 Y172.201 E3.42005
G1 X188.799 Y174.729 E3.48109
G1 X188.747 Y175.228 E3.4931
G1 X188.705 Y175.581 E3.50161
G1 X188.601 Y176.73 E3.52924
G1 X188.52 Y177.55 E3.54897
G1 X188.478 Y178.079 E3.56168
G1 X188.338 Y180.239 E3.61352
G1 X188.31 Y180.936 E3.63022
G1 X188.28 Y181.516 E3.64413
G1 X188.268 Y182.072 E3.65745
G1 X188.24 Y182.811 E3.67516
G1 X188.229 Y183.647 E3.69518
G1 X188.197 Y185.001 E3.72761
G1 X188.136 Y185.901 E3.74921
G1 X187.995 Y186.792 E3.77082
G1 X187.776 Y187.667 E3.79242
G1 X187.48 Y188.519 E3.81402
G1 X187.11 Y189.342 E3.83563
G1 X186.669 Y190.129 E3.85723
G1 X186.16 Y190.874 E3.87884
G1 X185.586 Y191.571 E3.90046
G1 X184.954 Y192.214 E3.92205
G1 X184.266 Y192.798 E3.94366
G1 X183.53 Y193.32 E3.96527
G1 X182.751 Y193.774 E3.98686
G1 X181.934 Y194.158 E4.00848
G1 X181.087 Y194.467 E4.03007
G1 X180.215 Y194.701 E4.05169
G1 X179.326 Y194.856 E4.0733
G1 X178.287 Y194.936 E4.09826
G1 X177.563 Y194.955 E4.1156
G1 X177.165 Y194.958 E4.12513
G1 X176.246 Y194.942 E4.14714
G1 X175.371 Y194.904 E4.16812
G1 X174.074 Y194.832 E4.19922
G1 X171.547 Y194.764 E4.25976
G1 X169.012 Y194.768 E4.32047
G1 X166.432 Y194.844 E4.38228
G1 X165.919 Y194.873 E4.39458
G1 X164.293 Y194.944 E4.43356
G1 X163.468 Y194.958 E4.45332
G1 X163.164 Y194.958 E4.4606
G1 X162.244 Y194.942 E4.48263
G1 X161.371 Y194.904 E4.50356
G1 X160.074 Y194.832 E4.53466
G1 X157.547 Y194.764 E4.5952
G1 X155.011 Y194.768 E4.65593
G1 X152.43 Y194.844 E4.71777
G1 X151.919 Y194.873 E4.73002
G1 X150.293 Y194.944 E4.769
G1 X149.468 Y194.958 E4.78876
G1 X149.164 Y194.958 E4.79604
G1 X148.244 Y194.942 E4.81807
G1 X147.371 Y194.904 E4.839
G1 X146.074 Y194.832 E4.87011
G1 X143.547 Y194.764 E4.93064
G1 X141.011 Y194.768 E4.99137
G1 X138.43 Y194.844 E5.05321
G1 X137.919 Y194.873 E5.06546
G1 X136.293 Y194.944 E5.10444
G1 X135.468 Y194.958 E5.1242
G1 X135.164 Y194.958 E5.13148
G1 X134.244 Y194.942 E5.15351
G1 X133.371 Y194.904 E5.17444
G1 X132.074 Y194.832 E5.20555
G1 X129.547 Y194.764 E5.26608
G1 X127.011 Y194.768 E5.32681
G1 X124.43 Y194.844 E5.38865
G1 X123.919 Y194.873 E5.40091
G1 X122.293 Y194.944 E5.43988
G1 X121.468 Y194.958 E5.45964
G1 X121.164 Y194.958 E5.46692
G1 X120.244 Y194.942 E5.48896
G1 X119.371 Y194.904 E5.50988
G1 X118.074 Y194.832 E5.54099
G1 X115.547 Y194.764 E5.60153
G1 X113.011 Y194.768 E5.66226
G1 X110.43 Y194.844 E5.72409
G1 X109.919 Y194.873 E5.73635
G1 X108.293 Y194.944 E5.77532
G1 X107.468 Y194.958 E5.79508
G1 X107.164 Y194.958 E5.80236
G1 X106.542 Y194.95 E5.81726
G1 X105.641 Y194.899 E5.83887
G1 X104.749 Y194.767 E5.86046
G1 X103.871 Y194.558 E5.88208
G1 X103.016 Y194.271 E5.90367
G1 X102.189 Y193.91 E5.92528
G1 X101.397 Y193.477 E5.9469
G1 X100.647 Y192.976 E5.9685
G1 X99.944 Y192.41 E5.99011
G1 X99.294 Y191.784 E6.01172
G1 X98.702 Y191.104 E6.03331
G1 X98.417 Y190.727 E6.04463
G1 X98.078 Y190.249 E6.05866
G1 X97.322 Y189.128 E6.09104
G1 X96.958 Y188.573 E6.10694
G1 X96.498 Y187.797 E6.12854
G1 X96.107 Y186.984 E6.15014
G1 X95.79 Y186.139 E6.17176
G1 X95.55 Y185.27 E6.19335
G1 X95.387 Y184.382 E6.21497
G1 X95.292 Y183.116 E6.24537
G1 X95.288 Y182.523 E6.25957
G1 X95.293 Y182.169 E6.26805
G1 X95.346 Y181.269 E6.28964
G1 X95.415 Y180.734 E6.30256
G1 X95.695 Y178.95 E6.3458
G1 X96.047 Y176.4 E6.40745
G1 X96.32 Y173.908 E6.46748
G1 X96.529 Y171.333 E6.52935
G1 X96.66 Y168.835 E6.58925
G1 X96.729 Y165.271 E6.67461
G1 X96.73 Y134.68 E7.40718
G1 X96.693 Y132.072 E7.46965
G1 X96.584 Y129.504 E7.5312
G1 X96.406 Y126.999 E7.59134
G1 X96.158 Y124.489 E7.65174
G1 X95.832 Y121.943 E7.7132
G1 X95.545 Y120.153 E7.75662
G1 X95.406 Y119.215 E7.77933
G1 X95.307 Y118.196 E7.80384
G1 X95.297 Y117.981 E7.809
G1 X95.287 Y117.622 E7.8176
G1 X95.282 Y117.158 E7.82871
G1 X95.282 Y115.754 E7.86233
G1 X95.291 Y115.097 E7.87807
G1 X95.343 Y114.196 E7.89968
G1 X95.475 Y113.303 E7.9213
G1 X95.686 Y112.426 E7.9429
G1 X95.973 Y111.571 E7.9645
G1 X96.335 Y110.744 E7.98611
G1 X96.768 Y109.953 E8.00771
G1 X97.27 Y109.203 E8.02932
G1 X97.836 Y108.501 E8.05092
G1 X98.463 Y107.852 E8.07253
G1 X99.144 Y107.26 E8.09413
G1 X99.875 Y106.731 E8.11574
G1 X100.65 Y106.269 E8.13735
G1 X101.463 Y105.878 E8.15895
G1 X102.307 Y105.56 E8.18055
G1 X103.176 Y105.318 E8.20215
G1 X104.063 Y105.154 E8.22375
G1 X104.949 Y105.069 E8.24507
G1 X105.261 Y105.053 E8.25255
G1 X105.782 Y105.04 E8.26503
G1 X110.009 Y105.041 E8.36626
G1 X110.817 Y105.054 E8.38561
G0 F6000 X110.827 Y104.694
G1 F600 X113.668 Y104.775 E8.45367
G1 X116.137 Y104.775 E8.5128
G1 X117.836 Y104.717 E8.55351
G1 X119.782 Y104.68 E8.60012
G1 X124.014 Y104.681 E8.70146
G1 X124.827 Y104.694 E8.72093
G1 X127.668 Y104.775 E8.78899
G1 X130.137 Y104.775 E8.84812
G1 X131.836 Y104.717 E8.88883
G1 X133.782 Y104.68 E8.93544
G1 X138.014 Y104.681 E9.03679
G1 X138.827 Y104.694 E9.05626
G1 X141.668 Y104.775 E9.12432
G1 X144.137 Y104.775 E9.18345
G1 X145.836 Y104.717 E9.22416
G1 X147.782 Y104.68 E9.27077
G1 X152.014 Y104.681 E9.37211
G1 X152.827 Y104.694 E9.39158
G1 X155.668 Y104.775 E9.45964
G1 X158.137 Y104.775 E9.51877
G1 X159.836 Y104.717 E9.55948
G1 X161.782 Y104.68 E9.60609
G1 X166.014 Y104.681 E9.70743
G1 X166.827 Y104.694 E9.72691
G1 X169.668 Y104.775 E9.79497
G1 X172.137 Y104.775 E9.85409
G1 X173.836 Y104.717 E9.8948
G1 X175.782 Y104.68 E9.94141
G1 X180 Y104.681 E10.04242
G1 X180.664 Y104.69 E10.05833
G1 X181.58 Y104.742 E10.0803
G1 X182.489 Y104.874 E10.10229
G1 X183.382 Y105.085 E10.12427
G1 X184.254 Y105.372 E10.14625
G1 X185.098 Y105.735 E10.16825
G1 X185.907 Y106.169 E10.19024
G1 X186.675 Y106.672 E10.21222
G1 X187.396 Y107.24 E10.2342
G1 X188.065 Y107.868 E10.25618
G1 X188.677 Y108.553 E10.27817
G1 X189.227 Y109.288 E10.30016
G1 X189.711 Y110.068 E10.32214
G1 X190.125 Y110.887 E10.34412
G1 X190.467 Y111.739 E10.3661
G1 X190.733 Y112.618 E10.38809
G1 X190.921 Y113.517 E10.41009
G1 X191.046 Y114.663 E10.4377
G1 X191.063 Y114.979 E10.44527
G1 X191.078 Y115.545 E10.45883
G1 X191.078 Y162.118 E11.57413
G1 X191.068 Y162.814 E11.5908
G1 X191.015 Y163.731 E11.6128
G1 X190.859 Y164.756 E11.63762
G1 X190.701 Y165.533 E11.65661
G1 X190.328 Y167.307 E11.70002
G1 X189.859 Y169.839 E11.76169
G1 X189.477 Y172.271 E11.82064
G1 X189.156 Y174.774 E11.88107
G1 X189.105 Y175.271 E11.89304
G1 X189.059 Y175.659 E11.90239
G1 X188.959 Y176.765 E11.92899
G1 X188.881 Y177.557 E11.94805
G1 X188.835 Y178.134 E11.96191
G1 X188.699 Y180.237 E12.01237
G1 X188.67 Y180.955 E12.02958
G1 X188.64 Y181.542 E12.04366
G1 X188.628 Y182.086 E12.05669
G1 X188.6 Y182.829 E12.07449
G1 X188.589 Y183.655 E12.09428
G1 X188.557 Y185.009 E12.12671
G1 X188.495 Y185.925 E12.1487
G1 X188.354 Y186.832 E12.17068
G1 X188.135 Y187.724 E12.19267
G1 X187.839 Y188.592 E12.21463
G1 X187.468 Y189.432 E12.23662
G1 X187.025 Y190.237 E12.25863
G1 X186.515 Y191 E12.28061
G1 X185.939 Y191.715 E12.30259
G1 X185.304 Y192.378 E12.32458
G1 X184.614 Y192.983 E12.34655
G1 X183.873 Y193.525 E12.36854
G1 X183.088 Y194.001 E12.39052
G1 X182.265 Y194.407 E12.4125
G1 X181.409 Y194.74 E12.43449
G1 X180.528 Y194.997 E12.45647
G1 X179.628 Y195.177 E12.47845
G1 X178.297 Y195.296 E12.51045
G1 X177.573 Y195.315 E12.5278
G1 X177.161 Y195.318 E12.53766
G1 X176.231 Y195.302 E12.55994
G1 X175.352 Y195.264 E12.58101
G1 X174.047 Y195.192 E12.6123
G1 X171.537 Y195.124 E12.67243
G1 X168.988 Y195.128 E12.73348
G1 X166.499 Y195.202 E12.79311
G1 X165.935 Y195.233 E12.80663
G1 X164.299 Y195.303 E12.84585
G1 X163.16 Y195.318 E12.87313
G1 X162.229 Y195.302 E12.89542
G1 X161.352 Y195.264 E12.91645
G1 X160.047 Y195.192 E12.94774
G1 X157.537 Y195.124 E13.00787
G1 X154.987 Y195.128 E13.06894
G1 X152.498 Y195.202 E13.12857
G1 X151.935 Y195.233 E13.14207
G1 X150.299 Y195.303 E13.18129
G1 X149.16 Y195.318 E13.20857
G1 X148.229 Y195.302 E13.23086
G1 X147.352 Y195.264 E13.25189
G1 X146.047 Y195.192 E13.28318
G1 X143.537 Y195.124 E13.34331
G1 X140.987 Y195.128 E13.40438
G1 X138.498 Y195.202 E13.46401
G1 X137.935 Y195.233 E13.47751
G1 X136.299 Y195.303 E13.51673
G1 X135.16 Y195.318 E13.54401
G1 X134.229 Y195.302 E13.5663
G1 X133.352 Y195.264 E13.58733
G1 X132.047 Y195.192 E13.61862
G1 X129.537 Y195.124 E13.67875
G1 X126.987 Y195.128 E13.73982
G1 X124.498 Y195.202 E13.79945
G1 X123.935 Y195.233 E13.81295
G1 X122.299 Y195.303 E13.85217
G1 X121.16 Y195.318 E13.87945
G1 X120.229 Y195.302 E13.90174
G1 X119.352 Y195.264 E13.92277
G1 X118.047 Y195.192 E13.95406
G1 X115.537 Y195.124 E14.01419
G1 X112.987 Y195.128 E14.07526
G1 X110.498 Y195.202 E14.13489
G1 X109.935 Y195.233 E14.14839
G1 X108.299 Y195.303 E14.18761
G1 X107.159 Y195.318 E14.21491
G1 X106.537 Y195.31 E14.22981
G1 X105.621 Y195.258 E14.25178
G1 X104.712 Y195.127 E14.27377
G1 X103.819 Y194.917 E14.29574
G1 X102.946 Y194.63 E14.31774
G1 X102.103 Y194.269 E14.33971
G1 X101.294 Y193.835 E14.36169
G1 X100.525 Y193.332 E14.3837
G1 X99.804 Y192.765 E14.40566
G1 X99.134 Y192.137 E14.42765
G1 X98.522 Y191.453 E14.44963
G1 X98.125 Y190.938 E14.4652
G1 X97.967 Y190.719 E14.47167
G1 X97.78 Y190.45 E14.47952
G1 X97.021 Y189.325 E14.51201
G1 X96.657 Y188.77 E14.52791
G1 X96.188 Y187.982 E14.54987
G1 X95.789 Y187.155 E14.57186
G1 X95.463 Y186.296 E14.59386
G1 X95.213 Y185.413 E14.61584
G1 X95.041 Y184.511 E14.63783
G1 X94.949 Y183.598 E14.6598
G1 X94.932 Y183.121 E14.67123
G1 X94.928 Y182.518 E14.68567
G1 X94.933 Y182.164 E14.69415
G1 X94.986 Y181.248 E14.71612
G1 X95.059 Y180.679 E14.72986
G1 X95.338 Y178.904 E14.77289
G1 X95.691 Y176.348 E14.83468
G1 X95.965 Y173.84 E14.8951
G1 X96.167 Y171.354 E14.95482
G1 X96.301 Y168.811 E15.01581
G1 X96.369 Y165.264 E15.10076
G1 X96.37 Y134.685 E15.83305
G1 X96.333 Y132.092 E15.89515
G1 X96.225 Y129.547 E15.95615
G1 X96.046 Y127.025 E16.0167
G1 X95.796 Y124.5 E16.07746
G1 X95.478 Y122.012 E16.13753
G1 X95.189 Y120.206 E16.18132
G1 X95.05 Y119.268 E16.20403
G1 X94.947 Y118.213 E16.22942
G1 X94.937 Y117.998 E16.23457
G1 X94.927 Y117.626 E16.24348
G1 X94.922 Y117.158 E16.25469
G1 X94.922 Y115.749 E16.28843
G1 X94.931 Y115.092 E16.30417
G1 X94.984 Y114.175 E16.32616
G1 X95.116 Y113.267 E16.34814
G1 X95.326 Y112.373 E16.37013
G1 X95.614 Y111.501 E16.39212
G1 X95.976 Y110.658 E16.41409
G1 X96.411 Y109.849 E16.43609
G1 X96.914 Y109.081 E16.45807
G1 X97.482 Y108.36 E16.48005
G1 X98.11 Y107.691 E16.50203
G1 X98.795 Y107.079 E16.52402
G1 X99.53 Y106.529 E16.54601
G1 X100.31 Y106.045 E16.56799
G1 X101.13 Y105.631 E16.58999
G1 X101.982 Y105.29 E16.61196
G1 X102.861 Y105.024 E16.63396
G1 X103.759 Y104.836 E16.65593
G1 X104.93 Y104.71 E16.68413
G1 X105.242 Y104.694 E16.69161
G1 X105.782 Y104.68 E16.70455
G1 X110.014 Y104.681 E16.80589
G1 X110.827 Y104.694 E16.82536
G0 F6000 X110.838 Y104.334
G1 F600 X113.679 Y104.415 E16.89343
G1 X116.154 Y104.415 E16.9527
G1 X117.829 Y104.357 E16.99283
G1 X119.782 Y104.32 E17.03961
G1 X124.02 Y104.321 E17.1411
G1 X124.838 Y104.334 E17.16069
G1 X127.679 Y104.415 E17.22875
G1 X130.154 Y104.415 E17.28802
G1 X131.829 Y104.357 E17.32816
G1 X133.782 Y104.32 E17.37493
G1 X138.02 Y104.321 E17.47642
G1 X138.838 Y104.334 E17.49601
G1 X141.679 Y104.415 E17.56408
G1 X144.154 Y104.415 E17.62335
G1 X145.829 Y104.357 E17.66348
G1 X147.782 Y104.32 E17.71026
G1 X152.02 Y104.321 E17.81175
G1 X152.838 Y104.334 E17.83134
G1 X155.679 Y104.415 E17.8994
G1 X158.154 Y104.415 E17.95867
G1 X159.829 Y104.357 E17.99881
G1 X161.782 Y104.32 E18.04558
G1 X166.02 Y104.321 E18.14707
G1 X166.838 Y104.334 E18.16666
G1 X169.679 Y104.415 E18.23472
G1 X172.154 Y104.415 E18.29399
G1 X173.829 Y104.357 E18.33413
G1 X175.782 Y104.32 E18.38091
G1 X180.005 Y104.321 E18.48204
G1 X180.669 Y104.33 E18.49794
G1 X181.601 Y104.383 E18.52029
G1 X182.525 Y104.515 E18.54265
G1 X183.435 Y104.726 E18.56502
G1 X184.323 Y105.013 E18.58736
G1 X185.183 Y105.376 E18.60972
G1 X186.009 Y105.811 E18.63207
G1 X186.795 Y106.315 E18.65443
G1 X187.534 Y106.885 E18.67678
G1 X188.223 Y107.516 E18.69916
G1 X188.854 Y108.203 E18.7215
G1 X189.425 Y108.942 E18.74386
G1 X189.93 Y109.727 E18.76621
G1 X190.367 Y110.552 E18.78857
G1 X190.731 Y111.412 E18.81093
G1 X191.02 Y112.3 E18.8333
G1 X191.232 Y113.209 E18.85565
G1 X191.366 Y114.133 E18.87801
G1 X191.405 Y114.643 E18.89026
G1 X191.422 Y114.959 E18.89783
G1 X191.438 Y115.545 E18.91187
G1 X191.438 Y162.124 E20.02731
G1 X191.428 Y162.82 E20.04398
G1 X191.374 Y163.752 E20.06634
G1 X191.212 Y164.827 E20.09237
G1 X191.054 Y165.607 E20.11143
G1 X190.677 Y167.4 E20.15531
G1 X190.209 Y169.925 E20.2168
G1 X189.836 Y172.302 E20.27442
G1 X189.513 Y174.819 E20.33519
G1 X189.462 Y175.313 E20.34709
G1 X189.42 Y175.663 E20.35553
G1 X189.317 Y176.8 E20.38287
G1 X189.241 Y177.569 E20.40137
G1 X189.192 Y178.183 E20.41612
G1 X189.06 Y180.233 E20.46532
G1 X189.029 Y180.974 E20.48308
G1 X189 Y181.538 E20.4966
G1 X188.987 Y182.099 E20.51004
G1 X188.96 Y182.807 E20.52701
G1 X188.949 Y183.664 E20.54753
G1 X188.917 Y185.018 E20.57996
G1 X188.855 Y185.949 E20.60231
G1 X188.713 Y186.872 E20.62467
G1 X188.494 Y187.779 E20.64702
G1 X188.197 Y188.664 E20.66937
G1 X187.825 Y189.521 E20.69174
G1 X187.382 Y190.342 E20.71409
G1 X186.87 Y191.123 E20.73645
G1 X186.293 Y191.857 E20.75881
G1 X185.655 Y192.539 E20.78117
G1 X184.962 Y193.164 E20.80352
G1 X184.217 Y193.727 E20.82588
G1 X183.427 Y194.224 E20.84823
G1 X182.597 Y194.652 E20.8706
G1 X181.734 Y195.008 E20.89295
G1 X180.843 Y195.288 E20.91532
G1 X179.932 Y195.491 E20.93767
G1 X179.007 Y195.615 E20.96002
G1 X178.306 Y195.656 E20.97683
G1 X177.582 Y195.675 E20.99418
