;FLAVOR:Marlin
;TIME:10078
;Filament used: 6.72813m
;Layer height: 0.16
;MINX:139.599
;MINY:112.099
;MINZ:0.16
;MAXX:171.35
;MAXY:187.901
;MAXZ:25.92
;Generated with Cura_SteamEngine 4.6.1
M140 S60
M105
M190 S60
M104 S230
M105
M109 S230
M82 ;absolute extrusion mode
M201 X500.00 Y500.00 Z100.00 E5000.00 ;Setup machine max acceleration
M203 X500.00 Y500.00 Z10.00 E50.00 ;Setup machine max feedrate
M204 P500.00 R1000.00 T500.00 ;Setup Print/Retract/Travel acceleration
M205 X8.00 Y8.00 Z0.40 E5.00 ;Setup Jerk
M220 S100 ;Reset Feedrate
M221 S100 ;Reset Flowrate

G28 ;Home

G92 E0 ;Reset Extruder
G1 Z2.0 F3000 ;Move Z Axis up
G1 X10.1 Y20 Z0.28 F5000.0 ;Move to start position
G1 X10.1 Y200.0 Z0.28 F1500.0 E15 ;Draw the first line
G1 X10.4 Y200.0 Z0.28 F5000.0 ;Move to side a little
G1 X10.4 Y20 Z0.28 F1500.0 E30 ;Draw the second line
G92 E0 ;Reset Extruder
G1 Z2.0 F3000 ;Move Z Axis up

G92 E0
G92 E0
G1 F2700 E-5
;LAYER_COUNT:137
;LAYER:0
M107
G0 F6000 X140.438 Y113.454 Z0.16
;TYPE:SKIRT
G1 F2700 E0
G1 F600 X140.83 Y113.056 E0.01641
G1 X141.005 Y112.908 E0.02314
G1 X141.406 Y112.621 E0.03763
G1 X141.92 Y112.376 E0.05435
G1 X142.135 Y112.297 E0.06108
G1 X142.609 Y112.165 E0.07554
G1 X143.181 Y112.11 E0.09242
G1 X157.04 Y112.1 E0.49953
G1 X157.531 Y112.14 E0.514
G1 X158.009 Y112.258 E0.52846
G1 X158.462 Y112.452 E0.54294
G1 X158.878 Y112.717 E0.55743
G1 X159.192 Y112.99 E0.56965
G1 X159.51 Y113.308 E0.58286
G1 X159.525 Y113.326 E0.58355
G1 X159.851 Y112.996 E0.59718
G1 X160.225 Y112.676 E0.61164
G1 X160.646 Y112.42 E0.62611
G1 X161.104 Y112.236 E0.64061
G1 X161.584 Y112.129 E0.65506
G1 X162.008 Y112.099 E0.66754
G1 X165.711 Y112.1 E0.77632
G1 X166.202 Y112.14 E0.79079
G1 X166.68 Y112.259 E0.80526
G1 X167.133 Y112.454 E0.81975
G1 X167.548 Y112.719 E0.83421
G1 X167.915 Y113.047 E0.84867
G1 X168.224 Y113.431 E0.86315
G1 X168.467 Y113.86 E0.87763
G1 X168.638 Y114.322 E0.8921
G1 X168.732 Y114.806 E0.90659
G1 X168.75 Y115.14 E0.91641
G1 X168.75 Y117.14 E0.97516
G1 X168.71 Y117.631 E0.98963
G1 X168.591 Y118.109 E1.0041
G1 X168.451 Y118.436 E1.01455
G1 X168.451 Y122.899 E1.14566
G1 X168.956 Y122.986 E1.16071
G1 X169.422 Y123.149 E1.17521
G1 X169.854 Y123.385 E1.18967
G1 X170.243 Y123.687 E1.20414
G1 X170.607 Y124.085 E1.21998
G1 X170.716 Y124.228 E1.22526
G1 X170.982 Y124.643 E1.23974
G1 X171.177 Y125.095 E1.2542
G1 X171.297 Y125.573 E1.26868
G1 X171.338 Y126.07 E1.28333
G1 X171.35 Y173.851 E2.68691
G1 X171.31 Y174.342 E2.70138
G1 X171.173 Y174.874 E2.71752
G1 X171.113 Y175.042 E2.72276
G1 X170.91 Y175.492 E2.73726
G1 X170.637 Y175.902 E2.75173
G1 X170.302 Y176.263 E2.7662
G1 X169.817 Y176.625 E2.78398
G1 X169.669 Y176.714 E2.78905
G1 X169.227 Y176.933 E2.80354
G1 X168.756 Y177.078 E2.81802
G1 X168.463 Y177.118 E2.82671
G1 X168.452 Y181.557 E2.9571
G1 X168.615 Y181.966 E2.97004
G1 X168.722 Y182.447 E2.98451
G1 X168.75 Y182.858 E2.99661
G1 X168.751 Y184.859 E3.05539
G1 X168.711 Y185.351 E3.06989
G1 X168.593 Y185.829 E3.08436
G1 X168.399 Y186.282 E3.09883
G1 X168.134 Y186.697 E3.1133
G1 X167.805 Y187.065 E3.1278
G1 X167.422 Y187.374 E3.14225
G1 X166.993 Y187.617 E3.15674
G1 X166.531 Y187.788 E3.17121
G1 X166.047 Y187.882 E3.18569
G1 X165.711 Y187.901 E3.19558
G1 X162.007 Y187.901 E3.30438
G1 X161.516 Y187.861 E3.31885
G1 X161.038 Y187.742 E3.33332
G1 X160.585 Y187.548 E3.3478
G1 X160.17 Y187.283 E3.36226
G1 X159.851 Y187.004 E3.37471
G1 X159.534 Y186.685 E3.38792
G1 X159.516 Y186.685 E3.38845
G1 X159.199 Y187.004 E3.40166
G1 X158.825 Y187.324 E3.41612
G1 X158.404 Y187.58 E3.4306
G1 X157.946 Y187.764 E3.4451
G1 X157.466 Y187.871 E3.45954
G1 X157.043 Y187.901 E3.472
G1 X143.301 Y187.901 E3.87567
G1 X142.773 Y187.855 E3.89124
G1 X142.546 Y187.815 E3.89801
G1 X142.07 Y187.69 E3.91247
G1 X141.551 Y187.452 E3.92924
G1 X141.354 Y187.338 E3.93593
G1 X140.949 Y187.058 E3.95039
G1 X140.556 Y186.67 E3.96662
G1 X140.408 Y186.495 E3.97335
G1 X140.121 Y186.094 E3.98783
G1 X139.876 Y185.58 E4.00456
G1 X139.797 Y185.365 E4.01129
G1 X139.665 Y184.891 E4.02574
G1 X139.61 Y184.333 E4.04221
G1 X139.599 Y182.267 E4.1029
G1 X139.646 Y181.721 E4.119
G1 X139.686 Y181.495 E4.12574
G1 X139.81 Y181.019 E4.14019
G1 X140.044 Y180.508 E4.1567
G1 X140.158 Y180.31 E4.16342
G1 X140.438 Y179.904 E4.1779
G1 X140.83 Y179.506 E4.19431
G1 X141.005 Y179.358 E4.20105
G1 X141.406 Y179.071 E4.21553
G1 X141.92 Y178.826 E4.23226
G1 X142.135 Y178.747 E4.23899
G1 X142.609 Y178.615 E4.25344
G1 X142.926 Y178.571 E4.26284
G1 X143.044 Y178.561 E4.26632
G1 X143.301 Y178.55 E4.27388
G1 X144.76 Y178.55 E4.31673
G1 X145.251 Y178.59 E4.33121
G1 X145.729 Y178.709 E4.34568
G1 X146.182 Y178.903 E4.36015
G1 X146.597 Y179.168 E4.37462
G1 X146.965 Y179.497 E4.38912
G1 X147.128 Y179.699 E4.39674
G1 X150.6 Y179.7 E4.49873
G1 X150.6 Y120.3 E6.24363
G1 X147.135 Y120.3 E6.34541
G1 X146.853 Y120.615 E6.35783
G1 X146.469 Y120.924 E6.37231
G1 X146.041 Y121.167 E6.38677
G1 X145.579 Y121.338 E6.40124
G1 X145.095 Y121.431 E6.41572
G1 X144.762 Y121.45 E6.42552
G1 X143.303 Y121.451 E6.46838
G1 X142.773 Y121.405 E6.484
G1 X142.546 Y121.365 E6.49077
G1 X142.07 Y121.24 E6.50523
G1 X141.551 Y121.002 E6.522
G1 X141.354 Y120.888 E6.52869
G1 X140.949 Y120.608 E6.54315
G1 X140.556 Y120.22 E6.55938
G1 X140.408 Y120.045 E6.56611
G1 X140.121 Y119.644 E6.58059
G1 X139.876 Y119.13 E6.59732
G1 X139.797 Y118.915 E6.60405
G1 X139.665 Y118.441 E6.6185
G1 X139.61 Y117.883 E6.63497
G1 X139.599 Y115.817 E6.69566
G1 X139.646 Y115.271 E6.71176
G1 X139.686 Y115.045 E6.7185
G1 X139.81 Y114.569 E6.73295
G1 X140.044 Y114.058 E6.74946
G1 X140.158 Y113.86 E6.75617
G1 X140.438 Y113.454 E6.77066
G0 F6000 X140.702 Y113.637
G1 F600 X141.037 Y113.3 E6.78462
G1 X141.212 Y113.152 E6.79135
G1 X141.592 Y112.883 E6.80503
G1 X142.03 Y112.676 E6.81926
G1 X142.245 Y112.597 E6.82599
G1 X142.694 Y112.474 E6.83966
G1 X143.181 Y112.43 E6.85403
G1 X157.04 Y112.42 E7.26114
G1 X157.504 Y112.46 E7.27482
G1 X157.955 Y112.578 E7.28852
G1 X158.379 Y112.771 E7.3022
G1 X158.764 Y113.034 E7.3159
G1 X158.965 Y113.217 E7.32388
G1 X159.283 Y113.535 E7.33709
G1 X159.526 Y113.823 E7.34816
G1 X159.586 Y113.735 E7.35129
G1 X159.761 Y113.541 E7.35897
G1 X160.078 Y113.222 E7.37218
G1 X160.433 Y112.921 E7.38585
G1 X160.835 Y112.684 E7.39956
G1 X161.271 Y112.52 E7.41324
G1 X161.729 Y112.433 E7.42694
G1 X162.008 Y112.419 E7.43514
G1 X165.711 Y112.42 E7.54392
G1 X166.175 Y112.46 E7.5576
G1 X166.626 Y112.579 E7.5713
G1 X167.05 Y112.773 E7.585
G1 X167.434 Y113.036 E7.59867
G1 X167.768 Y113.361 E7.61236
G1 X168.041 Y113.739 E7.62606
G1 X168.246 Y114.157 E7.63973
G1 X168.377 Y114.605 E7.65344
G1 X168.43 Y115.14 E7.66924
G1 X168.43 Y117.14 E7.72799
G1 X168.39 Y117.604 E7.74167
G1 X168.271 Y118.055 E7.75537
G1 X168.131 Y118.363 E7.76531
G1 X168.131 Y123.197 E7.90731
G1 X168.205 Y123.198 E7.90948
G1 X168.441 Y123.22 E7.91645
G1 X168.9 Y123.303 E7.93015
G1 X169.338 Y123.463 E7.94385
G1 X169.742 Y123.695 E7.95753
G1 X170.1 Y123.993 E7.97121
G1 X170.352 Y124.279 E7.98241
G1 X170.461 Y124.422 E7.98769
G1 X170.711 Y124.816 E8.0014
G1 X170.89 Y125.246 E8.01508
G1 X170.993 Y125.701 E8.02879
G1 X171.018 Y126.07 E8.03965
G1 X171.03 Y173.851 E9.44323
G1 X170.99 Y174.316 E9.45694
G1 X170.872 Y174.767 E9.47064
G1 X170.812 Y174.935 E9.47588
G1 X170.618 Y175.359 E9.48958
G1 X170.354 Y175.743 E9.50326
G1 X170.029 Y176.077 E9.51695
G1 X169.652 Y176.351 E9.53064
G1 X169.504 Y176.44 E9.53572
G1 X169.085 Y176.645 E9.54942
G1 X168.638 Y176.776 E9.5631
G1 X168.175 Y176.828 E9.57679
G1 X168.144 Y176.826 E9.5777
G1 X168.132 Y181.635 E9.71897
G1 X168.168 Y181.696 E9.72105
G1 X168.331 Y182.133 E9.73475
G1 X168.417 Y182.591 E9.74844
G1 X168.43 Y182.859 E9.75632
G1 X168.431 Y184.86 E9.8151
G1 X168.391 Y185.324 E9.82878
G1 X168.273 Y185.775 E9.84248
G1 X168.079 Y186.199 E9.85617
G1 X167.816 Y186.583 E9.86985
G1 X167.491 Y186.917 E9.88354
G1 X167.114 Y187.191 E9.89723
G1 X166.696 Y187.396 E9.9109
G1 X166.248 Y187.527 E9.92461
G1 X165.711 Y187.581 E9.94047
G1 X162.007 Y187.581 E10.04927
G1 X161.543 Y187.541 E10.06295
G1 X161.092 Y187.422 E10.07666
G1 X160.668 Y187.229 E10.09034
G1 X160.284 Y186.965 E10.10403
G1 X160.078 Y186.778 E10.1122
G1 X159.761 Y186.459 E10.12541
G1 X159.525 Y186.177 E10.13621
G1 X159.464 Y186.265 E10.13936
G1 X159.289 Y186.459 E10.14704
G1 X158.972 Y186.778 E10.16025
G1 X158.617 Y187.079 E10.17392
G1 X158.215 Y187.316 E10.18763
G1 X157.779 Y187.48 E10.20131
G1 X157.321 Y187.567 E10.215
G1 X157.043 Y187.581 E10.22318
G1 X143.301 Y187.581 E10.62686
G1 X142.829 Y187.54 E10.64077
G1 X142.602 Y187.5 E10.64755
G1 X142.152 Y187.38 E10.66123
G1 X141.712 Y187.175 E10.67549
G1 X141.515 Y187.061 E10.68217
G1 X141.133 Y186.794 E10.69586
G1 X140.8 Y186.463 E10.70965
G1 X140.652 Y186.288 E10.71639
G1 X140.383 Y185.908 E10.73006
G1 X140.176 Y185.47 E10.74429
G1 X140.097 Y185.255 E10.75102
G1 X139.974 Y184.806 E10.7647
G1 X139.93 Y184.331 E10.77871
G1 X139.919 Y182.265 E10.8394
G1 X139.961 Y181.777 E10.85379
G1 X140.001 Y181.551 E10.86053
G1 X140.121 Y181.101 E10.87421
G1 X140.322 Y180.668 E10.88824
G1 X140.436 Y180.47 E10.89495
G1 X140.702 Y180.087 E10.90865
G1 X141.037 Y179.75 E10.9226
G1 X141.212 Y179.602 E10.92934
G1 X141.592 Y179.333 E10.94301
G1 X142.03 Y179.126 E10.95724
G1 X142.245 Y179.047 E10.96397
G1 X142.694 Y178.924 E10.97765
G1 X142.953 Y178.89 E10.98532
G1 X143.071 Y178.88 E10.9888
G1 X143.301 Y178.87 E10.99556
G1 X144.76 Y178.87 E11.03842
G1 X145.224 Y178.91 E11.0521
G1 X145.675 Y179.029 E11.0658
G1 X146.099 Y179.222 E11.07949
G1 X146.483 Y179.486 E11.09318
G1 X146.817 Y179.811 E11.10687
G1 X146.968 Y180.019 E11.11442
G1 X150.92 Y180.02 E11.23051
G1 X150.92 Y119.98 E12.99421
G1 X146.969 Y119.98 E13.11027
G1 X146.864 Y120.133 E13.11572
G1 X146.539 Y120.467 E13.12941
G1 X146.162 Y120.741 E13.1431
G1 X145.743 Y120.946 E13.1568
G1 X145.296 Y121.077 E13.17048
G1 X144.762 Y121.13 E13.18625
G1 X143.303 Y121.131 E13.22911
G1 X142.829 Y121.09 E13.24308
G1 X142.602 Y121.05 E13.24985
G1 X142.152 Y120.93 E13.26353
G1 X141.712 Y120.725 E13.27779
G1 X141.515 Y120.611 E13.28448
G1 X141.133 Y120.344 E13.29817
G1 X140.8 Y120.013 E13.31196
G1 X140.652 Y119.838 E13.31869
G1 X140.383 Y119.458 E13.33237
G1 X140.176 Y119.02 E13.3466
G1 X140.097 Y118.805 E13.35333
G1 X139.974 Y118.356 E13.36701
G1 X139.93 Y117.881 E13.38102
G1 X139.919 Y115.815 E13.44171
G1 X139.961 Y115.327 E13.4561
G1 X140.001 Y115.101 E13.46284
G1 X140.121 Y114.651 E13.47652
G1 X140.322 Y114.218 E13.49054
G1 X140.436 Y114.02 E13.49726
G1 X140.702 Y113.637 E13.51095
G0 F6000 X140.965 Y113.822
G1 F600 X141.243 Y113.544 E13.5225
G1 X141.418 Y113.396 E13.52923
G1 X141.777 Y113.145 E13.5421
G1 X142.14 Y112.976 E13.55386
G1 X142.355 Y112.897 E13.56059
G1 X142.778 Y112.784 E13.57345
G1 X143.181 Y112.75 E13.58534
G1 X157.04 Y112.74 E13.99245
G1 X157.476 Y112.78 E14.00531
G1 X157.898 Y112.898 E14.01818
G1 X158.291 Y113.09 E14.03103
G1 X158.739 Y113.443 E14.04778
G1 X159.057 Y113.761 E14.061
G1 X159.337 Y114.097 E14.07384
G1 X159.528 Y114.438 E14.08532
G1 X159.641 Y114.208 E14.09285
G1 X159.988 Y113.766 E14.10936
G1 X160.305 Y113.447 E14.12257
G1 X160.64 Y113.166 E14.13541
G1 X161.021 Y112.951 E14.14827
G1 X161.435 Y112.808 E14.16113
G1 X162.008 Y112.739 E14.17809
G1 X165.711 Y112.74 E14.28686
G1 X166.147 Y112.78 E14.29972
G1 X166.568 Y112.899 E14.31258
G1 X166.961 Y113.092 E14.32544
G1 X167.312 Y113.353 E14.33829
G1 X167.61 Y113.674 E14.35115
G1 X167.845 Y114.043 E14.364
G1 X168.008 Y114.449 E14.37686
G1 X168.096 Y114.878 E14.38972
G1 X168.11 Y115.14 E14.39743
G1 X168.11 Y117.14 E14.45618
G1 X168.07 Y117.576 E14.46904
G1 X167.952 Y117.997 E14.48188
G1 X167.811 Y118.284 E14.49128
G1 X167.811 Y123.514 E14.64491
G1 X167.869 Y123.507 E14.64663
G1 X168.176 Y123.516 E14.65565
G1 X168.412 Y123.538 E14.66261
G1 X168.842 Y123.619 E14.67546
G1 X169.251 Y123.776 E14.68833
G1 X169.624 Y124.004 E14.70117
G1 X169.949 Y124.297 E14.71403
G1 X170.098 Y124.473 E14.7208
G1 X170.207 Y124.616 E14.72608
G1 X170.439 Y124.987 E14.73894
G1 X170.601 Y125.394 E14.75181
G1 X170.685 Y125.823 E14.76465
G1 X170.698 Y126.07 E14.77191
G1 X170.71 Y173.851 E16.1755
G1 X170.67 Y174.287 E16.18836
G1 X170.57 Y174.659 E16.19967
G1 X170.51 Y174.827 E16.20491
G1 X170.326 Y175.224 E16.21777
G1 X170.073 Y175.581 E16.23062
G1 X169.759 Y175.886 E16.24348
G1 X169.487 Y176.077 E16.25324
G1 X169.339 Y176.166 E16.25832
G1 X168.945 Y176.356 E16.27117
G1 X168.523 Y176.472 E16.28402
G1 X168.086 Y176.509 E16.29691
G1 X167.824 Y176.489 E16.30462
G1 X167.812 Y181.722 E16.45835
G1 X167.901 Y181.881 E16.4637
G1 X168.043 Y182.295 E16.47656
G1 X168.11 Y182.859 E16.49324
G1 X168.111 Y184.86 E16.55202
G1 X168.071 Y185.296 E16.56488
G1 X167.953 Y185.717 E16.57772
G1 X167.76 Y186.11 E16.59059
G1 X167.499 Y186.462 E16.60346
G1 X167.179 Y186.76 E16.6163
G1 X166.81 Y186.995 E16.62915
G1 X166.404 Y187.159 E16.64202
G1 X165.975 Y187.246 E16.65488
G1 X165.711 Y187.261 E16.66264
G1 X162.007 Y187.261 E16.77145
G1 X161.571 Y187.221 E16.78431
G1 X161.15 Y187.103 E16.79715
G1 X160.757 Y186.91 E16.81002
G1 X160.305 Y186.553 E16.82694
G1 X159.988 Y186.234 E16.84015
G1 X159.709 Y185.896 E16.85302
G1 X159.522 Y185.561 E16.86429
G1 X159.409 Y185.792 E16.87185
G1 X159.062 Y186.234 E16.88835
G1 X158.745 Y186.553 E16.90156
G1 X158.41 Y186.834 E16.91441
G1 X158.029 Y187.049 E16.92726
G1 X157.615 Y187.192 E16.94012
G1 X157.043 Y187.261 E16.95705
G1 X143.301 Y187.261 E17.36073
G1 X142.885 Y187.225 E17.37299
G1 X142.658 Y187.185 E17.37976
G1 X142.235 Y187.07 E17.39264
G1 X141.872 Y186.898 E17.40444
G1 X141.675 Y186.784 E17.41112
G1 X141.318 Y186.531 E17.42398
G1 X141.044 Y186.257 E17.43536
G1 X140.896 Y186.082 E17.44209
G1 X140.645 Y185.723 E17.45496
G1 X140.476 Y185.36 E17.46672
G1 X140.397 Y185.145 E17.47345
G1 X140.284 Y184.722 E17.48631
G1 X140.25 Y184.33 E17.49787
G1 X140.239 Y182.264 E17.55856
G1 X140.276 Y181.833 E17.57127
G1 X140.316 Y181.607 E17.57801
G1 X140.431 Y181.184 E17.59089
G1 X140.599 Y180.827 E17.60248
G1 X140.713 Y180.629 E17.60919
G1 X140.965 Y180.272 E17.62203
G1 X141.243 Y179.994 E17.63358
G1 X141.418 Y179.846 E17.64031
G1 X141.777 Y179.595 E17.65318
G1 X142.14 Y179.426 E17.66494
G1 X142.355 Y179.347 E17.67167
G1 X142.98 Y179.209 E17.69047
G1 X143.098 Y179.199 E17.69395
G1 X143.301 Y179.19 E17.69992
G1 X144.76 Y179.19 E17.74277
G1 X145.196 Y179.23 E17.75564
G1 X145.617 Y179.348 E17.76848
G1 X146.01 Y179.541 E17.78134
G1 X146.361 Y179.802 E17.79419
G1 X146.659 Y180.123 E17.80706
G1 X146.797 Y180.339 E17.81459
G1 X151.24 Y180.34 E17.9451
G1 X151.24 Y119.66 E19.7276
G1 X146.809 Y119.66 E19.85776
G1 X146.548 Y120.011 E19.87061
G1 X146.227 Y120.309 E19.88347
G1 X145.858 Y120.544 E19.89633
G1 X145.452 Y120.708 E19.90919
G1 X145.023 Y120.796 E19.92205
G1 X144.762 Y120.81 E19.92973
G1 X143.303 Y120.811 E19.97259
G1 X142.885 Y120.775 E19.98491
G1 X142.658 Y120.735 E19.99168
G1 X142.235 Y120.62 E20.00456
G1 X141.872 Y120.448 E20.01636
G1 X141.675 Y120.334 E20.02305
G1 X141.318 Y120.081 E20.0359
G1 X141.044 Y119.807 E20.04728
G1 X140.896 Y119.632 E20.05402
G1 X140.645 Y119.273 E20.06688
G1 X140.476 Y118.91 E20.07865
G1 X140.397 Y118.695 E20.08537
G1 X140.284 Y118.272 E20.09824
G1 X140.25 Y117.88 E20.10979
G1 X140.239 Y115.814 E20.17048
G1 X140.276 Y115.383 E20.18319
G1 X140.316 Y115.157 E20.18993
G1 X140.431 Y114.734 E20.20281
G1 X140.599 Y114.377 E20.2144
G1 X140.713 Y114.179 E20.22111
G1 X140.965 Y113.822 E20.23395
G0 F6000 X141.227 Y114.008
G1 F600 X141.45 Y113.789 E20.24313
G1 X141.625 Y113.641 E20.24986
G1 X141.96 Y113.409 E20.26183
G1 X142.251 Y113.277 E20.27122
G1 X142.466 Y113.198 E20.27795
G1 X142.86 Y113.095 E20.28991
G1 X143.181 Y113.07 E20.29937
G1 X157.04 Y113.06 E20.70648
G1 X157.446 Y113.1 E20.71847
G1 X157.836 Y113.218 E20.73044
G1 X158.196 Y113.409 E20.74241
G1 X158.513 Y113.669 E20.75445
G1 X158.831 Y113.987 E20.76766
G1 X159.089 Y114.302 E20.77962
G1 X159.281 Y114.661 E20.79158
G1 X159.4 Y115.051 E20.80356
G1 X159.44 Y115.458 E20.81557
G1 X159.44 Y148.442 E21.78449
G1 X159.4 Y148.847 E21.79644
G1 X159.282 Y149.237 E21.80841
G1 X159.09 Y149.597 E21.8204
