;FLAVOR:Marlin
;TIME:4187
;Filament used: 2.2636m
;Layer height: 0.16
;MINX:100.49
;MINY:104.34
;MINZ:0.16
;MAXX:201.51
;MAXY:195.659
;MAXZ:2.68
;Generated with Cura_SteamEngine 4.6.1
M140 S60
M105
M190 S60
M104 S230
M105
M109 S230
M82 ;absolute extrusion mode
M201 X500.00 Y500.00 Z100.00 E5000.00 ;Setup machine max acceleration
M203 X500.00 Y500.00 Z10.00 E50.00 ;Setup machine max feedrate
M204 P500.00 R1000.00 T500.00 ;Setup Print/Retract/Travel acceleration
M205 X8.00 Y8.00 Z0.40 E5.00 ;Setup Jerk
M220 S100 ;Reset Feedrate
M221 S100 ;Reset Flowrate

G28 ;Home

G92 E0 ;Reset Extruder
G1 Z2.0 F3000 ;Move Z Axis up
G1 X10.1 Y20 Z0.28 F5000.0 ;Move to start position
G1 X10.1 Y200.0 Z0.28 F1500.0 E15 ;Draw the first line
G1 X10.4 Y200.0 Z0.28 F5000.0 ;Move to side a little
G1 X10.4 Y20 Z0.28 F1500.0 E30 ;Draw the second line
G92 E0 ;Reset Extruder
G1 Z2.0 F3000 ;Move Z Axis up

G92 E0
G92 E0
G1 F2700 E-5
;LAYER_COUNT:15
;LAYER:0
M107
G0 F6000 X117.942 Y105.008 Z0.16
;TYPE:SKIRT
G1 F2700 E0
G1 F600 X118.832 Y105.032 E0.02615
G1 X121.415 Y105.03 E0.10203
G1 X123.608 Y104.98 E0.16647
G1 X128.178 Y104.981 E0.30071
G1 X129.942 Y105.008 E0.35254
G1 X130.832 Y105.032 E0.37869
G1 X133.415 Y105.03 E0.45457
G1 X135.608 Y104.98 E0.519
G1 X140.178 Y104.981 E0.65325
G1 X141.942 Y105.008 E0.70507
G1 X142.832 Y105.032 E0.73123
G1 X145.415 Y105.03 E0.8071
G1 X147.608 Y104.98 E0.87154
G1 X152.178 Y104.981 E1.00579
G1 X153.942 Y105.008 E1.05761
G1 X154.832 Y105.032 E1.08376
G1 X157.415 Y105.03 E1.15964
G1 X159.608 Y104.98 E1.22408
G1 X164.178 Y104.981 E1.35832
G1 X165.942 Y105.008 E1.41015
G1 X166.832 Y105.032 E1.4363
G1 X169.415 Y105.03 E1.51218
G1 X171.608 Y104.98 E1.57661
G1 X176.171 Y104.981 E1.71065
G1 X177.031 Y104.994 E1.73592
G1 X179.604 Y105.067 E1.81153
G1 X182.14 Y105.067 E1.88603
G1 X183.592 Y105.026 E1.9287
G1 X185.612 Y104.98 E1.98805
G1 X190.168 Y104.981 E2.12189
G1 X190.826 Y104.99 E2.14122
G1 X191.726 Y105.042 E2.1677
G1 X192.617 Y105.174 E2.19416
G1 X193.494 Y105.384 E2.22065
G1 X194.348 Y105.672 E2.24712
G1 X195.174 Y106.033 E2.2736
G1 X195.964 Y106.467 E2.30008
G1 X196.713 Y106.969 E2.32657
G1 X197.414 Y107.535 E2.35303
G1 X198.062 Y108.161 E2.3795
G1 X198.653 Y108.842 E2.40599
G1 X199.18 Y109.573 E2.43246
G1 X199.641 Y110.348 E2.45895
G1 X200.031 Y111.16 E2.48541
G1 X200.348 Y112.004 E2.51189
G1 X200.589 Y112.873 E2.53838
G1 X200.751 Y113.759 E2.56484
G1 X200.823 Y114.457 E2.58546
G1 X200.846 Y114.794 E2.59538
G1 X200.87 Y115.486 E2.61572
G1 X200.87 Y162.123 E3.9857
G1 X200.86 Y162.819 E4.00614
G1 X200.807 Y163.719 E4.03263
G1 X200.641 Y164.774 E4.064
G1 X199.995 Y167.829 E4.15573
G1 X199.531 Y170.351 E4.23105
G1 X199.147 Y172.831 E4.30477
G1 X198.824 Y175.4 E4.38083
G1 X198.581 Y177.894 E4.45444
G1 X198.405 Y180.438 E4.52935
G1 X198.3 Y183.038 E4.60579
G1 X198.285 Y183.901 E4.63114
G1 X198.258 Y185.067 E4.6654
G1 X198.197 Y185.966 E4.69187
G1 X198.057 Y186.857 E4.71837
G1 X197.839 Y187.731 E4.74483
G1 X197.543 Y188.583 E4.77132
G1 X197.174 Y189.405 E4.79779
G1 X196.733 Y190.191 E4.82427
G1 X196.224 Y190.935 E4.85075
G1 X195.651 Y191.631 E4.87723
G1 X195.019 Y192.273 E4.90369
G1 X194.332 Y192.857 E4.93018
G1 X193.596 Y193.378 E4.95667
G1 X192.817 Y193.831 E4.98314
G1 X192.001 Y194.214 E5.00962
G1 X191.154 Y194.522 E5.0361
G1 X190.284 Y194.755 E5.06255
G1 X189.395 Y194.909 E5.08906
G1 X188.446 Y194.986 E5.11703
G1 X187.621 Y195.014 E5.14127
G1 X187.146 Y195.019 E5.15523
G1 X186.155 Y195.002 E5.18434
G1 X185.166 Y194.96 E5.21342
G1 X184.069 Y194.899 E5.2457
G1 X181.541 Y194.831 E5.31998
G1 X179.006 Y194.835 E5.39445
G1 X176.427 Y194.911 E5.47024
G1 X175.991 Y194.935 E5.48307
G1 X174.43 Y195.001 E5.52897
G1 X173.143 Y195.019 E5.56677
G1 X172.157 Y195.002 E5.59574
G1 X171.105 Y194.958 E5.62667
G1 X168.494 Y194.886 E5.7034
G1 X165.98 Y194.888 E5.77725
G1 X162.413 Y195.003 E5.88209
G1 X161.143 Y195.019 E5.9194
G1 X160.157 Y195.002 E5.94837
G1 X159.105 Y194.958 E5.9793
G1 X156.494 Y194.886 E6.05602
G1 X153.98 Y194.888 E6.12987
G1 X150.413 Y195.003 E6.23471
G1 X149.143 Y195.019 E6.27202
G1 X148.157 Y195.002 E6.30099
G1 X147.105 Y194.958 E6.33192
G1 X144.494 Y194.886 E6.40865
G1 X141.98 Y194.888 E6.4825
G1 X138.413 Y195.003 E6.58733
G1 X137.143 Y195.019 E6.62464
G1 X136.157 Y195.002 E6.65361
G1 X135.105 Y194.958 E6.68454
G1 X132.494 Y194.886 E6.76127
G1 X129.98 Y194.888 E6.83512
G1 X126.413 Y195.003 E6.93995
G1 X125.143 Y195.019 E6.97726
G1 X124.157 Y195.002 E7.00623
G1 X123.105 Y194.958 E7.03716
G1 X120.494 Y194.886 E7.11389
G1 X117.98 Y194.888 E7.18774
G1 X114.413 Y195.003 E7.29258
G1 X113.143 Y195.019 E7.32989
G1 X112.451 Y195.01 E7.35022
G1 X111.551 Y194.958 E7.3767
G1 X110.659 Y194.827 E7.40318
G1 X109.783 Y194.617 E7.42964
G1 X108.928 Y194.331 E7.45613
G1 X108.102 Y193.97 E7.48261
G1 X107.312 Y193.537 E7.50907
G1 X106.563 Y193.035 E7.53556
G1 X105.861 Y192.47 E7.56203
G1 X105.212 Y191.844 E7.58852
G1 X104.622 Y191.163 E7.61498
G1 X104.339 Y190.789 E7.62876
G1 X103.833 Y190.086 E7.65421
G1 X103.296 Y189.317 E7.68176
G1 X102.897 Y188.73 E7.70261
G1 X102.424 Y187.962 E7.7291
G1 X102.021 Y187.156 E7.75557
G1 X101.691 Y186.318 E7.78203
G1 X101.436 Y185.453 E7.80852
G1 X101.259 Y184.569 E7.835
G1 X101.145 Y183.33 E7.87155
G1 X101.137 Y183.07 E7.8792
G1 X101.133 Y182.605 E7.89286
G1 X101.141 Y182.074 E7.90846
G1 X101.195 Y181.174 E7.93494
G1 X101.261 Y180.663 E7.95008
G1 X101.466 Y179.355 E7.98897
G1 X101.557 Y178.822 E8.00485
G1 X101.91 Y176.333 E8.0787
G1 X102.196 Y173.791 E8.15384
G1 X102.409 Y171.266 E8.22828
G1 X102.549 Y168.77 E8.30171
G1 X102.629 Y164.882 E8.41595
G1 X102.63 Y135.055 E9.29213
G1 X102.593 Y132.446 E9.36878
G1 X102.486 Y129.914 E9.44322
G1 X102.303 Y127.334 E9.5192
G1 X102.057 Y124.859 E9.59226
G1 X101.735 Y122.34 E9.66686
G1 X101.264 Y119.37 E9.7552
G1 X101.144 Y118.099 E9.7927
G1 X101.131 Y117.537 E9.80921
G1 X101.13 Y115.659 E9.86438
G1 X101.139 Y115.009 E9.88347
G1 X101.191 Y114.11 E9.90993
G1 X101.323 Y113.218 E9.93642
G1 X101.534 Y112.342 E9.96288
G1 X101.821 Y111.487 E9.98938
G1 X102.183 Y110.662 E10.01584
G1 X102.617 Y109.872 E10.04232
G1 X103.119 Y109.123 E10.06881
G1 X103.685 Y108.422 E10.09527
G1 X104.311 Y107.774 E10.12174
G1 X104.993 Y107.183 E10.14825
G1 X105.723 Y106.656 E10.1747
G1 X106.498 Y106.195 E10.20119
G1 X107.311 Y105.805 E10.22768
G1 X108.155 Y105.488 E10.25416
G1 X109.023 Y105.248 E10.28061
G1 X109.91 Y105.085 E10.30711
G1 X110.975 Y104.995 E10.3385
G1 X111.289 Y104.985 E10.34773
G1 X111.612 Y104.98 E10.35722
G1 X116.178 Y104.981 E10.49135
G1 X117.942 Y105.008 E10.54317
G0 F6000 X117.951 Y104.688
G1 F600 X118.841 Y104.712 E10.56933
G1 X121.406 Y104.71 E10.64467
G1 X123.608 Y104.66 E10.70937
G1 X128.182 Y104.661 E10.84374
G1 X129.951 Y104.688 E10.89571
G1 X130.841 Y104.712 E10.92186
G1 X133.406 Y104.71 E10.99721
G1 X135.608 Y104.66 E11.06191
G1 X140.182 Y104.661 E11.19627
G1 X141.951 Y104.688 E11.24824
G1 X142.841 Y104.712 E11.2744
G1 X145.406 Y104.71 E11.34975
G1 X147.608 Y104.66 E11.41445
G1 X152.182 Y104.661 E11.54881
G1 X153.951 Y104.688 E11.60078
G1 X154.841 Y104.712 E11.62693
G1 X157.406 Y104.71 E11.70228
G1 X159.608 Y104.66 E11.76698
G1 X164.182 Y104.661 E11.90135
G1 X165.951 Y104.688 E11.95332
G1 X166.841 Y104.712 E11.97947
G1 X169.406 Y104.71 E12.05482
G1 X171.608 Y104.66 E12.11952
G1 X176.176 Y104.661 E12.25371
G1 X177.04 Y104.674 E12.27909
G1 X179.613 Y104.747 E12.3547
G1 X182.131 Y104.747 E12.42867
G1 X183.583 Y104.706 E12.47134
G1 X185.612 Y104.66 E12.53096
G1 X190.172 Y104.661 E12.66491
G1 X190.83 Y104.67 E12.68424
G1 X191.744 Y104.722 E12.71113
G1 X192.65 Y104.855 E12.73803
G1 X193.541 Y105.065 E12.76492
G1 X194.41 Y105.353 E12.79182
G1 X195.251 Y105.715 E12.81871
G1 X196.057 Y106.149 E12.8456
G1 X196.822 Y106.652 E12.8725
G1 X197.54 Y107.22 E12.89939
G1 X198.205 Y107.848 E12.92626
G1 X198.814 Y108.532 E12.95316
G1 X199.36 Y109.266 E12.98003
G1 X199.841 Y110.046 E13.00695
G1 X200.251 Y110.864 E13.03383
G1 X200.588 Y111.715 E13.06072
G1 X200.85 Y112.592 E13.08761
G1 X201.035 Y113.489 E13.11451
G1 X201.143 Y114.435 E13.14248
G1 X201.166 Y114.772 E13.1524
G1 X201.19 Y115.486 E13.17339
G1 X201.19 Y162.128 E14.54351
G1 X201.18 Y162.824 E14.56396
G1 X201.127 Y163.737 E14.59083
G1 X200.955 Y164.84 E14.62362
G1 X200.306 Y167.913 E14.71588
G1 X199.844 Y170.422 E14.79082
G1 X199.462 Y172.884 E14.86401
G1 X199.146 Y175.401 E14.93853
G1 X198.898 Y177.947 E15.01367
G1 X198.723 Y180.473 E15.08805
G1 X198.621 Y183.012 E15.1627
G1 X198.605 Y183.909 E15.18905
G1 X198.578 Y185.075 E15.22331
G1 X198.517 Y185.988 E15.25019
G1 X198.376 Y186.893 E15.2771
G1 X198.157 Y187.781 E15.30396
G1 X197.862 Y188.648 E15.33086
G1 X197.491 Y189.485 E15.35776
G1 X197.05 Y190.287 E15.38464
G1 X196.539 Y191.047 E15.41155
G1 X195.965 Y191.759 E15.43841
G1 X195.33 Y192.419 E15.46532
G1 X194.641 Y193.021 E15.49219
G1 X193.901 Y193.561 E15.5191
G1 X193.117 Y194.034 E15.546
G1 X192.295 Y194.436 E15.57288
G1 X191.441 Y194.766 E15.59977
G1 X190.561 Y195.019 E15.62667
G1 X189.663 Y195.195 E15.65355
G1 X188.456 Y195.306 E15.68916
G1 X187.631 Y195.334 E15.71341
G1 X187.141 Y195.339 E15.7278
G1 X186.142 Y195.322 E15.75715
G1 X185.149 Y195.28 E15.78635
G1 X184.045 Y195.219 E15.81883
G1 X181.532 Y195.151 E15.89267
G1 X178.98 Y195.155 E15.96764
G1 X176.453 Y195.23 E16.04191
G1 X176.006 Y195.254 E16.05505
G1 X174.435 Y195.321 E16.10125
G1 X173.139 Y195.339 E16.13932
G1 X172.143 Y195.322 E16.16858
G1 X171.081 Y195.278 E16.19981
G1 X168.485 Y195.206 E16.27609
G1 X165.959 Y195.208 E16.35029
G1 X162.418 Y195.323 E16.45437
G1 X161.448 Y195.339 E16.48287
G1 X161.139 Y195.339 E16.49194
G1 X160.143 Y195.322 E16.52121
G1 X159.081 Y195.278 E16.55243
G1 X156.485 Y195.206 E16.62872
G1 X153.959 Y195.208 E16.70292
G1 X150.418 Y195.323 E16.80699
G1 X149.448 Y195.339 E16.83549
G1 X149.139 Y195.339 E16.84457
G1 X148.143 Y195.322 E16.87383
G1 X147.081 Y195.278 E16.90505
G1 X144.485 Y195.206 E16.98134
G1 X141.959 Y195.208 E17.05554
G1 X138.418 Y195.323 E17.15961
G1 X137.448 Y195.339 E17.18811
G1 X137.139 Y195.339 E17.19719
G1 X136.143 Y195.322 E17.22645
G1 X135.081 Y195.278 E17.25768
G1 X132.485 Y195.206 E17.33396
G1 X129.959 Y195.208 E17.40816
G1 X126.418 Y195.323 E17.51224
G1 X125.448 Y195.339 E17.54074
G1 X125.139 Y195.339 E17.54981
G1 X124.143 Y195.322 E17.57907
G1 X123.081 Y195.278 E17.6103
G1 X120.485 Y195.206 E17.68659
G1 X117.959 Y195.208 E17.76079
G1 X114.418 Y195.323 E17.86486
G1 X113.448 Y195.339 E17.89336
G1 X113.139 Y195.339 E17.90244
G1 X112.447 Y195.33 E17.92277
G1 X111.533 Y195.278 E17.94966
G1 X110.627 Y195.147 E17.97655
G1 X109.736 Y194.937 E18.00344
G1 X108.867 Y194.65 E18.03032
G1 X108.026 Y194.288 E18.05722
G1 X107.219 Y193.854 E18.08414
G1 X106.454 Y193.352 E18.11101
G1 X105.736 Y192.785 E18.13789
G1 X105.069 Y192.157 E18.1648
G1 X104.461 Y191.473 E18.19168
G1 X104.079 Y190.976 E18.2101
G1 X103.571 Y190.269 E18.23567
G1 X103.032 Y189.496 E18.26335
G1 X102.633 Y188.909 E18.2842
G1 X102.152 Y188.131 E18.31107
G1 X101.74 Y187.313 E18.33798
G1 X101.402 Y186.462 E18.36487
G1 X101.139 Y185.585 E18.39177
G1 X100.954 Y184.689 E18.41865
G1 X100.825 Y183.34 E18.45845
G1 X100.817 Y183.08 E18.4661
G1 X100.813 Y182.6 E18.4802
G1 X100.821 Y182.069 E18.4958
G1 X100.875 Y181.155 E18.52269
G1 X100.945 Y180.614 E18.53872
G1 X101.15 Y179.302 E18.57772
G1 X101.242 Y178.764 E18.59376
G1 X101.593 Y176.288 E18.66722
G1 X101.878 Y173.763 E18.74186
G1 X102.088 Y171.257 E18.81573
G1 X102.229 Y168.745 E18.88964
G1 X102.309 Y164.875 E19.00335
G1 X102.31 Y135.059 E19.8792
G1 X102.273 Y132.465 E19.95541
G1 X102.165 Y129.913 E20.03044
G1 X101.986 Y127.391 E20.10472
G1 X101.735 Y124.861 E20.1794
G1 X101.42 Y122.395 E20.25243
G1 X100.948 Y119.42 E20.34091
G1 X100.824 Y118.109 E20.3796
G1 X100.816 Y117.856 E20.38703
G1 X100.811 Y117.537 E20.3964
G1 X100.81 Y115.655 E20.45169
G1 X100.819 Y115.005 E20.47078
G1 X100.872 Y114.091 E20.49768
G1 X101.004 Y113.185 E20.52457
G1 X101.215 Y112.294 E20.55147
G1 X101.502 Y111.425 E20.57835
G1 X101.865 Y110.585 E20.60523
G1 X102.299 Y109.779 E20.63213
G1 X102.802 Y109.014 E20.65902
G1 X103.37 Y108.296 E20.68591
G1 X103.998 Y107.63 E20.7128
G1 X104.682 Y107.022 E20.73969
G1 X105.417 Y106.476 E20.76658
G1 X106.196 Y105.996 E20.79346
G1 X107.015 Y105.585 E20.82038
G1 X107.866 Y105.248 E20.84727
G1 X108.743 Y104.986 E20.87415
G1 X109.64 Y104.802 E20.90105
G1 X110.964 Y104.675 E20.94012
G1 X111.278 Y104.665 E20.94935
G1 X111.612 Y104.66 E20.95916
G1 X116.182 Y104.661 E21.09341
G1 X117.951 Y104.688 E21.14538
G0 F6000 X117.959 Y104.368
G1 F600 X118.848 Y104.392 E21.17151
G1 X121.398 Y104.39 E21.24641
G1 X123.608 Y104.34 E21.31135
G1 X128.187 Y104.341 E21.44586
G1 X129.959 Y104.368 E21.49792
G1 X130.848 Y104.392 E21.52404
G1 X133.398 Y104.39 E21.59895
G1 X135.608 Y104.34 E21.66388
G1 X140.187 Y104.341 E21.79839
G1 X141.959 Y104.368 E21.85045
G1 X142.848 Y104.392 E21.87658
G1 X145.398 Y104.39 E21.95149
G1 X147.608 Y104.34 E22.01642
G1 X152.187 Y104.341 E22.15093
G1 X153.959 Y104.368 E22.20299
G1 X154.848 Y104.392 E22.22911
G1 X157.398 Y104.39 E22.30402
G1 X159.608 Y104.34 E22.36896
G1 X164.187 Y104.341 E22.50347
G1 X165.959 Y104.368 E22.55553
G1 X166.848 Y104.392 E22.58165
G1 X169.398 Y104.39 E22.65656
G1 X171.608 Y104.34 E22.72149
G1 X176.18 Y104.341 E22.8558
G1 X177.049 Y104.354 E22.88133
G1 X179.622 Y104.427 E22.95694
G1 X182.122 Y104.427 E23.03038
G1 X183.574 Y104.386 E23.07305
G1 X185.612 Y104.34 E23.13293
G1 X190.177 Y104.341 E23.26703
G1 X190.835 Y104.35 E23.28636
G1 X191.763 Y104.403 E23.31367
G1 X192.682 Y104.535 E23.34094
G1 X193.587 Y104.746 E23.36824
G1 X194.471 Y105.034 E23.39555
G1 X195.327 Y105.396 E23.42285
G1 X196.148 Y105.831 E23.45014
G1 X196.929 Y106.335 E23.47745
G1 X197.663 Y106.904 E23.50473
G1 X198.346 Y107.535 E23.53204
G1 X198.972 Y108.221 E23.55932
G1 X199.537 Y108.959 E23.58663
G1 X200.037 Y109.743 E23.61394
G1 X200.467 Y110.567 E23.64125
G1 X200.824 Y111.424 E23.66852
G1 X201.107 Y112.31 E23.69584
G1 X201.313 Y113.216 E23.72313
G1 X201.462 Y114.414 E23.7586
G1 X201.485 Y114.751 E23.76852
G1 X201.51 Y115.486 E23.79012
G1 X201.51 Y162.132 E25.16036
G1 X201.5 Y162.828 E25.18081
G1 X201.447 Y163.756 E25.20812
G1 X201.268 Y164.906 E25.2423
G1 X200.623 Y167.959 E25.33397
G1 X200.163 Y170.459 E25.40864
G1 X199.779 Y172.938 E25.48233
G1 X199.46 Y175.471 E25.55732
G1 X199.217 Y177.965 E25.63093
G1 X199.044 Y180.474 E25.70481
G1 X198.941 Y183.029 E25.77993
G1 X198.925 Y183.916 E25.80599
G1 X198.898 Y185.082 E25.84025
G1 X198.837 Y186.009 E25.86754
G1 X198.696 Y186.928 E25.89485
G1 X198.476 Y187.831 E25.92215
G1 X198.18 Y188.712 E25.94945
G1 X197.809 Y189.564 E25.97675
G1 X197.367 Y190.381 E26.00404
G1 X196.855 Y191.157 E26.03135
G1 X196.279 Y191.886 E26.05864
G1 X195.642 Y192.563 E26.08594
G1 X194.95 Y193.183 E26.11324
G1 X194.207 Y193.74 E26.14052
G1 X193.418 Y194.232 E26.16783
G1 X192.59 Y194.655 E26.19514
G1 X191.729 Y195.004 E26.22243
G1 X190.841 Y195.279 E26.24974
G1 X189.933 Y195.475 E26.27703
G1 X189.011 Y195.594 E26.30434
G1 X188.467 Y195.626 E26.32034
G1 X187.642 Y195.654 E26.34459
G1 X187.137 Y195.659 E26.35943
G1 X186.129 Y195.642 E26.38904
G1 X185.131 Y195.599 E26.41839
G1 X184.052 Y195.539 E26.45013
G1 X181.525 Y195.471 E26.52439
G1 X178.991 Y195.475 E26.59883
G1 X176.48 Y195.549 E26.67262
G1 X176.02 Y195.574 E26.68615
G1 X174.441 Y195.641 E26.73258
G1 X173.135 Y195.659 E26.77095
G1 X172.13 Y195.642 E26.80047
G1 X171.06 Y195.597 E26.83193
G1 X168.476 Y195.526 E26.90787
G1 X165.97 Y195.528 E26.98148
G1 X162.423 Y195.643 E27.08573
G1 X161.453 Y195.659 E27.11423
G1 X161.135 Y195.659 E27.12357
G1 X160.13 Y195.642 E27.1531
G1 X159.06 Y195.597 E27.18456
G1 X156.476 Y195.526 E27.26049
G1 X153.97 Y195.528 E27.33411
G1 X150.423 Y195.643 E27.43835
G1 X149.453 Y195.659 E27.46685
G1 X149.135 Y195.659 E27.47619
G1 X148.13 Y195.642 E27.50572
G1 X147.06 Y195.597 E27.53718
G1 X144.476 Y195.526 E27.61311
G1 X141.97 Y195.528 E27.68673
G1 X138.423 Y195.643 E27.79098
G1 X137.453 Y195.659 E27.81948
G1 X137.135 Y195.659 E27.82882
G1 X136.13 Y195.642 E27.85834
