;FLAVOR:Marlin
;TIME:10317
;Filament used: 6.82604m
;Layer height: 0.16
;MINX:120.799
;MINY:107.299
;MINZ:0.16
;MAXX:161.15
;MAXY:192.701
;MAXZ:25.92
;Generated with Cura_SteamEngine 4.6.1
M140 S60
M105
M190 S60
M104 S230
M105
M109 S230
M82 ;absolute extrusion mode
M201 X500.00 Y500.00 Z100.00 E5000.00 ;Setup machine max acceleration
M203 X500.00 Y500.00 Z10.00 E50.00 ;Setup machine max feedrate
M204 P500.00 R1000.00 T500.00 ;Setup Print/Retract/Travel acceleration
M205 X8.00 Y8.00 Z0.40 E5.00 ;Setup Jerk
M220 S100 ;Reset Feedrate
M221 S100 ;Reset Flowrate

G28 ;Home

G92 E0 ;Reset Extruder
G1 Z2.0 F3000 ;Move Z Axis up
G1 X10.1 Y20 Z0.28 F5000.0 ;Move to start position
G1 X10.1 Y200.0 Z0.28 F1500.0 E15 ;Draw the first line
G1 X10.4 Y200.0 Z0.28 F5000.0 ;Move to side a little
G1 X10.4 Y20 Z0.28 F1500.0 E30 ;Draw the second line
G92 E0 ;Reset Extruder
G1 Z2.0 F3000 ;Move Z Axis up

G92 E0
G92 E0
G1 F2700 E-5
;LAYER_COUNT:137
;LAYER:0
M107
G0 F6000 X122.922 Y110.181 Z0.16
;TYPE:SKIRT
G1 F2700 E0
G1 F600 X123.73 Y109.391 E0.03319
G1 X123.905 Y109.243 E0.03993
G1 X124.535 Y108.763 E0.06319
G1 X125.21 Y108.349 E0.08645
G1 X126.264 Y107.87 E0.12046
G1 X126.479 Y107.791 E0.12719
G1 X127.235 Y107.556 E0.15045
G1 X128.011 Y107.398 E0.17371
G1 X129.177 Y107.31 E0.20806
G1 X143.036 Y107.3 E0.61517
G1 X143.827 Y107.339 E0.63844
G1 X144.61 Y107.458 E0.6617
G1 X145.019 Y107.564 E0.67411
G1 X145.585 Y107.429 E0.69121
G1 X146.37 Y107.325 E0.71447
G1 X147.009 Y107.299 E0.73325
G1 X150.712 Y107.3 E0.84203
G1 X151.503 Y107.34 E0.8653
G1 X152.285 Y107.46 E0.88854
G1 X153.052 Y107.658 E0.91181
G1 X153.795 Y107.932 E0.93507
G1 X154.506 Y108.28 E0.95832
G1 X155.178 Y108.698 E0.98157
G1 X155.805 Y109.181 E1.00482
G1 X156.38 Y109.726 E1.02809
G1 X156.897 Y110.325 E1.05134
G1 X157.351 Y110.974 E1.0746
G1 X157.738 Y111.665 E1.09787
G1 X158.052 Y112.391 E1.1211
G1 X158.292 Y113.146 E1.14437
G1 X158.455 Y113.921 E1.16764
G1 X158.538 Y114.708 E1.19089
G1 X158.55 Y115.14 E1.20358
G1 X158.55 Y117.14 E1.26233
G1 X158.51 Y117.931 E1.2856
G1 X158.391 Y118.713 E1.30883
G1 X158.251 Y119.255 E1.32528
G1 X158.251 Y119.943 E1.34549
G1 X158.814 Y120.467 E1.36808
G1 X159.424 Y121.175 E1.39553
G1 X159.533 Y121.318 E1.40081
G1 X159.981 Y121.971 E1.42408
G1 X160.36 Y122.666 E1.44733
G1 X160.667 Y123.396 E1.47059
G1 X160.9 Y124.153 E1.49386
G1 X161.054 Y124.929 E1.5171
G1 X161.138 Y126.069 E1.55068
G1 X161.15 Y173.85 E2.95426
G1 X161.11 Y174.641 E2.97753
G1 X160.991 Y175.423 E3.00076
G1 X160.693 Y176.489 E3.03328
G1 X160.633 Y176.657 E3.03852
G1 X160.33 Y177.388 E3.06176
G1 X159.954 Y178.085 E3.08503
G1 X159.51 Y178.74 E3.10827
G1 X159.002 Y179.348 E3.13155
G1 X158.435 Y179.9 E3.15479
G1 X158.256 Y180.043 E3.16152
G1 X158.254 Y180.735 E3.18185
G1 X158.424 Y181.462 E3.20378
G1 X158.526 Y182.247 E3.22704
G1 X158.55 Y182.856 E3.24494
G1 X158.551 Y184.857 E3.30372
G1 X158.511 Y185.648 E3.32698
G1 X158.392 Y186.43 E3.35022
G1 X158.195 Y187.197 E3.37348
G1 X157.921 Y187.94 E3.39675
G1 X157.574 Y188.652 E3.42001
G1 X157.156 Y189.324 E3.44326
G1 X156.673 Y189.952 E3.46653
G1 X156.13 Y190.527 E3.48977
G1 X155.531 Y191.045 E3.51303
G1 X154.882 Y191.499 E3.53629
G1 X154.192 Y191.886 E3.55953
G1 X153.465 Y192.201 E3.58281
G1 X152.711 Y192.442 E3.60606
G1 X151.936 Y192.605 E3.62932
G1 X151.149 Y192.689 E3.65257
G1 X150.711 Y192.701 E3.66545
G1 X147.007 Y192.701 E3.77425
G1 X146.216 Y192.661 E3.79752
G1 X145.434 Y192.542 E3.82075
G1 X145.028 Y192.437 E3.83307
G1 X144.465 Y192.571 E3.85007
G1 X143.68 Y192.675 E3.87333
G1 X143.043 Y192.701 E3.89206
G1 X129.301 Y192.701 E4.29574
G1 X128.51 Y192.661 E4.319
G1 X127.94 Y192.582 E4.33591
G1 X127.713 Y192.542 E4.34268
G1 X126.942 Y192.365 E4.36592
G1 X126.192 Y192.112 E4.38917
G1 X125.147 Y191.607 E4.42326
G1 X124.95 Y191.493 E4.42995
G1 X124.286 Y191.062 E4.4532
G1 X123.668 Y190.567 E4.47646
G1 X122.891 Y189.77 E4.50916
G1 X122.743 Y189.595 E4.51589
G1 X122.263 Y188.965 E4.53916
G1 X121.849 Y188.29 E4.56242
G1 X121.37 Y187.236 E4.59643
G1 X121.291 Y187.021 E4.60315
G1 X121.056 Y186.265 E4.62641
G1 X120.898 Y185.489 E4.64967
G1 X120.81 Y184.359 E4.68297
G1 X120.799 Y182.293 E4.74366
G1 X120.835 Y181.502 E4.76692
G1 X120.919 Y180.885 E4.78521
G1 X120.959 Y180.659 E4.79195
G1 X121.136 Y179.887 E4.81522
G1 X121.39 Y179.137 E4.83848
G1 X121.885 Y178.113 E4.87189
G1 X121.999 Y177.915 E4.8786
G1 X122.428 Y177.25 E4.90185
G1 X122.922 Y176.631 E4.92511
G1 X123.73 Y175.841 E4.95831
G1 X123.905 Y175.693 E4.96504
G1 X124.535 Y175.213 E4.9883
G1 X125.21 Y174.799 E5.01157
G1 X126.264 Y174.32 E5.04557
G1 X126.479 Y174.241 E5.0523
G1 X127.235 Y174.006 E5.07556
G1 X128.011 Y173.848 E5.09882
G1 X128.639 Y173.778 E5.11738
G1 X129.301 Y173.75 E5.13685
G1 X130.76 Y173.75 E5.17971
G1 X131.551 Y173.79 E5.20297
G1 X131.8 Y173.828 E5.21037
G1 X131.8 Y126.173 E6.61025
G1 X131.194 Y126.238 E6.62816
G1 X130.765 Y126.25 E6.64076
G1 X129.306 Y126.251 E6.68362
G1 X128.516 Y126.212 E6.70686
G1 X127.94 Y126.132 E6.72394
G1 X127.713 Y126.092 E6.73071
G1 X126.942 Y125.915 E6.75395
G1 X126.192 Y125.662 E6.7772
G1 X125.147 Y125.157 E6.81129
G1 X124.95 Y125.043 E6.81798
G1 X124.286 Y124.612 E6.84123
G1 X123.668 Y124.117 E6.86449
G1 X122.891 Y123.32 E6.89719
G1 X122.743 Y123.145 E6.90392
G1 X122.263 Y122.515 E6.92719
G1 X121.849 Y121.84 E6.95045
G1 X121.37 Y120.786 E6.98446
G1 X121.291 Y120.571 E6.99119
G1 X121.056 Y119.815 E7.01444
G1 X120.898 Y119.039 E7.03771
G1 X120.81 Y117.909 E7.071
G1 X120.799 Y115.843 E7.13169
G1 X120.835 Y115.052 E7.15495
G1 X120.919 Y114.435 E7.17324
G1 X120.959 Y114.209 E7.17998
G1 X121.136 Y113.437 E7.20325
G1 X121.39 Y112.687 E7.22651
G1 X121.885 Y111.663 E7.25992
G1 X121.999 Y111.465 E7.26663
G1 X122.428 Y110.8 E7.28988
G1 X122.922 Y110.181 E7.31314
G0 F6000 X123.183 Y110.369
G1 F600 X123.937 Y109.635 E7.34406
G1 X124.112 Y109.487 E7.35079
G1 X124.729 Y109.018 E7.37355
G1 X125.391 Y108.614 E7.39634
G1 X126.374 Y108.17 E7.42802
G1 X126.589 Y108.091 E7.43475
G1 X127.33 Y107.862 E7.45753
G1 X128.09 Y107.71 E7.4803
G1 X129.178 Y107.63 E7.51235
G1 X143.037 Y107.62 E7.91946
G1 X143.811 Y107.659 E7.94222
G1 X144.577 Y107.778 E7.965
G1 X145.006 Y107.891 E7.97803
G1 X145.738 Y107.727 E8.00006
G1 X146.508 Y107.636 E8.02284
G1 X147.009 Y107.619 E8.03757
G1 X150.712 Y107.62 E8.14634
G1 X151.486 Y107.66 E8.16911
G1 X152.252 Y107.78 E8.19189
G1 X153.002 Y107.978 E8.21467
G1 X153.727 Y108.252 E8.23744
G1 X154.421 Y108.599 E8.26023
G1 X155.074 Y109.016 E8.28299
G1 X155.682 Y109.498 E8.30578
G1 X156.236 Y110.04 E8.32855
G1 X156.732 Y110.636 E8.35133
G1 X157.164 Y111.28 E8.37411
G1 X157.527 Y111.965 E8.39688
G1 X157.818 Y112.684 E8.41967
G1 X158.033 Y113.429 E8.44244
G1 X158.17 Y114.192 E8.46522
G1 X158.23 Y115.14 E8.49312
G1 X158.23 Y117.14 E8.55187
G1 X158.19 Y117.914 E8.57464
G1 X158.071 Y118.68 E8.59741
G1 X157.931 Y119.21 E8.61351
G1 X157.931 Y120.102 E8.63971
G1 X158.101 Y120.234 E8.64604
G1 X158.662 Y120.77 E8.66883
G1 X159.17 Y121.369 E8.6919
G1 X159.279 Y121.512 E8.69718
G1 X159.716 Y122.152 E8.71995
G1 X160.086 Y122.834 E8.74274
G1 X160.383 Y123.55 E8.76551
G1 X160.605 Y124.293 E8.78829
G1 X160.749 Y125.055 E8.81107
G1 X160.818 Y126.069 E8.84092
G1 X160.83 Y173.85 E10.24451
G1 X160.79 Y174.624 E10.26727
G1 X160.671 Y175.391 E10.29008
G1 X160.392 Y176.381 E10.32029
G1 X160.332 Y176.549 E10.32553
G1 X160.034 Y177.265 E10.34831
G1 X159.664 Y177.946 E10.37108
G1 X159.225 Y178.586 E10.39388
G1 X158.723 Y179.177 E10.41665
G1 X158.163 Y179.713 E10.43943
G1 X157.936 Y179.889 E10.44786
G1 X157.934 Y180.785 E10.47418
G1 X157.958 Y180.857 E10.47641
G1 X158.126 Y181.614 E10.49919
G1 X158.215 Y182.384 E10.52196
G1 X158.23 Y182.856 E10.53583
G1 X158.231 Y184.857 E10.59461
G1 X158.191 Y185.632 E10.61741
G1 X158.072 Y186.398 E10.64018
G1 X157.875 Y187.148 E10.66296
G1 X157.601 Y187.873 E10.68573
G1 X157.255 Y188.567 E10.70851
G1 X156.838 Y189.221 E10.73129
G1 X156.357 Y189.828 E10.75404
G1 X155.815 Y190.383 E10.77683
G1 X155.219 Y190.88 E10.79963
G1 X154.576 Y191.312 E10.82238
G1 X153.891 Y191.676 E10.84517
G1 X153.172 Y191.967 E10.86795
G1 X152.428 Y192.182 E10.8907
G1 X151.665 Y192.32 E10.91348
G1 X150.711 Y192.381 E10.94156
G1 X147.007 Y192.381 E11.05037
G1 X146.233 Y192.341 E11.07313
G1 X145.467 Y192.222 E11.09591
G1 X145.04 Y192.109 E11.10888
G1 X144.312 Y192.273 E11.1308
G1 X143.542 Y192.364 E11.15358
G1 X143.043 Y192.381 E11.16825
G1 X129.301 Y192.381 E11.57192
G1 X128.527 Y192.341 E11.59469
G1 X127.996 Y192.267 E11.61044
G1 X127.769 Y192.227 E11.61721
G1 X127.013 Y192.053 E11.64
G1 X126.28 Y191.803 E11.66275
G1 X125.308 Y191.33 E11.6945
G1 X125.111 Y191.216 E11.70119
G1 X124.46 Y190.793 E11.72399
G1 X123.857 Y190.306 E11.74676
G1 X123.135 Y189.563 E11.77719
G1 X122.987 Y189.388 E11.78393
G1 X122.518 Y188.771 E11.80669
G1 X122.114 Y188.109 E11.82948
G1 X121.67 Y187.126 E11.86116
G1 X121.591 Y186.911 E11.86789
G1 X121.362 Y186.17 E11.89067
G1 X121.21 Y185.41 E11.91344
G1 X121.13 Y184.357 E11.94446
G1 X121.119 Y182.291 E12.00515
G1 X121.155 Y181.516 E12.02794
G1 X121.234 Y180.94 E12.04502
G1 X121.274 Y180.714 E12.05176
G1 X121.448 Y179.959 E12.07452
G1 X121.7 Y179.225 E12.09732
G1 X122.162 Y178.273 E12.1284
G1 X122.276 Y178.075 E12.13511
G1 X122.697 Y177.424 E12.15789
G1 X123.183 Y176.819 E12.18068
G1 X123.937 Y176.085 E12.2116
G1 X124.112 Y175.937 E12.21833
G1 X124.729 Y175.468 E12.24109
G1 X125.391 Y175.064 E12.26388
G1 X126.374 Y174.62 E12.29556
G1 X126.589 Y174.541 E12.30229
G1 X127.33 Y174.312 E12.32507
G1 X128.09 Y174.16 E12.34784
G1 X128.666 Y174.097 E12.36486
G1 X129.301 Y174.07 E12.38353
G1 X130.76 Y174.07 E12.42639
G1 X131.534 Y174.11 E12.44916
G1 X132.12 Y174.201 E12.46658
G1 X132.12 Y125.796 E13.88849
G1 X131.71 Y125.87 E13.90073
G1 X130.765 Y125.93 E13.92854
G1 X129.306 Y125.931 E13.9714
G1 X128.532 Y125.892 E13.99417
G1 X127.996 Y125.817 E14.01007
G1 X127.769 Y125.777 E14.01684
G1 X127.013 Y125.603 E14.03963
G1 X126.28 Y125.353 E14.06238
G1 X125.308 Y124.88 E14.09413
G1 X125.111 Y124.766 E14.10082
G1 X124.46 Y124.343 E14.12362
G1 X123.857 Y123.856 E14.14639
G1 X123.135 Y123.113 E14.17682
G1 X122.987 Y122.938 E14.18356
G1 X122.518 Y122.321 E14.20632
G1 X122.114 Y121.659 E14.22911
G1 X121.67 Y120.676 E14.26079
G1 X121.591 Y120.461 E14.26752
G1 X121.362 Y119.72 E14.2903
G1 X121.21 Y118.96 E14.31307
G1 X121.13 Y117.907 E14.34409
G1 X121.119 Y115.841 E14.40478
G1 X121.155 Y115.066 E14.42757
G1 X121.234 Y114.49 E14.44465
G1 X121.274 Y114.264 E14.45139
G1 X121.448 Y113.509 E14.47415
G1 X121.7 Y112.775 E14.49695
G1 X122.162 Y111.823 E14.52803
G1 X122.276 Y111.625 E14.53474
G1 X122.697 Y110.974 E14.55752
G1 X123.183 Y110.369 E14.58031
G0 F6000 X123.443 Y110.558
G1 F600 X124.144 Y109.879 E14.60898
G1 X124.319 Y109.731 E14.61572
G1 X124.923 Y109.273 E14.63798
G1 X125.572 Y108.88 E14.66027
G1 X126.485 Y108.471 E14.68966
G1 X126.7 Y108.392 E14.69639
G1 X127.425 Y108.168 E14.71868
G1 X128.169 Y108.022 E14.74095
G1 X129.178 Y107.95 E14.77066
G1 X143.037 Y107.94 E15.17778
G1 X143.794 Y107.979 E15.20004
G1 X144.544 Y108.098 E15.22235
G1 X145.018 Y108.226 E15.23677
G1 X145.146 Y108.184 E15.24073
G1 X145.888 Y108.026 E15.26302
G1 X147.009 Y107.939 E15.29604
G1 X150.712 Y107.94 E15.40482
G1 X151.47 Y107.98 E15.42712
G1 X152.219 Y108.1 E15.4494
G1 X152.951 Y108.298 E15.47168
G1 X153.659 Y108.572 E15.49398
G1 X154.334 Y108.918 E15.51626
G1 X154.968 Y109.334 E15.53853
G1 X155.555 Y109.814 E15.56081
G1 X156.089 Y110.354 E15.58312
G1 X156.563 Y110.946 E15.6054
G1 X156.971 Y111.586 E15.62769
G1 X157.311 Y112.264 E15.64997
G1 X157.577 Y112.975 E15.67227
G1 X157.766 Y113.709 E15.69454
G1 X157.878 Y114.46 E15.71684
G1 X157.91 Y115.14 E15.73684
G1 X157.91 Y117.14 E15.79559
G1 X157.87 Y117.898 E15.81789
G1 X157.751 Y118.647 E15.84016
G1 X157.611 Y119.165 E15.85593
G1 X157.611 Y120.258 E15.88803
G1 X157.966 Y120.541 E15.90137
G1 X158.506 Y121.074 E15.92366
G1 X158.915 Y121.563 E15.94239
G1 X159.024 Y121.706 E15.94767
G1 X159.452 Y122.333 E15.96997
G1 X159.811 Y123.001 E15.99225
G1 X160.098 Y123.704 E16.01455
G1 X160.309 Y124.432 E16.03682
G1 X160.443 Y125.179 E16.05911
G1 X160.498 Y126.069 E16.0853
G1 X160.51 Y173.85 E17.48889
G1 X160.47 Y174.608 E17.51118
G1 X160.351 Y175.357 E17.53346
G1 X160.091 Y176.274 E17.56146
G1 X160.031 Y176.442 E17.5667
G1 X159.738 Y177.142 E17.58899
G1 X159.374 Y177.807 E17.61126
G1 X158.941 Y178.43 E17.63355
G1 X158.445 Y179.005 E17.65586
G1 X157.892 Y179.524 E17.67814
G1 X157.617 Y179.732 E17.68826
G1 X157.614 Y180.844 E17.72093
G1 X157.671 Y181.021 E17.72639
G1 X157.826 Y181.764 E17.74869
G1 X157.91 Y182.856 E17.78086
G1 X157.911 Y184.857 E17.83964
G1 X157.871 Y185.615 E17.86194
G1 X157.752 Y186.364 E17.88422
G1 X157.555 Y187.097 E17.90651
G1 X157.282 Y187.805 E17.9288
G1 X156.936 Y188.48 E17.95108
G1 X156.52 Y189.115 E17.97338
G1 X156.04 Y189.702 E17.99566
G1 X155.501 Y190.236 E18.01795
G1 X154.909 Y190.71 E18.04022
G1 X154.27 Y191.12 E18.06253
G1 X153.592 Y191.459 E18.08479
G1 X152.882 Y191.726 E18.10708
G1 X152.147 Y191.916 E18.12938
G1 X151.397 Y192.028 E18.15165
G1 X150.711 Y192.061 E18.17183
G1 X147.007 Y192.061 E18.28063
G1 X146.249 Y192.021 E18.30293
G1 X145.5 Y191.902 E18.32521
G1 X145.03 Y191.775 E18.33951
G1 X144.904 Y191.816 E18.3434
G1 X144.162 Y191.974 E18.36569
G1 X143.043 Y192.061 E18.39866
G1 X129.301 Y192.061 E18.80233
G1 X128.543 Y192.021 E18.82463
G1 X128.052 Y191.952 E18.8392
G1 X127.825 Y191.912 E18.84597
G1 X127.085 Y191.741 E18.86828
G1 X126.368 Y191.493 E18.89056
G1 X125.468 Y191.053 E18.91999
G1 X125.271 Y190.939 E18.92668
G1 X124.635 Y190.525 E18.94897
G1 X124.046 Y190.046 E18.97127
G1 X123.379 Y189.356 E18.99946
G1 X123.231 Y189.181 E19.0062
G1 X122.773 Y188.577 E19.02846
G1 X122.38 Y187.928 E19.05075
G1 X121.971 Y187.015 E19.08014
G1 X121.892 Y186.8 E19.08687
G1 X121.668 Y186.075 E19.10916
G1 X121.522 Y185.331 E19.13143
G1 X121.45 Y184.355 E19.16018
G1 X121.439 Y182.289 E19.22087
G1 X121.475 Y181.532 E19.24313
G1 X121.549 Y180.996 E19.25903
G1 X121.589 Y180.77 E19.26577
G1 X121.761 Y180.031 E19.28806
G1 X122.009 Y179.314 E19.31034
G1 X122.439 Y178.432 E19.33917
G1 X122.553 Y178.234 E19.34588
G1 X122.966 Y177.598 E19.36815
G1 X123.443 Y177.008 E19.39044
G1 X124.144 Y176.329 E19.41911
G1 X124.319 Y176.181 E19.42584
G1 X124.923 Y175.723 E19.44811
G1 X125.572 Y175.33 E19.4704
G1 X126.485 Y174.921 E19.49978
G1 X126.7 Y174.842 E19.50651
G1 X127.425 Y174.618 E19.5288
G1 X128.169 Y174.472 E19.55108
G1 X128.693 Y174.416 E19.56656
G1 X129.301 Y174.39 E19.58443
G1 X130.76 Y174.39 E19.62729
G1 X131.518 Y174.43 E19.64959
G1 X132.267 Y174.549 E19.67187
G1 X132.44 Y174.596 E19.67713
G1 X132.44 Y125.402 E21.12222
G1 X132.193 Y125.466 E21.12972
G1 X131.442 Y125.578 E21.15202
G1 X130.765 Y125.61 E21.17193
G1 X129.306 Y125.611 E21.21479
G1 X128.548 Y125.572 E21.23709
G1 X128.052 Y125.502 E21.2518
G1 X127.825 Y125.462 E21.25857
G1 X127.085 Y125.291 E21.28088
G1 X126.368 Y125.043 E21.30317
G1 X125.468 Y124.603 E21.3326
G1 X125.271 Y124.489 E21.33928
G1 X124.635 Y124.075 E21.36158
G1 X124.046 Y123.596 E21.38388
G1 X123.379 Y122.906 E21.41207
G1 X123.231 Y122.731 E21.4188
G1 X122.773 Y122.127 E21.44107
G1 X122.38 Y121.478 E21.46336
G1 X121.971 Y120.565 E21.49274
G1 X121.892 Y120.35 E21.49947
G1 X121.668 Y119.625 E21.52176
G1 X121.522 Y118.881 E21.54404
G1 X121.45 Y117.905 E21.57278
G1 X121.439 Y115.839 E21.63347
G1 X121.475 Y115.082 E21.65574
G1 X121.549 Y114.546 E21.67163
G1 X121.589 Y114.32 E21.67837
G1 X121.761 Y113.581 E21.70066
G1 X122.009 Y112.864 E21.72295
G1 X122.439 Y111.982 E21.75177
G1 X122.553 Y111.784 E21.75848
G1 X122.966 Y111.148 E21.78076
G1 X123.443 Y110.558 E21.80305
G0 F6000 X123.704 Y110.748
G1 F600 X124.35 Y110.124 E21.82943
G1 X124.525 Y109.976 E21.83616
G1 X125.117 Y109.528 E21.85797
G1 X125.753 Y109.147 E21.87975
G1 X126.595 Y108.771 E21.90684
G1 X126.81 Y108.692 E21.91357
G1 X127.519 Y108.474 E21.93536
G1 X128.247 Y108.334 E21.95713
G1 X129.178 Y108.27 E21.98455
G1 X143.037 Y108.26 E22.39166
G1 X143.778 Y108.299 E22.41346
G1 X144.51 Y108.418 E22.43524
G1 X145.026 Y108.56 E22.45096
