;FLAVOR:Marlin
;TIME:4654
;Filament used: 8.06068m
;Layer height: 0.28
;MINX:42.485
;MINY:35.652
;MINZ:0.28
;MAXX:259.199
;MAXY:244.006
;MAXZ:4.76
;Generated with Cura_SteamEngine 4.5.0
M140 S60
M105
M190 S60
M104 S210
M105
M109 S210
M82 ;absolute extrusion mode
M201 X500.00 Y500.00 Z100.00 E5000.00 ;Setup machine max acceleration
M203 X500.00 Y500.00 Z10.00 E50.00 ;Setup machine max feedrate
M204 P500.00 R1000.00 T500.00 ;Setup Print/Retract/Travel acceleration
M205 X8.00 Y8.00 Z0.40 E5.00 ;Setup Jerk
M220 S100 ;Reset Feedrate
M221 S100 ;Reset Flowrate

G28 ;Home

G92 E0 ;Reset Extruder
G1 Z2.0 F3000 ;Move Z Axis up
G1 X10.1 Y20 Z0.28 F5000.0 ;Move to start position
G1 X10.1 Y200.0 Z0.28 F1500.0 E15 ;Draw the first line
G1 X10.4 Y200.0 Z0.28 F5000.0 ;Move to side a little
G1 X10.4 Y20 Z0.28 F1500.0 E30 ;Draw the second line
G92 E0 ;Reset Extruder
G1 Z2.0 F3000 ;Move Z Axis up

G92 E0
G92 E0
G1 F2700 E-5
;LAYER_COUNT:17
;LAYER:0
M107
;MESH:Visor_Frame_NORTH_AMERICA_letter_3-hole_v4.stl
G0 F6000 X123.365 Y242.547 Z0.28
;TYPE:WALL-INNER
G1 F2700 E0
G1 F1200 X123.065 Y242.547 E0.02095
G1 X119.214 Y242.546 E0.28993
G1 X119.128 Y242.546 E0.29594
G1 X119.128 Y242.119 E0.32576
G1 X119.128 Y242.033 E0.33116
G1 X119.138 Y239.144 E0.53295
G1 X114.618 Y239.019 E0.84878
G1 X110.997 Y238.844 E1.10198
G1 X107.37 Y238.591 E1.35593
G1 X103.742 Y238.262 E1.61037
G1 X100.144 Y237.861 E1.86324
G1 X96.538 Y237.381 E2.11733
G1 X92.948 Y236.827 E2.37104
G1 X89.386 Y236.201 E2.62365
G1 X85.807 Y235.495 E2.87844
G1 X82.265 Y234.719 E3.13171
G1 X78.727 Y233.866 E3.3859
G1 X75.222 Y232.943 E3.63906
G1 X71.75 Y231.95 E3.89129
G1 X71.026 Y231.699 E3.94481
G1 X70.347 Y231.386 E3.99703
G1 X69.715 Y231.021 E4.04801
G1 X69.503 Y230.872 E4.06611
G1 X69.088 Y230.572 E4.10188
G1 X68.919 Y230.428 E4.11738
G1 X68.542 Y230.095 E4.15252
G1 X68.374 Y229.924 E4.16926
G1 X68.037 Y229.564 E4.2037
G1 X67.866 Y229.356 E4.22251
G1 X67.572 Y228.973 E4.25623
G1 X67.423 Y228.754 E4.27474
G1 X67.169 Y228.343 E4.30848
G1 X67.052 Y228.133 E4.32527
G1 X66.827 Y227.677 E4.36079
G1 X66.735 Y227.467 E4.3768
G1 X66.548 Y226.976 E4.4135
G1 X66.477 Y226.763 E4.42918
G1 X66.343 Y226.267 E4.46507
G1 X66.289 Y226.042 E4.48123
G1 X66.169 Y225.298 E4.53387
G1 X66.123 Y224.578 E4.58426
G1 X66.178 Y222.847 E4.70522
G1 X66.126 Y221.875 E4.77321
G1 X65.987 Y220.91 E4.84131
G1 X65.768 Y219.96 E4.9094
G1 X65.464 Y219.033 E4.97754
G1 X65.083 Y218.137 E5.04555
G1 X64.623 Y217.276 E5.11373
G1 X64.09 Y216.46 E5.18181
G1 X63.489 Y215.693 E5.24987
G1 X62.822 Y214.981 E5.31801
G1 X62.096 Y214.332 E5.38602
G1 X61.317 Y213.747 E5.45407
G1 X60.489 Y213.232 E5.52218
G1 X59.618 Y212.791 E5.59036
G1 X58.714 Y212.429 E5.65838
G1 X57.781 Y212.146 E5.72648
G1 X56.828 Y211.946 E5.79449
G1 X55.138 Y211.742 E5.91339
G1 X54.454 Y211.595 E5.96226
G1 X53.776 Y211.384 E6.01185
G1 X53.112 Y211.106 E6.06213
G1 X52.475 Y210.77 E6.11243
G1 X51.885 Y210.387 E6.16156
G1 X51.324 Y209.945 E6.21145
G1 X50.797 Y209.444 E6.26223
G1 X50.336 Y208.919 E6.31103
G1 X49.908 Y208.332 E6.36178
G1 X49.547 Y207.728 E6.41092
G1 X49.234 Y207.075 E6.4615
G1 X48.985 Y206.406 E6.51136
G1 X48.8 Y205.724 E6.56072
G1 X48.674 Y205.01 E6.61136
G1 X48.304 Y201.885 E6.83115
G1 X48.111 Y199.978 E6.96503
G1 X47.998 Y198.761 E7.0504
G1 X47.842 Y196.838 E7.18515
G1 X47.755 Y195.624 E7.27016
G1 X47.636 Y193.701 E7.40474
G1 X47.578 Y192.478 E7.49025
G1 X47.496 Y190.56 E7.62434
G1 X47.398 Y186.535 E7.90556
G1 X44.267 Y186.49 E8.12427
G1 X43.967 Y186.486 E8.14522
G1 X43.971 Y186.186 E8.15877
G1 X44.019 Y183.328 E8.35842
G1 X44.023 Y183.029 E8.37931
G1 X44.322 Y183.033 E8.39283
G1 X47.409 Y183.085 E8.60847
G1 X47.551 Y178.676 E8.91658
G1 X47.741 Y175.176 E9.16141
G1 X48.011 Y171.683 E9.40611
G1 X48.363 Y168.175 E9.65236
G1 X48.792 Y164.704 E9.89664
G1 X49.304 Y161.23 E10.14191
G1 X49.895 Y157.755 E10.38811
G1 X50.561 Y154.314 E10.63291
G1 X51.307 Y150.89 E10.87767
G1 X52.131 Y147.476 E11.12298
G1 X53.036 Y144.071 E11.36906
G1 X54.012 Y140.712 E11.61338
G1 X55.069 Y137.363 E11.85866
G1 X56.2 Y134.039 E12.10391
G1 X57.409 Y130.742 E12.34918
G1 X58.697 Y127.461 E12.59537
G1 X60.048 Y124.235 E12.83966
G1 X61.485 Y121.016 E13.08588
G1 X62.982 Y117.855 E13.33017
G1 X64.558 Y114.718 E13.57538
G1 X66.212 Y111.605 E13.82159
G1 X67.925 Y108.547 E14.06641
G1 X69.716 Y105.518 E14.31219
G1 X71.563 Y102.548 E14.55648
G1 X73.485 Y99.61 E14.8017
G1 X75.474 Y96.718 E15.04685
G1 X77.537 Y93.859 E15.2931
G1 X79.648 Y91.07 E15.53741
G1 X81.831 Y88.32 E15.78265
G1 X84.081 Y85.614 E16.02846
G1 X86.391 Y82.96 E16.27421
G1 X88.746 Y80.375 E16.51846
G1 X91.17 Y77.835 E16.76369
G1 X93.681 Y75.323 E17.01177
G1 X94.207 Y74.746 E17.0663
G1 X94.683 Y74.089 E17.12297
G1 X95.081 Y73.381 E17.1797
G1 X95.397 Y72.635 E17.23629
G1 X95.626 Y71.855 E17.29307
G1 X95.765 Y71.057 E17.34964
G1 X95.813 Y70.247 E17.40632
G1 X95.77 Y69.437 E17.46297
G1 X95.635 Y68.636 E17.51971
G1 X95.411 Y67.862 E17.57599
G1 X95.215 Y67.377 E17.61253
G1 X95.097 Y67.104 E17.6333
G1 X94.707 Y66.4 E17.68951
G1 X94.235 Y65.741 E17.74613
G1 X93.887 Y65.347 E17.78284
G1 X93.686 Y65.134 E17.8033
G1 X93.302 Y64.787 E17.83945
G1 X93.078 Y64.598 E17.85992
G1 X92.657 Y64.296 E17.89611
G1 X92.412 Y64.134 E17.91662
G1 X91.96 Y63.88 E17.95284
G1 X91.698 Y63.748 E17.97333
G1 X91.224 Y63.547 E18.00929
G1 X90.947 Y63.444 E18.02993
G1 X90.45 Y63.299 E18.06609
G1 X90.165 Y63.228 E18.08661
G1 X89.655 Y63.14 E18.12275
G1 X89.364 Y63.102 E18.14325
G1 X88.844 Y63.071 E18.17964
G1 X88.552 Y63.069 E18.20003
G1 X88.035 Y63.096 E18.23619
G1 X87.744 Y63.126 E18.25663
G1 X87.233 Y63.211 E18.29281
G1 X86.947 Y63.274 E18.31326
G1 X86.446 Y63.417 E18.34965
G1 X86.17 Y63.513 E18.37006
G1 X85.689 Y63.71 E18.40637
G1 X85.426 Y63.838 E18.4268
G1 X84.973 Y64.086 E18.46287
G1 X84.725 Y64.243 E18.48337
G1 X84.301 Y64.542 E18.51961
G1 X84.072 Y64.727 E18.54017
G1 X83.686 Y65.072 E18.57633
G1 X83.482 Y65.278 E18.59658
G1 X83.133 Y65.667 E18.63308
G1 X82.955 Y65.898 E18.65345
G1 X82.652 Y66.32 E18.68974
G1 X82.501 Y66.571 E18.7102
G1 X82.249 Y67.025 E18.74646
G1 X82.128 Y67.289 E18.76675
G1 X81.928 Y67.767 E18.80294
G1 X81.837 Y68.047 E18.8235
G1 X81.693 Y68.544 E18.85964
G1 X81.635 Y68.832 E18.88016
G1 X81.547 Y69.344 E18.91645
G1 X81.523 Y69.635 E18.93684
G1 X81.494 Y70.151 E18.97294
G1 X81.501 Y70.445 E18.99348
G1 X81.53 Y70.963 E19.02972
G1 X81.573 Y71.253 E19.0502
G1 X81.66 Y71.764 E19.0864
G1 X81.736 Y72.047 E19.10687
G1 X81.879 Y72.545 E19.14306
G1 X81.986 Y72.817 E19.16347
G1 X82.184 Y73.297 E19.19974
G1 X82.323 Y73.557 E19.22033
G1 X82.574 Y74.008 E19.25638
G1 X82.739 Y74.249 E19.27678
G1 X83.043 Y74.676 E19.31339
G1 X83.526 Y75.217 E19.36405
G1 X83.672 Y75.393 E19.38002
G1 X83.744 Y75.519 E19.39016
G1 X83.793 Y75.653 E19.40012
G1 X83.819 Y75.802 E19.41069
G1 X83.818 Y75.947 E19.42081
G1 X83.793 Y76.09 E19.43095
G1 X83.742 Y76.229 E19.44129
G1 X83.669 Y76.356 E19.45153
G1 X83.577 Y76.464 E19.46144
G1 X83.463 Y76.56 E19.47185
G1 X83.337 Y76.632 E19.48198
G1 X83.2 Y76.682 E19.49217
G1 X83.058 Y76.707 E19.50224
G1 X82.911 Y76.706 E19.51251
G1 X82.768 Y76.681 E19.52265
G1 X82.629 Y76.63 E19.53299
G1 X82.504 Y76.557 E19.5431
G1 X82.372 Y76.447 E19.5551
G1 X81.856 Y75.88 E19.60865
G1 X81.375 Y75.246 E19.66423
G1 X80.953 Y74.57 E19.71989
G1 X80.59 Y73.852 E19.77609
G1 X80.297 Y73.112 E19.83168
G1 X80.07 Y72.346 E19.88748
G1 X79.914 Y71.568 E19.9429
G1 X79.83 Y70.78 E19.99825
G1 X79.823 Y70.495 E20.01816
G1 X79.816 Y69.97 E20.05484
G1 X79.874 Y69.182 E20.11002
G1 X79.914 Y68.921 E20.12847
G1 X80.006 Y68.386 E20.16638
G1 X80.068 Y68.139 E20.18417
G1 X80.204 Y67.626 E20.22124
G1 X80.29 Y67.375 E20.23977
G1 X80.477 Y66.864 E20.27778
G1 X80.583 Y66.629 E20.29578
G1 X80.807 Y66.153 E20.33253
G1 X80.936 Y65.921 E20.35107
G1 X81.207 Y65.461 E20.38836
G1 X81.356 Y65.244 E20.40674
G1 X81.678 Y64.795 E20.44534
G1 X81.833 Y64.607 E20.46236
G1 X82.177 Y64.208 E20.49915
G1 X82.368 Y64.016 E20.51807
G1 X82.753 Y63.643 E20.55551
G1 X82.962 Y63.467 E20.57459
G1 X83.368 Y63.14 E20.611
G1 X83.594 Y62.982 E20.63027
G1 X84.029 Y62.691 E20.66682
G1 X84.255 Y62.562 E20.685
G1 X84.741 Y62.299 E20.72359
G1 X84.975 Y62.191 E20.74159
G1 X85.457 Y61.984 E20.77823
G1 X85.707 Y61.894 E20.79679
G1 X86.214 Y61.73 E20.83401
G1 X86.467 Y61.663 E20.85229
G1 X86.981 Y61.547 E20.88909
G1 X87.264 Y61.499 E20.90914
G1 X87.78 Y61.43 E20.9455
G1 X88.048 Y61.409 E20.96428
G1 X88.566 Y61.387 E21.00049
G1 X88.844 Y61.391 E21.01991
G1 X89.362 Y61.417 E21.05614
G1 X89.648 Y61.445 E21.07621
G1 X90.157 Y61.517 E21.11212
G1 X90.411 Y61.565 E21.13017
G1 X90.928 Y61.688 E21.16729
G1 X91.212 Y61.768 E21.1879
G1 X91.699 Y61.931 E21.22377
G1 X91.956 Y62.028 E21.24295
G1 X92.437 Y62.24 E21.27967
G1 X92.683 Y62.36 E21.29879
G1 X93.124 Y62.604 E21.33399
G1 X93.377 Y62.756 E21.3546
G1 X93.799 Y63.042 E21.39021
G1 X94.021 Y63.205 E21.40945
G1 X94.419 Y63.531 E21.44538
G1 X94.633 Y63.718 E21.46523
G1 X95 Y64.08 E21.50124
G1 X95.211 Y64.3 E21.52253
G1 X95.527 Y64.676 E21.55683
G1 X95.71 Y64.905 E21.57731
G1 X96 Y65.32 E21.61267
G1 X96.16 Y65.56 E21.63282
G1 X96.419 Y66.012 E21.6692
G1 X96.549 Y66.255 E21.68845
G1 X96.761 Y66.714 E21.72376
G1 X96.864 Y66.955 E21.74207
G1 X97.049 Y67.479 E21.78088
G1 X97.13 Y67.727 E21.79911
G1 X97.261 Y68.239 E21.83602
G1 X97.321 Y68.494 E21.85432
G1 X97.405 Y69.011 E21.8909
G1 X97.441 Y69.273 E21.90937
G1 X97.478 Y69.819 E21.9476
G1 X97.491 Y70.085 E21.9662
G1 X97.467 Y70.886 E22.02217
G1 X97.374 Y71.667 E22.0771
G1 X97.208 Y72.446 E22.13274
G1 X96.966 Y73.229 E22.18998
G1 X96.671 Y73.947 E22.2442
G1 X96.296 Y74.664 E22.30071
G1 X95.866 Y75.332 E22.3562
G1 X95.377 Y75.964 E22.41201
G1 X94.827 Y76.552 E22.46825
G1 X92.349 Y79.034 E22.71322
G1 X89.921 Y81.58 E22.95895
G1 X87.554 Y84.181 E23.20458
G1 X85.246 Y86.837 E23.45035
G1 X83.001 Y89.544 E23.69599
G1 X80.818 Y92.304 E23.94177
G1 X78.7 Y95.112 E24.18744
G1 X76.647 Y97.971 E24.43328
G1 X74.662 Y100.874 E24.67891
G1 X72.744 Y103.823 E24.92462
G1 X70.894 Y106.814 E25.17026
G1 X69.114 Y109.849 E25.41601
G1 X67.405 Y112.925 E25.66179
G1 X65.769 Y116.038 E25.90742
G1 X64.203 Y119.189 E26.15319
G1 X62.711 Y122.375 E26.39891
G1 X61.293 Y125.594 E26.6446
G1 X59.95 Y128.845 E26.89028
G1 X58.683 Y132.126 E27.13594
G1 X57.491 Y135.437 E27.38173
G1 X56.377 Y138.774 E27.62745
G1 X55.34 Y142.136 E27.87319
G1 X54.38 Y145.52 E28.11888
G1 X53.5 Y148.926 E28.36459
G1 X52.699 Y152.35 E28.6102
G1 X51.977 Y155.794 E28.85598
G1 X51.334 Y159.253 E29.10171
G1 X50.772 Y162.725 E29.34738
G1 X50.29 Y166.21 E29.59311
G1 X49.889 Y169.705 E29.83882
G1 X49.569 Y173.207 E30.08444
G1 X49.33 Y176.718 E30.33024
G1 X49.171 Y180.232 E30.57593
G1 X49.095 Y183.749 E30.82164
G1 X49.1 Y187.267 E31.06736
G1 X49.185 Y190.784 E31.31308
G1 X49.354 Y194.299 E31.55887
G1 X49.602 Y197.806 E31.80443
G1 X49.931 Y201.309 E32.05018
G1 X50.344 Y204.824 E32.29738
G1 X50.474 Y205.513 E32.34635
G1 X50.691 Y206.203 E32.39688
G1 X50.986 Y206.859 E32.44711
G1 X51.219 Y207.255 E32.47921
G1 X51.36 Y207.482 E32.49787
G1 X51.632 Y207.846 E32.52961
G1 X51.803 Y208.056 E32.54852
G1 X52.117 Y208.386 E32.58034
G1 X52.308 Y208.571 E32.59891
G1 X52.66 Y208.867 E32.63104
G1 X52.876 Y209.027 E32.64981
G1 X53.256 Y209.278 E32.68162
G1 X53.489 Y209.41 E32.70033
G1 X53.896 Y209.618 E32.73225
G1 X54.143 Y209.719 E32.75089
G1 X54.57 Y209.879 E32.78274
G1 X54.827 Y209.949 E32.80134
G1 X55.272 Y210.06 E32.83338
G1 X55.944 Y210.15 E32.88073
G1 X56.928 Y210.264 E32.94992
G1 X57.896 Y210.447 E33.01873
G1 X58.815 Y210.695 E33.08521
G1 X59.716 Y211.011 E33.1519
G1 X60.602 Y211.399 E33.21946
G1 X61.444 Y211.845 E33.28601
G1 X62.28 Y212.371 E33.355
G1 X63.028 Y212.925 E33.42001
G1 X63.766 Y213.563 E33.48815
G1 X64.445 Y214.243 E33.55527
G1 X65.063 Y214.965 E33.62165
G1 X65.644 Y215.754 E33.69009
G1 X66.151 Y216.564 E33.75683
G1 X66.595 Y217.409 E33.82351
G1 X66.983 Y218.301 E33.89145
G1 X67.289 Y219.185 E33.95679
G1 X67.541 Y220.131 E34.02517
G1 X67.721 Y221.088 E34.09318
G1 X67.821 Y222.015 E34.1583
G1 X67.856 Y222.989 E34.22638
G1 X67.816 Y223.995 E34.2967
G1 X67.803 Y224.661 E34.34323
G1 X67.871 Y225.365 E34.39263
G1 X68.017 Y226.058 E34.44209
G1 X68.244 Y226.728 E34.4915
G1 X68.512 Y227.301 E34.53568
G1 X68.611 Y227.478 E34.54985
G1 X68.84 Y227.848 E34.58024
G1 X68.952 Y228.014 E34.59423
G1 X69.338 Y228.502 E34.63769
G1 X69.785 Y228.955 E34.68214
G1 X70.009 Y229.153 E34.70302
G1 X70.237 Y229.335 E34.7234
G1 X70.516 Y229.534 E34.74733
G1 X70.812 Y229.704 E34.77117
G1 X71.04 Y229.783 E34.78803
G1 X71.25 Y229.819 E34.80291
G1 X71.514 Y229.819 E34.82135
G1 X71.962 Y229.68 E34.85411
G1 X72.324 Y229.259 E34.89289
G1 X72.405 Y228.917 E34.91744
G1 X72.417 Y228.697 E34.93283
G1 X72.385 Y228.469 E34.94891
G1 X72.308 Y228.218 E34.96725
G1 X72.251 Y228.079 E34.97774
G1 X71.598 Y226.643 E35.08793
G1 X71.479 Y226.309 E35.11269
G1 X71.421 Y225.99 E35.13534
G1 X71.417 Y225.639 E35.15985
G1 X71.536 Y224.128 E35.26572
G1 X72.093 Y216.922 E35.77053
G1 X72.134 Y216.671 E35.7883
G1 X72.206 Y216.45 E35.80453
G1 X72.31 Y216.246 E35.82052
G1 X72.444 Y216.062 E35.83642
G1 X72.601 Y215.904 E35.85198
G1 X72.789 Y215.768 E35.86819
G1 X72.984 Y215.67 E35.88343
G1 X73.204 Y215.6 E35.89956
G1 X73.427 Y215.565 E35.91532
G1 X73.659 Y215.568 E35.93153
G1 X73.725 Y215.578 E35.93619
G1 X73.785 Y215.598 E35.94061
G1 X73.885 Y215.651 E35.94851
G1 X76.16 Y217.034 E36.13447
G1 X78.51 Y218.367 E36.32318
G1 X80.9 Y219.628 E36.51192
G1 X83.325 Y220.816 E36.70053
G1 X85.787 Y221.931 E36.8893
G1 X88.281 Y222.97 E37.07801
G1 X90.805 Y223.932 E37.26668
G1 X93.358 Y224.818 E37.45543
G1 X95.936 Y225.626 E37.64413
G1 X98.537 Y226.354 E37.83278
G1 X101.16 Y227.004 E38.02153
G1 X103.799 Y227.573 E38.21009
G1 X106.456 Y228.064 E38.39881
G1 X109.127 Y228.471 E38.58752
G1 X111.809 Y228.799 E38.77625
G1 X114.499 Y229.044 E38.96491
G1 X117.196 Y229.208 E39.15364
G1 X119.896 Y229.29 E39.34231
G1 X122.598 Y229.29 E39.53103
G1 X125.299 Y229.208 E39.71977
G1 X127.995 Y229.044 E39.90843
G1 X130.686 Y228.799 E40.09716
G1 X133.367 Y228.471 E40.28582
G1 X136.038 Y228.064 E40.47453
G1 X138.695 Y227.573 E40.66325
G1 X141.335 Y227.004 E40.85188
G1 X143.958 Y226.354 E41.04063
G1 X146.559 Y225.626 E41.22928
G1 X149.137 Y224.818 E41.41798
G1 X151.689 Y223.932 E41.60667
G1 X154.213 Y222.97 E41.79533
G1 X156.708 Y221.931 E41.9841
G1 X159.169 Y220.816 E42.17281
G1 X161.595 Y219.628 E42.36149
G1 X163.984 Y218.367 E42.55017
G1 X166.334 Y217.034 E42.73887
G1 X168.609 Y215.651 E42.92483
G1 X168.709 Y215.598 E42.93274
G1 X168.769 Y215.578 E42.93715
G1 X168.835 Y215.568 E42.94182
G1 X169.068 Y215.565 E42.95809
G1 X169.29 Y215.6 E42.97379
G1 X169.503 Y215.667 E42.98938
G1 X169.712 Y215.774 E43.00578
G1 X169.892 Y215.903 E43.02125
G1 X170.05 Y216.061 E43.03686
G1 X170.187 Y216.249 E43.05311
G1 X170.289 Y216.449 E43.06879
G1 X170.359 Y216.665 E43.08465
G1 X170.401 Y216.923 E43.1029
G1 X171.073 Y225.61 E43.71147
G1 X171.075 Y225.965 E43.73627
G1 X171.039 Y226.22 E43.75426
G1 X170.959 Y226.492 E43.77406
G1 X170.828 Y226.775 E43.79584
G1 X170.025 Y228.257 E43.91357
G1 X169.92 Y228.532 E43.93413
G1 X169.865 Y228.803 E43.95344
G1 X169.883 Y229.09 E43.97353
G1 X170.026 Y229.514 E44.00478
G1 X170.397 Y229.822 E44.03846
G1 X170.79 Y229.948 E44.06729
G1 X171.109 Y229.934 E44.08959
G1 X171.309 Y229.885 E44.10397
G1 X171.479 Y229.817 E44.11676
G1 X171.734 Y229.692 E44.1366
G1 X172.061 Y229.476 E44.16397
G1 X172.313 Y229.291 E44.18581
G1 X172.554 Y229.095 E44.2075
G1 X172.859 Y228.809 E44.23671
G1 X173.078 Y228.587 E44.25849
G1 X173.401 Y228.201 E44.29364
G1 X173.541 Y228.015 E44.3099
G1 X173.794 Y227.628 E44.3422
G1 X173.917 Y227.425 E44.35877
G1 X174.22 Y226.803 E44.4071
G1 X174.46 Y226.115 E44.45799
G1 X174.618 Y225.404 E44.50887
G1 X174.69 Y224.68 E44.55968
G1 X174.678 Y223.996 E44.60747
G1 X174.638 Y222.989 E44.67786
G1 X174.673 Y222.015 E44.74593
G1 X174.775 Y221.086 E44.81121
G1 X174.952 Y220.133 E44.87891
G1 X175.205 Y219.185 E44.94744
G1 X175.511 Y218.301 E45.01278
G1 X175.899 Y217.409 E45.08072
G1 X176.349 Y216.554 E45.14821
G1 X176.848 Y215.756 E45.21394
