;FLAVOR:Marlin
;TIME:17730
;Filament used: 12.7605m
;Layer height: 0.2
;MINX:85.844
;MINY:98.338
;MINZ:0.2
;MAXX:215.808
;MAXY:239.538
;MAXZ:7
;Generated with Cura_SteamEngine 4.5.0
M140 S60
M105
M190 S60
M104 S200
M105
M109 S200
M82 ;absolute extrusion mode
M201 X500.00 Y500.00 Z100.00 E5000.00 ;Setup machine max acceleration
M203 X500.00 Y500.00 Z10.00 E50.00 ;Setup machine max feedrate
M204 P500.00 R1000.00 T500.00 ;Setup Print/Retract/Travel acceleration
M205 X8.00 Y8.00 Z0.40 E5.00 ;Setup Jerk
M220 S100 ;Reset Feedrate
M221 S100 ;Reset Flowrate

G28 ;Home

G92 E0 ;Reset Extruder
G1 Z2.0 F3000 ;Move Z Axis up
G1 X10.1 Y20 Z0.28 F5000.0 ;Move to start position
G1 X10.1 Y200.0 Z0.28 F1500.0 E15 ;Draw the first line
G1 X10.4 Y200.0 Z0.28 F5000.0 ;Move to side a little
G1 X10.4 Y20 Z0.28 F1500.0 E30 ;Draw the second line
G92 E0 ;Reset Extruder
G1 Z2.0 F3000 ;Move Z Axis up

G92 E0
G92 E0
G1 F2700 E-5
;LAYER_COUNT:35
;LAYER:0
M107
;MESH:The_Ultimate_Spool_Holder_v2.stl(3)
G0 F6000 X196.462 Y127.486 Z0.2
;TYPE:WALL-INNER
G1 F2700 E0
G1 F1200 X195.411 Y127.125 E0.03696
G1 X194.228 Y126.591 E0.08013
G1 X190.742 Y124.949 E0.20829
G1 X190.522 Y124.858 E0.21621
G1 X184.86 Y122.572 E0.4193
G1 X178.837 Y120.57 E0.6304
G1 X178.606 Y120.51 E0.63834
G1 X172.704 Y118.952 E0.84137
G1 X166.48 Y117.721 E1.05239
G1 X160.191 Y116.883 E1.26341
G1 X160.179 Y116.883 E1.26381
G1 X153.86 Y116.441 E1.47449
G1 X147.515 Y116.398 E1.68553
G1 X141.18 Y116.753 E1.89657
G1 X134.88 Y117.505 E2.10759
G1 X128.639 Y118.653 E2.31865
G1 X128.404 Y118.712 E2.32671
G1 X122.484 Y120.189 E2.52965
G1 X116.437 Y122.108 E2.74066
G1 X116.211 Y122.196 E2.74872
G1 X110.522 Y124.404 E2.95169
G1 X104.809 Y127.045 E3.16103
G1 X104.203 Y127.274 E3.18257
G1 X103.101 Y127.608 E3.22087
G1 X102.016 Y127.836 E3.25775
G1 X100.907 Y127.965 E3.29488
G1 X99.775 Y127.998 E3.33255
G1 X98.651 Y127.925 E3.37001
G1 X97.547 Y127.756 E3.40716
G1 X96.462 Y127.486 E3.44435
G1 X95.407 Y127.122 E3.48147
G1 X94.38 Y126.663 E3.51888
G1 X93.401 Y126.113 E3.55623
G1 X92.464 Y125.47 E3.59403
G1 X91.62 Y124.771 E3.63047
G1 X90.81 Y123.968 E3.66841
G1 X90.117 Y123.144 E3.70422
G1 X89.464 Y122.217 E3.74193
G1 X88.917 Y121.269 E3.77834
G1 X88.442 Y120.24 E3.81603
G1 X88.06 Y119.175 E3.85366
G1 X87.78 Y118.096 E3.89074
G1 X87.596 Y116.984 E3.92823
G1 X87.512 Y115.864 E3.96558
G1 X87.508 Y115.399 E3.98105
G1 X87.515 Y100.667 E4.47104
G1 X87.533 Y100.416 E4.47941
G1 X87.577 Y100.291 E4.48382
G1 X87.65 Y100.185 E4.4881
G1 X87.749 Y100.1 E4.49244
G1 X87.864 Y100.045 E4.49668
G1 X88.027 Y100.015 E4.50219
G1 X89.71 Y100.015 E4.55817
G1 X211.903 Y100.002 E8.62232
G1 X212.132 Y100.021 E8.62997
G1 X212.249 Y100.062 E8.63409
G1 X212.353 Y100.134 E8.6383
G1 X212.437 Y100.232 E8.64259
G1 X212.492 Y100.346 E8.6468
G1 X212.492 Y115.483 E9.15026
G1 X212.478 Y116.256 E9.17597
G1 X212.359 Y117.382 E9.21363
G1 X212.149 Y118.451 E9.24987
G1 X211.827 Y119.55 E9.28796
G1 X211.43 Y120.563 E9.32414
G1 X210.908 Y121.604 E9.36288
G1 X210.335 Y122.533 E9.39918
G1 X209.654 Y123.44 E9.4369
G1 X208.864 Y124.312 E9.47604
G1 X208.049 Y125.065 E9.51294
G1 X207.163 Y125.746 E9.55011
G1 X206.218 Y126.344 E9.58731
G1 X205.227 Y126.855 E9.62439
G1 X204.174 Y127.283 E9.6622
G1 X203.101 Y127.608 E9.69949
G1 X202.016 Y127.836 E9.73636
G1 X200.907 Y127.965 E9.7735
G1 X199.775 Y127.998 E9.81116
G1 X198.651 Y127.925 E9.84863
G1 X197.547 Y127.756 E9.88577
G1 X196.462 Y127.486 E9.92296
G0 F6000 X196.348 Y127.87
G1 F1200 X195.255 Y127.494 E9.9614
G1 X194.063 Y126.956 E10.0049
G1 X190.581 Y125.315 E10.13293
G1 X190.371 Y125.229 E10.14048
G1 X184.722 Y122.948 E10.3431
G1 X178.723 Y120.954 E10.55336
G1 X178.504 Y120.897 E10.56089
G1 X172.614 Y119.342 E10.76351
G1 X166.415 Y118.116 E10.97368
G1 X160.151 Y117.281 E11.18386
G1 X153.845 Y116.841 E11.39411
G1 X147.525 Y116.798 E11.60432
G1 X141.215 Y117.152 E11.81452
G1 X134.94 Y117.901 E12.02471
G1 X128.724 Y119.044 E12.23492
G1 X128.501 Y119.1 E12.24257
G1 X122.593 Y120.574 E12.44509
G1 X116.57 Y122.486 E12.65527
G1 X116.355 Y122.569 E12.66294
G1 X110.678 Y124.773 E12.86548
G1 X104.968 Y127.412 E13.0747
G1 X104.325 Y127.655 E13.09756
G1 X103.208 Y127.994 E13.13639
G1 X102.099 Y128.226 E13.17407
G1 X102.079 Y128.231 E13.17476
G1 X102.063 Y128.232 E13.17529
G1 X100.93 Y128.365 E13.21323
G1 X99.771 Y128.398 E13.2518
G1 X98.611 Y128.323 E13.29046
G1 X97.467 Y128.148 E13.32895
G1 X96.348 Y127.87 E13.3673
G1 X95.255 Y127.493 E13.40576
G1 X94.199 Y127.02 E13.44424
G1 X93.192 Y126.455 E13.48265
G1 X92.224 Y125.79 E13.52171
G1 X91.348 Y125.065 E13.55953
G1 X90.515 Y124.239 E13.59855
G1 X89.803 Y123.393 E13.63532
G1 X89.128 Y122.434 E13.67433
G1 X89.119 Y122.417 E13.67497
G1 X88.56 Y121.45 E13.71212
G1 X88.069 Y120.387 E13.75106
G1 X87.679 Y119.298 E13.78954
G1 X87.674 Y119.276 E13.79029
G1 X87.387 Y118.175 E13.82813
G1 X87.198 Y117.034 E13.8666
G1 X87.112 Y115.882 E13.90502
G1 X87.108 Y115.399 E13.92108
G1 X87.115 Y100.652 E14.41157
G1 X87.138 Y100.333 E14.42221
G1 X87.216 Y100.11 E14.43007
G1 X87.349 Y99.917 E14.43786
G1 X87.529 Y99.761 E14.44578
G1 X87.74 Y99.662 E14.45354
G1 X87.79 Y99.653 E14.45523
G1 X87.953 Y99.623 E14.46074
G1 X87.992 Y99.615 E14.46206
G1 X89.71 Y99.615 E14.5192
G1 X211.924 Y99.602 E18.58406
G1 X212.214 Y99.626 E18.59374
G1 X212.432 Y99.703 E18.60143
G1 X212.625 Y99.836 E18.60922
G1 X212.774 Y100.011 E18.61687
G1 X212.796 Y100.058 E18.61859
G1 X212.875 Y100.22 E18.62459
G1 X212.884 Y100.273 E18.62637
G1 X212.892 Y100.312 E18.6277
G1 X212.892 Y115.49 E19.13252
G1 X212.878 Y116.282 E19.15887
G1 X212.756 Y117.434 E19.1974
G1 X212.536 Y118.551 E19.23526
G1 X212.207 Y119.675 E19.27422
G1 X211.793 Y120.732 E19.31197
G1 X211.261 Y121.793 E19.35145
G1 X210.663 Y122.762 E19.38932
G1 X209.963 Y123.695 E19.42812
G1 X209.144 Y124.598 E19.46866
G1 X208.31 Y125.369 E19.50644
G1 X207.392 Y126.074 E19.54494
G1 X206.415 Y126.693 E19.5834
G1 X205.392 Y127.22 E19.62168
G1 X204.312 Y127.659 E19.66045
G1 X203.208 Y127.994 E19.69883
G1 X202.099 Y128.226 E19.73651
G1 X202.079 Y128.231 E19.7372
G1 X202.063 Y128.232 E19.73773
G1 X200.93 Y128.365 E19.77567
G1 X199.771 Y128.398 E19.81424
G1 X198.611 Y128.323 E19.8529
G1 X197.467 Y128.148 E19.89139
G1 X196.348 Y127.87 E19.92974
G0 F6000 X196.234 Y128.254
;TYPE:WALL-OUTER
G1 F1200 X195.103 Y127.864 E19.96953
G1 X193.892 Y127.318 E20.01371
G1 X190.42 Y125.681 E20.14138
G1 X190.221 Y125.6 E20.14853
G1 X184.584 Y123.324 E20.35072
G1 X178.61 Y121.338 E20.56011
G1 X178.402 Y121.284 E20.56726
G1 X172.524 Y119.732 E20.76946
G1 X172.313 Y119.69 E20.77662
G1 X166.349 Y118.511 E20.97882
G1 X166.135 Y118.482 E20.986
G1 X160.11 Y117.679 E21.18817
G1 X153.83 Y117.241 E21.39755
G1 X147.535 Y117.198 E21.60693
G1 X141.25 Y117.551 E21.8163
G1 X135 Y118.297 E22.02565
G1 X128.809 Y119.435 E22.23501
G1 X128.599 Y119.488 E22.24221
G1 X122.702 Y120.959 E22.44436
G1 X122.496 Y121.024 E22.45154
G1 X116.703 Y122.863 E22.65369
G1 X116.501 Y122.942 E22.66091
G1 X110.834 Y125.141 E22.86309
G1 X105.127 Y127.779 E23.0722
G1 X104.447 Y128.036 E23.09638
G1 X103.315 Y128.38 E23.13573
G1 X102.142 Y128.626 E23.17559
G1 X100.953 Y128.765 E23.21541
G1 X99.767 Y128.798 E23.25487
G1 X98.57 Y128.721 E23.29476
G1 X97.388 Y128.54 E23.33454
G1 X96.234 Y128.254 E23.37408
G1 X95.103 Y127.864 E23.41387
G1 X94.018 Y127.377 E23.45343
G1 X92.978 Y126.794 E23.49308
G1 X91.989 Y126.114 E23.533
G1 X91.076 Y125.359 E23.5724
G1 X90.225 Y124.515 E23.61227
G1 X89.485 Y123.635 E23.65051
G1 X88.792 Y122.651 E23.69054
G1 X88.203 Y121.631 E23.72972
G1 X87.696 Y120.534 E23.76991
G1 X87.299 Y119.426 E23.80906
G1 X86.994 Y118.255 E23.8493
G1 X86.8 Y117.084 E23.88878
G1 X86.712 Y115.9 E23.92827
G1 X86.708 Y115.399 E23.94493
G1 X86.715 Y100.637 E24.43592
G1 X86.743 Y100.25 E24.44883
G1 X86.856 Y99.927 E24.46021
G1 X87.047 Y99.649 E24.47143
G1 X87.308 Y99.424 E24.48289
G1 X87.616 Y99.278 E24.49422
G1 X87.958 Y99.215 E24.50579
G1 X89.71 Y99.215 E24.56406
G1 X211.945 Y99.202 E28.62961
G1 X212.298 Y99.231 E28.64139
G1 X212.614 Y99.343 E28.65255
G1 X212.897 Y99.538 E28.66398
G1 X213.111 Y99.79 E28.67497
G1 X213.258 Y100.094 E28.6862
G1 X213.291 Y100.27 E28.69216
G1 X213.292 Y100.308 E28.69342
G1 X213.292 Y115.497 E29.19861
G1 X213.278 Y116.308 E29.22559
G1 X213.153 Y117.486 E29.26499
G1 X212.923 Y118.652 E29.30452
G1 X212.587 Y119.8 E29.3443
G1 X212.156 Y120.901 E29.38363
G1 X211.614 Y121.982 E29.42385
G1 X210.991 Y122.991 E29.46329
G1 X210.272 Y123.95 E29.50316
G1 X209.424 Y124.884 E29.54511
G1 X208.572 Y125.672 E29.58371
G1 X207.621 Y126.402 E29.62359
G1 X206.62 Y127.036 E29.663
G1 X205.548 Y127.589 E29.70312
G1 X204.45 Y128.035 E29.74254
G1 X203.315 Y128.38 E29.78199
G1 X202.142 Y128.626 E29.82185
G1 X200.953 Y128.765 E29.86167
G1 X199.767 Y128.798 E29.90113
G1 X198.57 Y128.721 E29.94103
G1 X197.388 Y128.54 E29.9808
G1 X196.234 Y128.254 E30.02034
G0 F6000 X196.358 Y127.833
G0 X196.581 Y127.114
;TYPE:SKIN
G1 F1200 X195.546 Y126.759 E30.05673
G1 X194.394 Y126.238 E30.09879
G1 X190.9 Y124.592 E30.22725
G1 X190.67 Y124.497 E30.23552
G1 X184.995 Y122.206 E30.43907
G1 X178.948 Y120.196 E30.65102
G1 X178.704 Y120.132 E30.65941
G1 X172.791 Y118.572 E30.86281
G1 X166.544 Y117.336 E31.07461
G1 X160.23 Y116.495 E31.28647
G1 X153.875 Y116.051 E31.49835
G1 X147.505 Y116.008 E31.71022
G1 X141.146 Y116.365 E31.92206
G1 X134.822 Y117.119 E32.13388
G1 X128.557 Y118.271 E32.34575
G1 X128.309 Y118.334 E32.35426
G1 X122.377 Y119.814 E32.55761
G1 X116.307 Y121.74 E32.76942
G1 X116.069 Y121.833 E32.77792
G1 X110.369 Y124.045 E32.98128
G1 X104.659 Y126.685 E33.19051
G1 X104.071 Y126.907 E33.21141
G1 X103.01 Y127.228 E33.24828
G1 X101.957 Y127.45 E33.28407
G1 X100.874 Y127.575 E33.32033
G1 X99.788 Y127.608 E33.35647
G1 X98.69 Y127.535 E33.39307
G1 X97.613 Y127.371 E33.4293
G1 X96.581 Y127.114 E33.46468
G1 X95.55 Y126.758 E33.50095
G1 X94.555 Y126.314 E33.53719
G1 X93.612 Y125.785 E33.57316
G1 X92.695 Y125.155 E33.61016
G1 X91.886 Y124.486 E33.64508
G1 X91.091 Y123.697 E33.68233
G1 X90.427 Y122.907 E33.71665
G1 X89.793 Y122.007 E33.75327
G1 X89.268 Y121.097 E33.78821
G1 X88.797 Y120.076 E33.82561
G1 X88.435 Y119.065 E33.86133
G1 X88.158 Y117.998 E33.89799
G1 X87.982 Y116.935 E33.93383
G1 X87.902 Y115.86 E33.96968
G1 X87.898 Y115.399 E33.98501
G1 X87.905 Y100.681 E34.47454
G1 X87.918 Y100.498 E34.48064
G1 X87.928 Y100.469 E34.48166
G1 X87.943 Y100.448 E34.48252
G1 X87.966 Y100.428 E34.48353
G1 X87.982 Y100.421 E34.48411
G1 X88.066 Y100.405 E34.48696
G1 X89.71 Y100.405 E34.54164
G1 X211.894 Y100.392 E38.60549
G1 X212.048 Y100.405 E38.61063
G1 X212.087 Y100.424 E38.61208
G1 X212.102 Y100.441 E38.61283
G1 X212.102 Y115.476 E39.1129
G1 X212.088 Y116.229 E39.13795
G1 X211.972 Y117.331 E39.1748
G1 X211.77 Y118.358 E39.20961
G1 X211.46 Y119.418 E39.24635
G1 X211.078 Y120.395 E39.28124
G1 X210.568 Y121.412 E39.31908
G1 X210.011 Y122.315 E39.35437
G1 X209.356 Y123.188 E39.39067
G1 X208.592 Y124.031 E39.4285
G1 X207.798 Y124.765 E39.46447
G1 X206.937 Y125.427 E39.50059
G1 X206.022 Y126.006 E39.53661
G1 X205.057 Y126.504 E39.57272
G1 X204.043 Y126.916 E39.60913
G1 X203.012 Y127.228 E39.64495
G1 X201.957 Y127.45 E39.68081
G1 X200.874 Y127.575 E39.71707
G1 X199.788 Y127.608 E39.75321
G1 X198.69 Y127.535 E39.78981
G1 X197.613 Y127.371 E39.82604
G1 X196.581 Y127.114 E39.86142
G1 F2700 E34.86142
G0 F6000 X196.513 Y127.384
G0 X198.67 Y127.755
G0 X199.783 Y127.827
G0 X200.89 Y127.794
G0 X201.987 Y127.667
G0 X203.062 Y127.441
G0 X204.113 Y127.123
G0 X205.157 Y126.699
G0 X206.141 Y126.191
G0 X207.063 Y125.607
G0 X207.934 Y124.938
G0 X208.741 Y124.193
G0 X209.524 Y123.329
G0 X210.194 Y122.437
G0 X210.758 Y121.521
G0 X211.272 Y120.497
G0 X211.665 Y119.492
G0 X211.985 Y118.401
G0 X212.19 Y117.359
G0 X212.284 Y116.457
G0 X212.382 Y101.066
G0 X211.941 Y101.066
G1 F2700 E39.86142
G1 F1200 X211.427 Y100.552 E39.88559
G0 F6000 X210.861 Y100.552
G1 F1200 X211.941 Y101.632 E39.93639
G0 F6000 X211.941 Y102.198
G1 F1200 X210.295 Y100.552 E40.01382
G0 F6000 X209.729 Y100.552
G1 F1200 X211.941 Y102.763 E40.11784
G0 F6000 X211.941 Y103.329
G1 F1200 X209.164 Y100.552 E40.24846
G0 F6000 X208.598 Y100.552
G1 F1200 X211.941 Y103.895 E40.4057
G0 F6000 X211.941 Y104.46
G1 F1200 X208.032 Y100.552 E40.58955
G0 F6000 X207.467 Y100.552
G1 F1200 X211.941 Y105.026 E40.79999
G0 F6000 X211.941 Y105.592
G1 F1200 X206.901 Y100.552 E41.03706
G0 F6000 X206.335 Y100.552
G1 F1200 X211.941 Y106.157 E41.30072
G0 F6000 X211.941 Y106.723
G1 F1200 X205.77 Y100.552 E41.59099
G0 F6000 X205.204 Y100.552
G1 F1200 X211.941 Y107.289 E41.90788
G0 F6000 X211.941 Y107.854
G1 F1200 X204.639 Y100.553 E42.25132
G0 F6000 X204.073 Y100.553
G1 F1200 X211.941 Y108.42 E42.62138
G0 F6000 X211.941 Y108.986
G1 F1200 X203.508 Y100.553 E43.01804
G0 F6000 X202.942 Y100.553
G1 F1200 X211.941 Y109.552 E43.44133
G0 F6000 X211.941 Y110.117
G1 F1200 X202.376 Y100.553 E43.89121
G0 F6000 X201.811 Y100.553
G1 F1200 X211.941 Y110.683 E44.3677
G0 F6000 X211.941 Y111.249
G1 F1200 X201.245 Y100.553 E44.8708
G0 F6000 X200.679 Y100.553
G1 F1200 X211.941 Y111.814 E45.40051
G0 F6000 X211.941 Y112.38
G1 F1200 X200.114 Y100.553 E45.95682
G0 F6000 X199.548 Y100.553
G1 F1200 X211.941 Y112.946 E46.53974
G0 F6000 X211.941 Y113.511
G1 F1200 X198.982 Y100.553 E47.14927
G0 F6000 X198.416 Y100.553
G1 F1200 X211.941 Y114.077 E47.78542
G0 F6000 X211.941 Y114.643
G1 F1200 X197.851 Y100.553 E48.44817
G0 F6000 X197.286 Y100.554
G1 F1200 X211.941 Y115.208 E49.13748
G0 F6000 X211.936 Y115.769
G1 F1200 X196.72 Y100.554 E49.85317
G0 F6000 X196.154 Y100.554
G1 F1200 X211.917 Y116.316 E50.59459
G0 F6000 X211.864 Y116.828
G1 F1200 X195.589 Y100.554 E51.36009
G0 F6000 X195.023 Y100.554
G1 F1200 X211.808 Y117.338 E52.14958
G0 F6000 X211.714 Y117.811
G1 F1200 X194.457 Y100.554 E52.9613
G0 F6000 X193.892 Y100.554
G1 F1200 X211.621 Y118.283 E53.79521
G0 F6000 X211.496 Y118.723
G1 F1200 X193.326 Y100.554 E54.64985
G0 F6000 X192.76 Y100.554
G1 F1200 X211.368 Y119.161 E55.52509
G0 F6000 X211.224 Y119.583
G1 F1200 X192.195 Y100.554 E56.42016
G0 F6000 X191.629 Y100.554
G1 F1200 X211.065 Y119.99 E57.33437
G0 F6000 X210.9 Y120.391
G1 F1200 X191.063 Y100.554 E58.26744
G0 F6000 X190.498 Y100.554
G1 F1200 X210.711 Y120.767 E59.2182
G0 F6000 X210.522 Y121.144
G1 F1200 X189.933 Y100.554 E60.18666
G0 F6000 X189.367 Y100.554
G1 F1200 X210.32 Y121.507 E61.17223
G0 F6000 X210.104 Y121.857
G1 F1200 X188.801 Y100.554 E62.17426
G0 F6000 X188.236 Y100.554
G1 F1200 X209.889 Y122.207 E63.19275
G0 F6000 X209.647 Y122.532
G1 F1200 X187.67 Y100.554 E64.2265
G0 F6000 X187.104 Y100.554
G1 F1200 X209.405 Y122.855 E65.27547
G0 F6000 X209.155 Y123.171
G1 F1200 X186.539 Y100.554 E66.33928
G0 F6000 X185.973 Y100.554
G1 F1200 X208.886 Y123.467 E67.41704
G0 F6000 X208.617 Y123.764
G1 F1200 X185.407 Y100.554 E68.50877
G0 F6000 X184.841 Y100.554
G1 F1200 X208.335 Y124.048 E69.61385
G0 F6000 X208.042 Y124.32
G1 F1200 X184.276 Y100.554 E70.73173
G0 F6000 X183.71 Y100.554
G1 F1200 X207.747 Y124.592 E71.86238
G0 F6000 X207.433 Y124.843
G1 F1200 X183.144 Y100.554 E73.00486
G0 F6000 X182.579 Y100.555
G1 F1200 X207.112 Y125.088 E74.15882
G0 F6000 X206.789 Y125.33
G1 F1200 X182.014 Y100.555 E75.32416
G0 F6000 X181.448 Y100.555
G1 F1200 X206.442 Y125.549 E76.4998
G0 F6000 X206.096 Y125.768
G1 F1200 X180.882 Y100.555 E77.68577
G0 F6000 X180.317 Y100.555
G1 F1200 X205.734 Y125.973 E78.88133
G0 F6000 X205.361 Y126.165
G1 F1200 X179.751 Y100.555 E80.08594
G0 F6000 X179.185 Y100.555
G1 F1200 X204.988 Y126.358 E81.29964
G0 F6000 X204.587 Y126.522
G1 F1200 X178.62 Y100.555 E82.52105
G0 F6000 X178.054 Y100.555
G1 F1200 X204.184 Y126.685 E83.75012
G0 F6000 X203.766 Y126.833
G1 F1200 X177.488 Y100.555 E84.98616
G0 F6000 X176.923 Y100.555
G1 F1200 X203.332 Y126.964 E86.22836
G0 F6000 X202.891 Y127.089
G1 F1200 X176.357 Y100.555 E87.47643
G0 F6000 X175.792 Y100.556
G1 F1200 X202.424 Y127.188 E88.72912
G0 F6000 X201.956 Y127.286
G1 F1200 X175.226 Y100.556 E89.98642
G0 F6000 X174.661 Y100.556
G1 F1200 X201.451 Y127.346 E91.24654
G0 F6000 X200.944 Y127.405
G1 F1200 X174.095 Y100.556 E92.50943
