;FLAVOR:Marlin
;TIME:1495
;Filament used: 0.440768m
;Layer height: 0.12
;MINX:96.341
;MINY:124.468
;MINZ:0.12
;MAXX:171.142
;MAXY:181.992
;MAXZ:4.92
;Generated with Cura_SteamEngine 4.5.0
M140 S50
M105
M190 S50
M104 S200
M105
M109 S200
M82 ;absolute extrusion mode
M201 X500.00 Y500.00 Z100.00 E5000.00 ;Setup machine max acceleration
M203 X500.00 Y500.00 Z10.00 E50.00 ;Setup machine max feedrate
M204 P500.00 R1000.00 T500.00 ;Setup Print/Retract/Travel acceleration
M205 X8.00 Y8.00 Z0.40 E5.00 ;Setup Jerk
M220 S100 ;Reset Feedrate
M221 S100 ;Reset Flowrate

G28 ;Home

G92 E0 ;Reset Extruder
G1 Z2.0 F3000 ;Move Z Axis up
G1 X10.1 Y20 Z0.28 F5000.0 ;Move to start position
G1 X10.1 Y200.0 Z0.28 F1500.0 E15 ;Draw the first line
G1 X10.4 Y200.0 Z0.28 F5000.0 ;Move to side a little
G1 X10.4 Y20 Z0.28 F1500.0 E30 ;Draw the second line
G92 E0 ;Reset Extruder
G1 Z2.0 F3000 ;Move Z Axis up

G92 E0
G92 E0
G1 F2700 E-5
;LAYER_COUNT:41
;LAYER:0
M107
G0 F6000 X105.281 Y129.423 Z0.12
;TYPE:SKIRT
G1 F2700 E0
G1 F1200 X105.508 Y129.247 E0.00573
G1 X105.997 Y128.889 E0.01783
G1 X106.76 Y128.362 E0.03633
G1 X107.352 Y127.981 E0.05038
G1 X107.982 Y127.603 E0.06504
G1 X108.522 Y127.299 E0.07741
G1 X109.123 Y126.983 E0.09096
G1 X109.735 Y126.685 E0.10454
G1 X110.423 Y126.376 E0.11959
G1 X110.786 Y126.22 E0.12748
G1 X111.312 Y126.011 E0.13877
G1 X111.651 Y125.884 E0.146
G1 X112.234 Y125.684 E0.1583
G1 X113.138 Y125.402 E0.1772
G1 X113.755 Y125.229 E0.18998
G1 X114.341 Y125.083 E0.20204
G1 X114.988 Y124.939 E0.21526
G1 X115.333 Y124.873 E0.22227
G1 X116.092 Y124.742 E0.23764
G1 X116.365 Y124.701 E0.24315
G1 X116.709 Y124.655 E0.25008
G1 X117.141 Y124.604 E0.25876
G1 X117.736 Y124.547 E0.27069
G1 X118.072 Y124.522 E0.27741
G1 X118.832 Y124.482 E0.2926
G1 X119.122 Y124.473 E0.29839
G1 X119.49 Y124.468 E0.30573
G1 X120.383 Y124.479 E0.32356
G1 X120.761 Y124.495 E0.33111
G1 X121.327 Y124.529 E0.34242
G1 X121.927 Y124.581 E0.35444
G1 X122.673 Y124.667 E0.36943
G1 X123.468 Y124.782 E0.38546
G1 X126.155 Y125.235 E0.43983
G1 X128.645 Y125.582 E0.49001
G1 X131.14 Y125.858 E0.5401
G1 X133.647 Y126.063 E0.5903
G1 X136.165 Y126.198 E0.64062
G1 X138.66 Y126.262 E0.69043
G1 X141.158 Y126.254 E0.74028
G1 X145.016 Y126.107 E0.81732
G1 X146.719 Y126.006 E0.85137
G1 X147.31 Y125.984 E0.86317
G1 X147.664 Y125.979 E0.87023
G1 X148.602 Y125.992 E0.88896
G1 X148.935 Y126.006 E0.89561
G1 X149.474 Y126.038 E0.90638
G1 X150.077 Y126.091 E0.91846
G1 X150.852 Y126.18 E0.93403
G1 X151.494 Y126.273 E0.94697
G1 X152.185 Y126.394 E0.96097
G1 X152.6 Y126.475 E0.96941
G1 X153.205 Y126.609 E0.98178
G1 X153.553 Y126.694 E0.98893
G1 X153.909 Y126.787 E0.99627
G1 X154.486 Y126.953 E1.00825
G1 X154.956 Y127.098 E1.01807
G1 X155.52 Y127.289 E1.02995
G1 X156.26 Y127.562 E1.04569
G1 X156.885 Y127.814 E1.05914
G1 X157.546 Y128.105 E1.07355
G1 X158.103 Y128.367 E1.08584
G1 X158.426 Y128.529 E1.09305
G1 X158.861 Y128.757 E1.10285
G1 X159.646 Y129.197 E1.12081
G1 X159.974 Y129.393 E1.12843
G1 X160.54 Y129.751 E1.1418
G1 X160.802 Y129.924 E1.14806
G1 X161.152 Y130.163 E1.15652
G1 X161.636 Y130.513 E1.16844
G1 X162.293 Y131.016 E1.18495
G1 X162.764 Y131.395 E1.19702
G1 X163.048 Y131.636 E1.20445
G1 X163.614 Y132.139 E1.21956
G1 X163.804 Y132.315 E1.22473
G1 X164.083 Y132.583 E1.23245
G1 X164.588 Y133.089 E1.24672
G1 X164.783 Y133.292 E1.25233
G1 X165.059 Y133.59 E1.26044
G1 X165.547 Y134.144 E1.27517
G1 X165.935 Y134.61 E1.28727
G1 X166.198 Y134.94 E1.29569
G1 X166.579 Y135.447 E1.30835
G1 X167.102 Y136.187 E1.32643
G1 X167.444 Y136.697 E1.33869
G1 X167.808 Y137.283 E1.35245
G1 X168.103 Y137.787 E1.36411
G1 X168.259 Y138.068 E1.37052
G1 X168.651 Y138.811 E1.38729
G1 X168.91 Y139.342 E1.39908
G1 X169.092 Y139.736 E1.40774
G1 X169.332 Y140.289 E1.41977
G1 X169.428 Y140.526 E1.42487
G1 X169.641 Y141.068 E1.43649
G1 X169.839 Y141.612 E1.44804
G1 X170.047 Y142.236 E1.46117
G1 X170.238 Y142.866 E1.47431
G1 X170.328 Y143.191 E1.48104
G1 X170.459 Y143.697 E1.49147
G1 X170.588 Y144.257 E1.50294
G1 X170.737 Y144.988 E1.51782
G1 X170.851 Y145.629 E1.53082
G1 X170.906 Y145.991 E1.53812
G1 X171.027 Y146.977 E1.55795
G1 X171.061 Y147.358 E1.56558
G1 X171.115 Y148.176 E1.58194
G1 X171.127 Y148.448 E1.58737
G1 X171.137 Y148.791 E1.59422
G1 X171.142 Y149.177 E1.60193
G1 X171.134 Y149.771 E1.61378
G1 X171.097 Y150.67 E1.63174
G1 X171.052 Y151.331 E1.64496
G1 X171.022 Y151.649 E1.65133
G1 X170.941 Y152.349 E1.6654
G1 X170.864 Y152.873 E1.67596
G1 X170.776 Y153.401 E1.68665
G1 X170.654 Y154.038 E1.69959
G1 X170.588 Y154.345 E1.70586
G1 X170.421 Y155.048 E1.72028
G1 X170.258 Y155.658 E1.73288
G1 X170.162 Y155.988 E1.73973
G1 X169.972 Y156.578 E1.7521
G1 X169.658 Y157.467 E1.77092
G1 X169.407 Y158.113 E1.78475
G1 X169.143 Y158.733 E1.7982
G1 X168.888 Y159.295 E1.81051
G1 X168.751 Y159.577 E1.81677
G1 X168.407 Y160.252 E1.83189
G1 X168.279 Y160.49 E1.83728
G1 X168.102 Y160.806 E1.84451
G1 X167.703 Y161.483 E1.86019
G1 X167.394 Y161.972 E1.87174
G1 X167.138 Y162.358 E1.88098
G1 X166.801 Y162.838 E1.89268
G1 X166.304 Y163.507 E1.90931
G1 X165.916 Y164.004 E1.9219
G1 X165.681 Y164.287 E1.92924
G1 X165.365 Y164.656 E1.93893
G1 X164.989 Y165.073 E1.95014
G1 X164.505 Y165.583 E1.96417
G1 X164.022 Y166.066 E1.9778
G1 X163.788 Y166.29 E1.98426
G1 X163.241 Y166.789 E1.99904
G1 X162.831 Y167.14 E2.00981
G1 X162.429 Y167.471 E2.0202
G1 X161.962 Y167.837 E2.03204
G1 X161.73 Y168.011 E2.03783
G1 X161.056 Y168.495 E2.05439
G1 X160.851 Y168.635 E2.05934
G1 X160.568 Y168.822 E2.06611
G1 X160.175 Y169.073 E2.07542
G1 X159.669 Y169.377 E2.0872
G1 X158.99 Y169.761 E2.10277
G1 X158.393 Y170.078 E2.11625
G1 X158.126 Y170.21 E2.1222
G1 X157.053 Y170.724 E2.14594
G1 X155.536 Y171.424 E2.17928
G1 X153.293 Y172.536 E2.22924
G1 X151.067 Y173.72 E2.27956
G1 X148.886 Y174.96 E2.32963
G1 X146.714 Y176.278 E2.38033
G1 X144.6 Y177.644 E2.43055
G1 X142.25 Y179.246 E2.48731
G1 X142.048 Y179.375 E2.49209
G1 X141.492 Y179.707 E2.50502
G1 X141.125 Y179.912 E2.51341
G1 X140.496 Y180.238 E2.52754
G1 X140.215 Y180.372 E2.53376
G1 X139.684 Y180.61 E2.54537
G1 X139.219 Y180.801 E2.5554
G1 X138.945 Y180.906 E2.56126
G1 X138.514 Y181.061 E2.5704
G1 X138.279 Y181.14 E2.57534
G1 X137.772 Y181.297 E2.58594
G1 X137.479 Y181.38 E2.59201
G1 X136.896 Y181.53 E2.60403
G1 X136.381 Y181.643 E2.61455
G1 X136.027 Y181.712 E2.62175
G1 X135.174 Y181.844 E2.63897
G1 X134.615 Y181.908 E2.6502
G1 X133.954 Y181.963 E2.66344
G1 X133.712 Y181.976 E2.66827
G1 X133.093 Y181.992 E2.68063
G1 X132.711 Y181.991 E2.68825
G1 X132.23 Y181.979 E2.69785
G1 X131.993 Y181.968 E2.70259
G1 X131.226 Y181.906 E2.71795
G1 X130.67 Y181.841 E2.72912
G1 X130.012 Y181.743 E2.74239
G1 X129.777 Y181.701 E2.74716
G1 X129.224 Y181.588 E2.75842
G1 X128.901 Y181.513 E2.76504
G1 X128.336 Y181.366 E2.77669
G1 X127.976 Y181.262 E2.78417
G1 X127.317 Y181.049 E2.79799
G1 X126.932 Y180.911 E2.80615
G1 X126.317 Y180.669 E2.81934
G1 X126.109 Y180.58 E2.82385
G1 X125.604 Y180.351 E2.83492
G1 X125.153 Y180.131 E2.84493
G1 X124.701 Y179.893 E2.85513
G1 X124.437 Y179.746 E2.86116
G1 X123.886 Y179.417 E2.87396
G1 X123.54 Y179.197 E2.88215
G1 X122.968 Y178.808 E2.89595
G1 X122.696 Y178.61 E2.90266
G1 X122.164 Y178.198 E2.91609
G1 X121.293 Y177.475 E2.93868
G1 X120.206 Y176.542 E2.96727
G1 X118.224 Y174.936 E3.01818
G1 X116.234 Y173.416 E3.06815
G1 X114.194 Y171.945 E3.11834
G1 X112.134 Y170.548 E3.16801
G1 X109.969 Y169.167 E3.21926
G1 X108.664 Y168.386 E3.24961
G1 X107.296 Y167.554 E3.28156
G1 X106.892 Y167.296 E3.29113
G1 X106.357 Y166.937 E3.30398
G1 X106.088 Y166.747 E3.31056
G1 X105.528 Y166.333 E3.32445
G1 X105.297 Y166.155 E3.33027
G1 X105.029 Y165.942 E3.3371
G1 X104.665 Y165.643 E3.3465
G1 X104.232 Y165.268 E3.35794
G1 X103.66 Y164.746 E3.37339
G1 X103.315 Y164.417 E3.3829
G1 X102.887 Y163.985 E3.39504
G1 X102.593 Y163.676 E3.40355
G1 X102.226 Y163.271 E3.41446
G1 X101.731 Y162.696 E3.4296
G1 X101.303 Y162.171 E3.44312
G1 X101.123 Y161.937 E3.44901
G1 X100.851 Y161.574 E3.45806
G1 X100.499 Y161.077 E3.47021
G1 X100.036 Y160.382 E3.48688
G1 X99.68 Y159.81 E3.50032
G1 X99.329 Y159.206 E3.51426
G1 X99.017 Y158.638 E3.5272
G1 X98.864 Y158.34 E3.53388
G1 X98.681 Y157.972 E3.54208
G1 X98.433 Y157.445 E3.55371
G1 X98.306 Y157.157 E3.55999
G1 X98.081 Y156.628 E3.57146
G1 X97.876 Y156.111 E3.58256
G1 X97.653 Y155.503 E3.59548
G1 X97.436 Y154.849 E3.60923
G1 X97.219 Y154.119 E3.62443
G1 X97.113 Y153.739 E3.6323
G1 X96.974 Y153.185 E3.6437
G1 X96.855 Y152.667 E3.65431
G1 X96.731 Y152.042 E3.66702
G1 X96.612 Y151.34 E3.68123
G1 X96.524 Y150.735 E3.69343
G1 X96.485 Y150.401 E3.70014
G1 X96.407 Y149.594 E3.71632
G1 X96.371 Y149.026 E3.72768
G1 X96.351 Y148.574 E3.73671
G1 X96.341 Y147.951 E3.74915
G1 X96.352 Y147.066 E3.76681
G1 X96.378 Y146.438 E3.77935
G1 X96.419 Y145.85 E3.79111
G1 X96.456 Y145.428 E3.79957
G1 X96.489 Y145.124 E3.80567
G1 X96.53 Y144.794 E3.81231
G1 X96.639 Y144.046 E3.82739
G1 X96.744 Y143.45 E3.83947
G1 X96.83 Y143.016 E3.8483
G1 X96.966 Y142.403 E3.86083
G1 X97.035 Y142.123 E3.86658
G1 X97.16 Y141.644 E3.87646
G1 X97.325 Y141.068 E3.88842
G1 X97.416 Y140.772 E3.8946
G1 X97.657 Y140.047 E3.90984
G1 X97.736 Y139.827 E3.91451
G1 X97.847 Y139.534 E3.92076
G1 X98.044 Y139.031 E3.93154
G1 X98.272 Y138.49 E3.94326
G1 X98.587 Y137.797 E3.95845
G1 X98.87 Y137.214 E3.97138
G1 X99.008 Y136.95 E3.97733
G1 X99.262 Y136.477 E3.98804
G1 X99.577 Y135.929 E4.00066
G1 X99.95 Y135.321 E4.01489
G1 X100.309 Y134.767 E4.02806
G1 X100.482 Y134.513 E4.0342
G1 X100.735 Y134.154 E4.04296
G1 X101.102 Y133.664 E4.05518
G1 X101.622 Y133.007 E4.0719
G1 X102.043 Y132.507 E4.08494
G1 X102.494 Y132.002 E4.09846
G1 X102.929 Y131.539 E4.11113
G1 X103.148 Y131.317 E4.11736
G1 X103.523 Y130.949 E4.12784
G1 X103.955 Y130.544 E4.13966
G1 X104.188 Y130.336 E4.14589
G1 X104.753 Y129.851 E4.16075
G1 X105.281 Y129.423 E4.17431
G0 F6000 X105.526 Y129.739
G1 F1200 X105.753 Y129.563 E4.18005
G1 X106.224 Y129.218 E4.1917
G1 X106.987 Y128.691 E4.2102
G1 X107.557 Y128.324 E4.22373
G1 X108.187 Y127.946 E4.23839
G1 X108.708 Y127.653 E4.25032
G1 X109.309 Y127.337 E4.26387
G1 X109.899 Y127.049 E4.27697
G1 X110.587 Y126.74 E4.29203
G1 X111.178 Y126.493 E4.30481
G1 X111.452 Y126.386 E4.31068
G1 X111.791 Y126.259 E4.3179
G1 X112.353 Y126.066 E4.32976
G1 X113.257 Y125.784 E4.34866
G1 X113.851 Y125.617 E4.36097
G1 X114.437 Y125.471 E4.37302
G1 X115.07 Y125.331 E4.38596
G1 X115.402 Y125.267 E4.39271
G1 X116.152 Y125.138 E4.4079
G1 X116.756 Y125.052 E4.42007
G1 X117.499 Y124.969 E4.43499
G1 X118.095 Y124.921 E4.44692
G1 X118.844 Y124.882 E4.46189
G1 X119.134 Y124.873 E4.46768
G1 X119.489 Y124.868 E4.47476
G1 X119.893 Y124.869 E4.48283
G1 X120.373 Y124.878 E4.49241
G1 X120.737 Y124.894 E4.49968
G1 X121.303 Y124.928 E4.51099
G1 X121.881 Y124.979 E4.52257
G1 X122.627 Y125.065 E4.53756
G1 X123.402 Y125.177 E4.55319
G1 X126.071 Y125.627 E4.6072
G1 X128.582 Y125.977 E4.65779
G1 X131.096 Y126.255 E4.70827
G1 X133.63 Y126.463 E4.75901
G1 X136.134 Y126.596 E4.80905
G1 X138.686 Y126.661 E4.85999
G1 X141.176 Y126.654 E4.90968
G1 X145.004 Y126.508 E4.98613
G1 X146.742 Y126.405 E5.02088
G1 X147.322 Y126.384 E5.03246
G1 X147.663 Y126.379 E5.03926
G1 X148.35 Y126.384 E5.05297
G1 X148.591 Y126.391 E5.05779
G1 X148.911 Y126.406 E5.06418
G1 X149.45 Y126.438 E5.07495
G1 X150.031 Y126.488 E5.08659
G1 X150.806 Y126.577 E5.10216
G1 X151.425 Y126.667 E5.11464
G1 X152.116 Y126.788 E5.12864
G1 X152.516 Y126.866 E5.13677
G1 X153.11 Y126.998 E5.14892
G1 X153.458 Y127.083 E5.15607
G1 X153.801 Y127.173 E5.16314
G1 X154.368 Y127.335 E5.17491
G1 X154.838 Y127.48 E5.18473
G1 X155.382 Y127.664 E5.19619
G1 X156.122 Y127.937 E5.21193
G1 X156.724 Y128.181 E5.22489
G1 X157.385 Y128.472 E5.2393
G1 X157.929 Y128.727 E5.25129
G1 X158.24 Y128.883 E5.25824
G1 X158.949 Y129.26 E5.27426
G1 X159.44 Y129.541 E5.28555
G1 X159.768 Y129.737 E5.29318
G1 X160.056 Y129.915 E5.29993
G1 X160.577 Y130.254 E5.31234
G1 X160.927 Y130.493 E5.32079
G1 X161.393 Y130.83 E5.33227
G1 X162.05 Y131.333 E5.34878
G1 X162.51 Y131.704 E5.36058
G1 X162.784 Y131.936 E5.36774
G1 X163.342 Y132.433 E5.38265
G1 X163.532 Y132.609 E5.38782
G1 X163.801 Y132.867 E5.39526
G1 X164.299 Y133.366 E5.40933
G1 X164.494 Y133.569 E5.41495
G1 X164.76 Y133.856 E5.42275
G1 X165.242 Y134.402 E5.43729
G1 X165.622 Y134.86 E5.44917
G1 X165.885 Y135.19 E5.45759
G1 X166.252 Y135.678 E5.46977
G1 X166.775 Y136.418 E5.48785
G1 X167.109 Y136.915 E5.4998
G1 X167.467 Y137.492 E5.51336
G1 X167.756 Y137.986 E5.52478
G1 X167.906 Y138.257 E5.53096
G1 X168.293 Y138.989 E5.54748
G1 X168.547 Y139.51 E5.55905
G1 X168.729 Y139.904 E5.56771
G1 X168.963 Y140.444 E5.57945
G1 X169.056 Y140.672 E5.58437
G1 X169.269 Y141.214 E5.59599
G1 X169.459 Y141.739 E5.60713
G1 X169.667 Y142.363 E5.62026
G1 X169.855 Y142.978 E5.63309
G1 X169.941 Y143.291 E5.63957
G1 X170.072 Y143.797 E5.65
G1 X170.196 Y144.337 E5.66106
G1 X170.345 Y145.068 E5.67594
G1 X170.415 Y145.442 E5.68354
G1 X170.457 Y145.694 E5.68864
G1 X170.509 Y146.043 E5.69568
G1 X170.629 Y147.02 E5.71532
G1 X170.662 Y147.386 E5.72265
G1 X170.716 Y148.194 E5.73882
G1 X170.728 Y148.466 E5.74425
G1 X170.737 Y148.796 E5.75084
G1 X170.742 Y149.182 E5.75854
G1 X170.734 Y149.755 E5.76998
G1 X170.697 Y150.654 E5.78793
G1 X170.653 Y151.3 E5.80085
G1 X170.624 Y151.606 E5.80699
G1 X170.545 Y152.294 E5.82081
G1 X170.47 Y152.808 E5.83117
G1 X170.382 Y153.336 E5.84186
G1 X170.262 Y153.959 E5.85452
G1 X170.198 Y154.255 E5.86056
G1 X170.034 Y154.947 E5.87475
G1 X169.874 Y155.546 E5.88713
G1 X169.778 Y155.876 E5.89398
G1 X169.595 Y156.445 E5.90591
G1 X169.281 Y157.334 E5.92473
G1 X169.039 Y157.957 E5.93806
G1 X168.775 Y158.577 E5.95151
G1 X168.525 Y159.125 E5.96353
G1 X168.394 Y159.397 E5.96956
G1 X168.055 Y160.063 E5.98447
G1 X167.927 Y160.301 E5.98986
G1 X167.756 Y160.605 E5.99682
G1 X167.364 Y161.272 E6.01226
G1 X167.061 Y161.751 E6.02357
G1 X166.805 Y162.137 E6.03282
G1 X166.48 Y162.599 E6.04409
G1 X165.983 Y163.268 E6.06072
G1 X165.603 Y163.754 E6.07303
G1 X165.377 Y164.027 E6.08011
G1 X165.061 Y164.396 E6.0898
G1 X164.699 Y164.798 E6.1006
G1 X164.215 Y165.308 E6.11463
G1 X163.742 Y165.781 E6.12798
G1 X163.516 Y165.996 E6.1342
G1 X162.978 Y166.487 E6.14874
G1 X162.577 Y166.831 E6.15928
G1 X162.175 Y167.162 E6.16967
G1 X161.718 Y167.52 E6.18126
G1 X161.495 Y167.687 E6.18682
G1 X160.83 Y168.164 E6.20315
G1 X160.353 Y168.484 E6.21461
G1 X159.96 Y168.735 E6.22392
G1 X159.472 Y169.029 E6.23529
G1 X158.793 Y169.413 E6.25085
G1 X158.21 Y169.722 E6.26402
G1 X157.953 Y169.85 E6.26975
G1 X156.885 Y170.361 E6.29338
G1 X155.369 Y171.06 E6.32669
G1 X153.106 Y172.183 E6.37711
G1 X150.86 Y173.377 E6.42787
G1 X148.687 Y174.613 E6.47776
G1 X146.511 Y175.933 E6.52855
G1 X144.352 Y177.328 E6.57984
G1 X142.829 Y178.366 E6.61662
G1 X142.393 Y178.67 E6.62723
G1 X141.833 Y179.038 E6.6406
G1 X141.297 Y179.358 E6.65306
G1 X140.93 Y179.563 E6.66145
G1 X140.324 Y179.877 E6.67507
G1 X140.043 Y180.011 E6.68128
G1 X139.524 Y180.244 E6.69264
G1 X139.076 Y180.427 E6.70229
G1 X138.802 Y180.532 E6.70815
G1 X138.387 Y180.681 E6.71695
G1 X138.152 Y180.76 E6.7219
G1 X137.663 Y180.912 E6.73212
G1 X137.37 Y180.995 E6.73819
G1 X136.8 Y181.141 E6.74993
G1 X136.305 Y181.25 E6.76005
G1 X135.951 Y181.319 E6.76725
G1 X135.129 Y181.446 E6.78385
G1 X134.57 Y181.51 E6.79507
G1 X133.933 Y181.564 E6.80783
G1 X133.691 Y181.577 E6.81267
G1 X133.094 Y181.592 E6.82459
G1 X132.712 Y181.591 E6.83221
G1 X132.249 Y181.58 E6.84145
G1 X132.012 Y181.569 E6.84619
G1 X131.272 Y181.508 E6.861
G1 X130.716 Y181.443 E6.87217
G1 X130.082 Y181.35 E6.88496
G1 X129.847 Y181.308 E6.88973
G1 X129.314 Y181.198 E6.90059
G1 X128.991 Y181.123 E6.9072
G1 X128.447 Y180.982 E6.91842
G1 X128.087 Y180.878 E6.9259
G1 X127.452 Y180.672 E6.93922
G1 X127.067 Y180.534 E6.94738
G1 X126.474 Y180.301 E6.9601
G1 X126.266 Y180.212 E6.96461
G1 X125.773 Y179.988 E6.97542
G1 X125.331 Y179.773 E6.98523
G1 X124.895 Y179.543 E6.99506
G1 X124.631 Y179.396 E7.00109
G1 X124.1 Y179.08 E7.01342
G1 X123.754 Y178.86 E7.02161
G1 X123.204 Y178.485 E7.03489
G1 X122.932 Y178.287 E7.0416
