;FLAVOR:Marlin
;TIME:3822
;Filament used: 1.74038m
;Layer height: 0.16
;MINX:105.468
;MINY:123.125
;MINZ:0.16
;MAXX:195.115
;MAXY:175.139
;MAXZ:18.96
;Generated with Cura_SteamEngine 4.6.1
M140 S60
M105
M190 S60
M104 S220
M105
M109 S220
M82 ;absolute extrusion mode
M201 X500.00 Y500.00 Z100.00 E5000.00 ;Setup machine max acceleration
M203 X500.00 Y500.00 Z10.00 E50.00 ;Setup machine max feedrate
M204 P500.00 R1000.00 T500.00 ;Setup Print/Retract/Travel acceleration
M205 X8.00 Y8.00 Z0.40 E5.00 ;Setup Jerk
M220 S100 ;Reset Feedrate
M221 S100 ;Reset Flowrate

G28 ;Home

G92 E0 ;Reset Extruder
G1 Z2.0 F3000 ;Move Z Axis up
G1 X10.1 Y20 Z0.28 F5000.0 ;Move to start position
G1 X10.1 Y200.0 Z0.28 F1500.0 E15 ;Draw the first line
G1 X10.4 Y200.0 Z0.28 F5000.0 ;Move to side a little
G1 X10.4 Y20 Z0.28 F1500.0 E30 ;Draw the second line
G92 E0 ;Reset Extruder
G1 Z2.0 F3000 ;Move Z Axis up

G92 E0
G92 E0
G1 F2700 E-5
;LAYER_COUNT:109
;LAYER:0
M107
G0 F6000 X120.896 Y124.029 Z0.16
;TYPE:SKIRT
G1 F2700 E0
G1 F1200 X121.782 Y124.201 E0.02882
G1 X122.65 Y124.451 E0.05766
G1 X123.136 Y124.628 E0.07417
G1 X125.693 Y125.635 E0.16192
G1 X128.051 Y126.488 E0.24199
G1 X130.477 Y127.291 E0.32358
G1 X132.935 Y128.026 E0.4055
G1 X135.351 Y128.676 E0.48538
G1 X137.858 Y129.274 E0.56768
G1 X140.329 Y129.789 E0.64827
G1 X142.824 Y130.237 E0.72921
G1 X145.308 Y130.611 E0.80942
G1 X147.833 Y130.917 E0.89063
G1 X151.673 Y131.249 E1.0137
G1 X175.89 Y132.839 E1.7886
G1 X177.155 Y132.947 E1.82914
G1 X178.094 Y133.071 E1.85938
G1 X178.344 Y133.116 E1.8675
G1 X179.26 Y133.325 E1.89749
G1 X179.603 Y133.42 E1.90886
G1 X180.452 Y133.696 E1.93736
G1 X180.666 Y133.776 E1.94466
G1 X181.479 Y134.121 E1.97286
G1 X181.836 Y134.291 E1.98548
G1 X182.704 Y134.757 E2.01694
G1 X182.937 Y134.897 E2.02562
G1 X183.586 Y135.321 E2.05037
G1 X183.796 Y135.47 E2.05859
G1 X184.602 Y136.105 E2.09136
G1 X184.925 Y136.387 E2.10505
G1 X185.579 Y137.011 E2.13391
G1 X185.743 Y137.182 E2.14147
G1 X186.36 Y137.888 E2.17141
G1 X186.575 Y138.158 E2.18243
G1 X187.097 Y138.875 E2.21075
G1 X187.282 Y139.154 E2.22144
G1 X187.464 Y139.439 E2.23224
G1 X187.687 Y139.801 E2.24581
G1 X189.1 Y142.022 E2.32986
G1 X190.542 Y144.151 E2.41197
G1 X192.398 Y146.73 E2.51342
G1 X192.893 Y147.485 E2.54225
G1 X193.319 Y148.282 E2.5711
G1 X193.672 Y149.113 E2.59993
G1 X193.951 Y149.972 E2.62877
G1 X194.153 Y150.852 E2.6576
G1 X194.276 Y151.747 E2.68644
G1 X194.319 Y152.649 E2.71528
G1 X194.282 Y153.551 E2.7441
G1 X194.166 Y154.447 E2.77295
G1 X194.014 Y155.165 E2.79638
G1 X193.82 Y155.934 E2.82171
G1 X191.119 Y166.042 E3.15578
G1 X190.915 Y166.763 E3.1797
G1 X190.751 Y167.291 E3.19736
G1 X190.436 Y168.137 E3.22618
G1 X190.046 Y168.952 E3.25503
G1 X189.587 Y169.73 E3.28387
G1 X189.06 Y170.463 E3.3127
G1 X188.47 Y171.147 E3.34154
G1 X187.823 Y171.777 E3.37037
G1 X187.122 Y172.346 E3.3992
G1 X186.373 Y172.851 E3.42804
G1 X185.583 Y173.288 E3.45687
G1 X184.757 Y173.654 E3.48572
G1 X183.902 Y173.945 E3.51456
G1 X183.025 Y174.159 E3.54338
G1 X182.132 Y174.295 E3.57222
G1 X181.231 Y174.351 E3.60105
G1 X180.527 Y174.34 E3.62353
G1 X179.651 Y174.294 E3.65154
G1 X176.638 Y174.096 E3.74795
G1 X123.617 Y170.619 E5.44453
G1 X122.345 Y170.509 E5.4853
G1 X121.459 Y170.393 E5.51383
G1 X121.22 Y170.351 E5.52158
G1 X120.282 Y170.14 E5.55227
G1 X119.929 Y170.043 E5.56396
G1 X119.015 Y169.745 E5.59466
G1 X118.812 Y169.668 E5.60159
G1 X118.108 Y169.371 E5.62599
G1 X117.768 Y169.212 E5.63797
G1 X116.856 Y168.727 E5.67095
G1 X116.595 Y168.571 E5.68066
G1 X115.85 Y168.08 E5.70915
G1 X115.615 Y167.91 E5.71841
G1 X114.889 Y167.333 E5.74802
G1 X114.584 Y167.067 E5.76095
G1 X113.93 Y166.444 E5.78979
G1 X113.457 Y165.916 E5.81242
G1 X113.043 Y165.42 E5.83305
G1 X112.29 Y164.393 E5.87371
G1 X112.17 Y164.206 E5.88081
G1 X111.783 Y163.552 E5.90507
G1 X111.645 Y163.297 E5.91433
G1 X111.255 Y162.494 E5.94283
G1 X111.097 Y162.129 E5.95553
G1 X110.732 Y161.151 E5.98886
G1 X110.659 Y160.92 E5.9966
G1 X110.444 Y160.129 E6.02277
G1 X110.362 Y159.772 E6.03447
G1 X110.246 Y159.19 E6.05341
G1 X110.117 Y158.422 E6.07828
G1 X109.914 Y157.093 E6.12121
G1 X109.463 Y154.607 E6.20188
G1 X108.942 Y152.136 E6.28251
G1 X108.427 Y149.977 E6.35338
G1 X108.133 Y148.81 E6.39181
G1 X108.013 Y148.275 E6.40932
G1 X107.97 Y148.055 E6.41647
G1 X107.907 Y147.698 E6.42805
G1 X107.804 Y147.023 E6.44985
G1 X106.978 Y140.735 E6.65235
G1 X106.405 Y136.327 E6.79428
G1 X106.332 Y135.704 E6.81431
G1 X106.267 Y134.803 E6.84315
G1 X106.282 Y133.9 E6.87199
G1 X106.376 Y133.002 E6.90082
G1 X106.55 Y132.116 E6.92965
G1 X106.801 Y131.248 E6.9585
G1 X107.128 Y130.407 E6.98731
G1 X107.528 Y129.597 E7.01615
G1 X107.998 Y128.826 E7.04499
G1 X108.535 Y128.1 E7.07382
G1 X109.134 Y127.423 E7.10268
G1 X109.79 Y126.803 E7.1315
G1 X110.498 Y126.243 E7.16033
G1 X111.253 Y125.748 E7.18915
G1 X112.05 Y125.321 E7.21802
G1 X112.88 Y124.967 E7.24683
G1 X113.739 Y124.687 E7.27568
G1 X114.902 Y124.437 E7.31366
G1 X115.843 Y124.294 E7.34406
G1 X117.463 Y124.077 E7.39624
G1 X118.194 Y123.99 E7.41975
G1 X119.094 Y123.924 E7.44856
G1 X119.997 Y123.937 E7.4774
G1 X120.896 Y124.029 E7.50625
G0 F6000 X120.901 Y123.626
G1 F1200 X121.806 Y123.796 E7.53565
G1 X122.693 Y124.044 E7.56506
G1 X123.283 Y124.256 E7.58508
G1 X125.839 Y125.263 E7.6728
G1 X128.175 Y126.108 E7.75212
G1 X130.602 Y126.911 E7.83374
G1 X133.015 Y127.633 E7.91416
G1 X135.476 Y128.294 E7.99553
G1 X137.935 Y128.882 E8.07625
G1 X140.403 Y129.395 E8.15674
G1 X142.883 Y129.841 E8.2372
G1 X145.384 Y130.217 E8.31795
G1 X147.856 Y130.517 E8.39746
G1 X151.733 Y130.852 E8.52171
G1 X175.924 Y132.44 E9.29579
G1 X177.189 Y132.548 E9.33633
G1 X178.165 Y132.678 E9.36776
G1 X178.415 Y132.723 E9.37588
G1 X179.366 Y132.94 E9.40702
G1 X179.709 Y133.035 E9.41839
G1 X180.592 Y133.321 E9.44802
G1 X180.806 Y133.401 E9.45532
G1 X181.651 Y133.76 E9.48463
G1 X182.008 Y133.93 E9.49726
G1 X182.91 Y134.414 E9.52994
G1 X183.143 Y134.554 E9.53862
G1 X183.818 Y134.995 E9.56437
G1 X184.028 Y135.144 E9.57259
G1 X184.865 Y135.804 E9.60662
G1 X185.188 Y136.086 E9.62031
G1 X185.867 Y136.734 E9.65028
G1 X186.031 Y136.905 E9.65785
G1 X186.673 Y137.639 E9.68898
G1 X186.888 Y137.909 E9.7
G1 X187.43 Y138.654 E9.72942
G1 X187.615 Y138.933 E9.74011
G1 X187.804 Y139.229 E9.75132
G1 X188.001 Y139.549 E9.76332
G1 X189.442 Y141.812 E9.84898
G1 X190.865 Y143.914 E9.93003
G1 X192.723 Y146.496 E10.0316
G1 X193.228 Y147.266 E10.061
G1 X193.664 Y148.077 E10.0904
G1 X194.028 Y148.922 E10.11978
G1 X194.317 Y149.796 E10.14917
G1 X194.53 Y150.692 E10.17858
G1 X194.663 Y151.603 E10.20798
G1 X194.718 Y152.522 E10.23737
G1 X194.692 Y153.442 E10.26676
G1 X194.587 Y154.357 E10.29617
G1 X194.402 Y155.262 E10.32566
G1 X194.206 Y156.037 E10.35118
G1 X191.504 Y166.151 E10.68545
G1 X191.3 Y166.872 E10.70937
G1 X191.132 Y167.414 E10.72749
G1 X190.811 Y168.277 E10.75689
G1 X190.416 Y169.109 E10.7863
G1 X189.951 Y169.903 E10.81568
G1 X189.418 Y170.654 E10.84508
G1 X188.822 Y171.356 E10.87449
G1 X188.168 Y172.004 E10.90388
G1 X187.46 Y172.592 E10.93327
G1 X186.704 Y173.117 E10.96266
G1 X185.904 Y173.574 E10.99208
G1 X185.069 Y173.96 E11.02145
G1 X184.202 Y174.272 E11.05087
G1 X183.312 Y174.508 E11.08027
G1 X182.405 Y174.665 E11.10966
G1 X181.488 Y174.744 E11.13905
G1 X180.506 Y174.739 E11.1704
G1 X179.625 Y174.693 E11.19857
G1 X176.612 Y174.495 E11.29498
G1 X123.583 Y171.018 E12.99182
G1 X122.311 Y170.908 E13.03259
G1 X121.389 Y170.787 E13.06228
G1 X121.15 Y170.745 E13.07003
G1 X120.176 Y170.526 E13.1019
G1 X119.823 Y170.429 E13.11359
G1 X118.873 Y170.119 E13.1455
G1 X118.67 Y170.042 E13.15243
G1 X117.939 Y169.733 E13.17777
G1 X117.599 Y169.574 E13.18976
G1 X116.651 Y169.071 E13.22402
G1 X116.39 Y168.915 E13.23373
G1 X115.615 Y168.404 E13.26337
G1 X115.38 Y168.234 E13.27263
G1 X114.626 Y167.635 E13.30338
G1 X114.321 Y167.369 E13.3163
G1 X113.654 Y166.734 E13.34571
G1 X113.15 Y166.172 E13.36981
G1 X112.736 Y165.676 E13.39044
G1 X111.953 Y164.609 E13.4327
G1 X111.833 Y164.422 E13.43979
G1 X111.432 Y163.742 E13.465
G1 X111.294 Y163.487 E13.47426
G1 X110.888 Y162.653 E13.50387
G1 X110.73 Y162.288 E13.51657
G1 X110.351 Y161.271 E13.55123
G1 X110.278 Y161.04 E13.55896
G1 X110.054 Y160.219 E13.58613
G1 X109.972 Y159.862 E13.59783
G1 X109.851 Y159.257 E13.61753
G1 X109.722 Y158.483 E13.64258
G1 X109.525 Y157.188 E13.68441
G1 X109.07 Y154.683 E13.7657
G1 X108.547 Y152.204 E13.8466
G1 X108.039 Y150.075 E13.91648
G1 X107.745 Y148.908 E13.95491
G1 X107.621 Y148.351 E13.97313
G1 X107.578 Y148.131 E13.98029
G1 X107.512 Y147.761 E13.99229
G1 X107.407 Y147.076 E14.01442
G1 X106.581 Y140.788 E14.21692
G1 X106.008 Y136.374 E14.35904
G1 X105.935 Y135.751 E14.37906
G1 X105.868 Y134.832 E14.40849
G1 X105.88 Y133.912 E14.43786
G1 X105.973 Y132.996 E14.46726
G1 X106.144 Y132.091 E14.49667
G1 X106.394 Y131.205 E14.52606
G1 X106.719 Y130.344 E14.55545
G1 X107.118 Y129.514 E14.58485
G1 X107.587 Y128.722 E14.61424
G1 X108.124 Y127.974 E14.64364
G1 X108.723 Y127.275 E14.67304
G1 X109.38 Y126.631 E14.70241
G1 X110.091 Y126.046 E14.73181
G1 X110.851 Y125.525 E14.76123
G1 X111.652 Y125.072 E14.79061
G1 X112.49 Y124.69 E14.82002
G1 X113.357 Y124.382 E14.8494
G1 X114.249 Y124.151 E14.87882
G1 X114.84 Y124.042 E14.89801
G1 X115.79 Y123.897 E14.92869
G1 X117.415 Y123.68 E14.98104
G1 X118.146 Y123.593 E15.00454
G1 X119.064 Y123.524 E15.03394
G1 X119.985 Y123.535 E15.06335
G1 X120.901 Y123.626 E15.09274
G0 F6000 X120.906 Y123.223
G1 F1200 X121.828 Y123.391 E15.12266
G1 X122.733 Y123.637 E15.15261
G1 X123.429 Y123.884 E15.17619
G1 X125.973 Y124.886 E15.26349
G1 X128.289 Y125.724 E15.34213
G1 X130.737 Y126.534 E15.42446
G1 X133.129 Y127.249 E15.50418
G1 X135.568 Y127.905 E15.58482
G1 X138.037 Y128.495 E15.66588
G1 X140.455 Y128.998 E15.74474
G1 X142.976 Y129.451 E15.82652
G1 X145.416 Y129.818 E15.90531
G1 X147.914 Y130.121 E15.98565
G1 X151.744 Y130.453 E16.1084
G1 X175.958 Y132.042 E16.88321
G1 X177.223 Y132.15 E16.92375
G1 X178.236 Y132.284 E16.95637
G1 X178.486 Y132.329 E16.96448
G1 X179.473 Y132.554 E16.99681
G1 X179.816 Y132.649 E17.00817
G1 X180.732 Y132.946 E17.03892
G1 X180.946 Y133.026 E17.04621
G1 X181.823 Y133.399 E17.07664
G1 X182.18 Y133.569 E17.08927
G1 X183.116 Y134.071 E17.12318
G1 X183.349 Y134.211 E17.13186
G1 X184.049 Y134.669 E17.15857
G1 X184.259 Y134.818 E17.16679
G1 X185.128 Y135.503 E17.20212
G1 X185.451 Y135.785 E17.21581
G1 X186.156 Y136.457 E17.24691
G1 X186.32 Y136.628 E17.25448
G1 X186.986 Y137.39 E17.28679
G1 X187.201 Y137.66 E17.29781
G1 X187.764 Y138.433 E17.32835
G1 X187.949 Y138.712 E17.33904
G1 X188.145 Y139.019 E17.35067
G1 X188.394 Y139.423 E17.36582
G1 X189.767 Y141.579 E17.44743
G1 X191.177 Y143.662 E17.52775
G1 X193.048 Y146.262 E17.63003
G1 X193.563 Y147.046 E17.65998
G1 X194.009 Y147.871 E17.68992
G1 X194.383 Y148.731 E17.71986
G1 X194.683 Y149.62 E17.74982
G1 X194.906 Y150.531 E17.77977
G1 X195.05 Y151.458 E17.80972
G1 X195.115 Y152.393 E17.83965
G1 X195.1 Y153.331 E17.8696
G1 X195.005 Y154.264 E17.89955
G1 X194.79 Y155.359 E17.93518
G1 X194.592 Y156.14 E17.9609
G1 X191.888 Y166.26 E18.29537
G1 X191.684 Y166.981 E18.31929
G1 X191.512 Y167.537 E18.33788
G1 X191.186 Y168.417 E18.36784
G1 X190.786 Y169.265 E18.39778
G1 X190.315 Y170.076 E18.42772
G1 X189.777 Y170.844 E18.45766
G1 X189.175 Y171.563 E18.48761
G1 X188.514 Y172.229 E18.51757
G1 X187.799 Y172.836 E18.54751
G1 X187.035 Y173.38 E18.57746
G1 X186.227 Y173.856 E18.6074
G1 X185.382 Y174.262 E18.63734
G1 X184.505 Y174.595 E18.66729
G1 X183.603 Y174.852 E18.69724
G1 X182.682 Y175.031 E18.7272
G1 X181.75 Y175.13 E18.75712
G1 X180.486 Y175.139 E18.79748
G1 X179.599 Y175.092 E18.82584
G1 X176.586 Y174.894 E18.92225
G1 X123.548 Y171.416 E20.61938
G1 X122.276 Y171.306 E20.66015
G1 X121.32 Y171.181 E20.69093
G1 X121.081 Y171.139 E20.69868
G1 X120.07 Y170.912 E20.73176
G1 X119.717 Y170.815 E20.74345
G1 X118.731 Y170.493 E20.77657
G1 X118.528 Y170.416 E20.7835
G1 X117.769 Y170.095 E20.80982
G1 X117.429 Y169.936 E20.8218
G1 X116.446 Y169.414 E20.85734
G1 X116.185 Y169.258 E20.86705
G1 X115.381 Y168.728 E20.8978
G1 X115.146 Y168.558 E20.90706
G1 X114.363 Y167.936 E20.93899
G1 X114.058 Y167.67 E20.95191
G1 X113.378 Y167.024 E20.98186
G1 X112.843 Y166.429 E21.00741
G1 X112.429 Y165.933 E21.02803
G1 X111.616 Y164.825 E21.07191
G1 X111.496 Y164.638 E21.07901
G1 X111.08 Y163.932 E21.10517
G1 X110.942 Y163.677 E21.11443
G1 X110.521 Y162.812 E21.14515
G1 X110.363 Y162.447 E21.15785
G1 X109.969 Y161.392 E21.19381
G1 X109.896 Y161.161 E21.20154
G1 X109.664 Y160.308 E21.22977
G1 X109.582 Y159.951 E21.24146
G1 X109.457 Y159.324 E21.26188
G1 X109.327 Y158.543 E21.28716
G1 X109.13 Y157.248 E21.32898
G1 X108.68 Y154.772 E21.40933
G1 X108.159 Y152.301 E21.48997
G1 X107.651 Y150.172 E21.55985
G1 X107.357 Y149.005 E21.59828
G1 X107.228 Y148.428 E21.61716
G1 X107.185 Y148.208 E21.62432
G1 X107.117 Y147.823 E21.6368
G1 X107.011 Y147.128 E21.65925
G1 X106.185 Y140.84 E21.86175
G1 X105.611 Y136.42 E22.00406
G1 X105.538 Y135.797 E22.02409
G1 X105.468 Y134.862 E22.05403
G1 X105.479 Y133.924 E22.08398
G1 X105.569 Y132.991 E22.11391
G1 X105.739 Y132.068 E22.14387
G1 X105.987 Y131.164 E22.17381
G1 X106.31 Y130.283 E22.20377
G1 X106.708 Y129.434 E22.23371
G1 X107.176 Y128.621 E22.26366
G1 X107.712 Y127.852 E22.29359
G1 X108.312 Y127.131 E22.32354
G1 X108.971 Y126.463 E22.3535
G1 X109.684 Y125.854 E22.38344
G1 X110.447 Y125.308 E22.4134
G1 X111.253 Y124.829 E22.44333
G1 X112.097 Y124.421 E22.47327
G1 X112.973 Y124.085 E22.50322
G1 X113.874 Y123.826 E22.53316
G1 X114.779 Y123.647 E22.56261
G1 X115.737 Y123.501 E22.59356
G1 X117.368 Y123.283 E22.6461
G1 X118.099 Y123.196 E22.6696
G1 X119.034 Y123.125 E22.69954
G1 X119.972 Y123.134 E22.72949
G1 X120.906 Y123.223 E22.75945
G0 F6000 X118.264 Y135.674
G1 F1200 X118.308 Y135.668 E22.76087
G1 X118.495 Y137.092 E22.80673
G1 X118.45 Y137.089 E22.80817
G1 X118.264 Y135.674 E22.85374
G0 F6000 X117.815 Y135.33
G1 F1200 X118.652 Y135.217 E22.8807
G1 X118.956 Y137.523 E22.95497
G1 X118.096 Y137.466 E22.98249
G1 X117.815 Y135.33 E23.05128
G0 F6000 X117.367 Y134.987
G1 F1200 X118.996 Y134.768 E23.10376
G1 X119.416 Y137.954 E23.20637
G1 X117.743 Y137.843 E23.25991
G1 X117.367 Y134.987 E23.35188
G0 F6000 X116.918 Y134.643
G1 F1200 X119.341 Y134.318 E23.42994
G1 X119.876 Y138.385 E23.56092
G1 X117.389 Y138.221 E23.6405
G1 X116.918 Y134.643 E23.75573
G1 F2700 E18.75573
G0 F6000 X176.751 Y142.51
G0 X177.813 Y142.928
G0 X178.687 Y143.583
G0 X179.381 Y144.48
G0 X179.72 Y145.308
G0 X181.29 Y152.131
G1 F2700 E23.75573
G1 F1200 X183.049 Y152.602 E23.81387
G1 X183.649 Y152.762 E23.8337
G1 X182.714 Y156.255 E23.94916
G1 X180.228 Y156.092 E24.02871
G1 X181.29 Y152.131 E24.15965
G0 F6000 X181.574 Y152.622
G1 F1200 X182.946 Y152.989 E24.205
G1 X183.159 Y153.046 E24.21204
G1 X182.412 Y155.835 E24.30423
G1 X180.741 Y155.725 E24.3577
G1 X181.574 Y152.622 E24.46028
G0 F6000 X181.856 Y153.111
G1 F1200 X182.669 Y153.329 E24.48716
G1 X182.111 Y155.414 E24.55607
G1 X181.254 Y155.358 E24.5835
G1 X181.856 Y153.111 E24.65777
G0 F6000 X182.139 Y153.6
G1 F1200 X182.18 Y153.611 E24.65913
G1 X181.81 Y154.994 E24.70484
G1 X181.766 Y154.991 E24.70625
G1 X182.139 Y153.6 E24.75223
G1 F2700 E19.75223
;MESH:Arm_L.stl
G0 F6000 X177.414 Y150.383
G0 X176.871 Y149.22
G0 X175.361 Y148.82
G0 X175.378 Y148.722
;TYPE:WALL-INNER
G1 F2700 E24.75223
G1 F1200 X175.662 Y148.755 E24.76136
G1 X175.949 Y148.753 E24.77052
G1 X176.236 Y148.711 E24.77979
G1 X176.516 Y148.631 E24.78908
G1 X176.779 Y148.516 E24.79825
G1 X177.025 Y148.369 E24.8074
G1 X177.251 Y148.19 E24.81661
G1 X177.45 Y147.983 E24.82577
G1 X177.624 Y147.752 E24.83501
G1 X177.762 Y147.498 E24.84424
G1 X177.868 Y147.232 E24.85338
G1 X177.937 Y146.954 E24.86253
G1 X177.97 Y146.67 E24.87166
G1 X177.968 Y146.382 E24.88085
G1 X177.926 Y146.096 E24.89008
G1 X177.846 Y145.817 E24.89935
G1 X177.731 Y145.552 E24.90857
G1 X177.583 Y145.307 E24.91771
G1 X177.406 Y145.083 E24.92683
G1 X177.199 Y144.88 E24.93608
G1 X176.965 Y144.708 E24.94536
G1 X176.716 Y144.571 E24.95443
G1 X176.434 Y144.458 E24.96413
