;FLAVOR:Marlin
;TIME:5009
;Filament used: 2.47687m
;Layer height: 0.16
;MINX:64.162
;MINY:119.193
;MINZ:0.16
;MAXX:236.112
;MAXY:190.546
;MAXZ:4.4
;Generated with Cura_SteamEngine 4.6.1
M140 S60
M105
M190 S60
M104 S220
M105
M109 S220
M82 ;absolute extrusion mode
M201 X500.00 Y500.00 Z100.00 E5000.00 ;Setup machine max acceleration
M203 X500.00 Y500.00 Z10.00 E50.00 ;Setup machine max feedrate
M204 P500.00 R1000.00 T500.00 ;Setup Print/Retract/Travel acceleration
M205 X8.00 Y8.00 Z0.40 E5.00 ;Setup Jerk
M220 S100 ;Reset Feedrate
M221 S100 ;Reset Flowrate

G28 ;Home

G92 E0 ;Reset Extruder
G1 Z2.0 F3000 ;Move Z Axis up
G1 X10.1 Y20 Z0.28 F5000.0 ;Move to start position
G1 X10.1 Y200.0 Z0.28 F1500.0 E15 ;Draw the first line
G1 X10.4 Y200.0 Z0.28 F5000.0 ;Move to side a little
G1 X10.4 Y20 Z0.28 F1500.0 E30 ;Draw the second line
G92 E0 ;Reset Extruder
G1 Z2.0 F3000 ;Move Z Axis up

G92 E0
G92 E0
G1 F2700 E-5
;LAYER_COUNT:27
;LAYER:0
M107
G0 F6000 X153.922 Y119.857 Z0.16
;TYPE:SKIRT
G1 F2700 E0
G1 F1200 X154.696 Y119.893 E0.01979
G1 X155.519 Y119.956 E0.04088
G1 X156.264 Y120.034 E0.06001
G1 X157.061 Y120.139 E0.08054
G1 X157.826 Y120.262 E0.10034
G1 X158.57 Y120.403 E0.11968
G1 X159.224 Y120.548 E0.13679
G1 X159.952 Y120.727 E0.15594
G1 X160.26 Y120.808 E0.16408
G1 X161.279 Y121.102 E0.19117
G1 X161.538 Y121.184 E0.19811
G1 X162.279 Y121.437 E0.21811
G1 X163.062 Y121.728 E0.23944
G1 X163.8 Y122.028 E0.25979
G1 X164.46 Y122.317 E0.2782
G1 X165.134 Y122.635 E0.29723
G1 X165.871 Y123.007 E0.31832
G1 X166.596 Y123.401 E0.3394
G1 X167.233 Y123.771 E0.35822
G1 X167.857 Y124.157 E0.37696
G1 X168.542 Y124.605 E0.39787
G1 X169.88 Y125.534 E0.43947
G1 X170.589 Y126.056 E0.46196
G1 X170.893 Y126.293 E0.47181
G1 X172.651 Y127.696 E0.52926
G1 X174.698 Y129.237 E0.59471
G1 X176.773 Y130.71 E0.65971
G1 X178.868 Y132.107 E0.72403
G1 X181.029 Y133.465 E0.78923
G1 X183.202 Y134.743 E0.85362
G1 X185.439 Y135.976 E0.91887
G1 X187.708 Y137.145 E0.98407
G1 X189.965 Y138.228 E1.04801
G1 X192.333 Y139.282 E1.11422
G1 X194.655 Y140.239 E1.17838
G1 X197.055 Y141.15 E1.24395
G1 X199.444 Y141.978 E1.30853
G1 X201.846 Y142.736 E1.37287
G1 X204.314 Y143.439 E1.43842
G1 X206.789 Y144.07 E1.50367
G1 X209.231 Y144.618 E1.5676
G1 X212.327 Y145.213 E1.64813
G1 X219.927 Y146.542 E1.8452
G1 X220.794 Y146.706 E1.86774
G1 X221.253 Y146.804 E1.87973
G1 X221.691 Y146.908 E1.89123
G1 X222.211 Y147.046 E1.90497
G1 X222.619 Y147.166 E1.91584
G1 X223.196 Y147.351 E1.93132
G1 X223.722 Y147.541 E1.9456
G1 X224.119 Y147.697 E1.9565
G1 X224.643 Y147.917 E1.97101
G1 X225.153 Y148.153 E1.98537
G1 X225.852 Y148.506 E2.00537
G1 X226.067 Y148.621 E2.0116
G1 X226.615 Y148.936 E2.02775
G1 X227.199 Y149.301 E2.04534
G1 X227.416 Y149.443 E2.05196
G1 X227.904 Y149.783 E2.06715
G1 X228.467 Y150.206 E2.08514
G1 X228.698 Y150.387 E2.09264
G1 X229.174 Y150.783 E2.10845
G1 X229.457 Y151.034 E2.11812
G1 X229.923 Y151.468 E2.13438
G1 X230.31 Y151.855 E2.14836
G1 X230.808 Y152.387 E2.16698
G1 X230.985 Y152.586 E2.17378
G1 X231.341 Y153.009 E2.1879
G1 X231.646 Y153.392 E2.20041
G1 X231.996 Y153.853 E2.21519
G1 X232.314 Y154.306 E2.22933
G1 X232.518 Y154.614 E2.23877
G1 X232.703 Y154.904 E2.24755
G1 X232.872 Y155.179 E2.2558
G1 X233.143 Y155.647 E2.26961
G1 X233.349 Y156.026 E2.28063
G1 X233.61 Y156.535 E2.29524
G1 X233.851 Y157.05 E2.30977
G1 X234.125 Y157.689 E2.32753
G1 X234.225 Y157.937 E2.33436
G1 X234.445 Y158.537 E2.35068
G1 X234.684 Y159.271 E2.3704
G1 X234.761 Y159.529 E2.37728
G1 X234.904 Y160.063 E2.3914
G1 X235.054 Y160.703 E2.40819
G1 X235.112 Y160.976 E2.41532
G1 X235.231 Y161.644 E2.43265
G1 X235.326 Y162.332 E2.45039
G1 X235.358 Y162.604 E2.45739
G1 X235.41 Y163.181 E2.47219
G1 X235.436 Y163.613 E2.48324
G1 X235.45 Y163.939 E2.49158
G1 X235.472 Y164.867 E2.51529
G1 X235.471 Y171.154 E2.67588
G1 X235.458 Y172.104 E2.70015
G1 X235.442 Y172.546 E2.71145
G1 X235.416 Y173 E2.72306
G1 X235.365 Y173.592 E2.73824
G1 X235.278 Y174.3 E2.75646
G1 X235.239 Y174.567 E2.76336
G1 X235.141 Y175.13 E2.77795
G1 X235.05 Y175.576 E2.78958
G1 X234.919 Y176.145 E2.80449
G1 X234.781 Y176.658 E2.81806
G1 X234.561 Y177.383 E2.83742
G1 X234.481 Y177.626 E2.84395
G1 X234.274 Y178.197 E2.85947
G1 X234.01 Y178.853 E2.87753
G1 X233.902 Y179.104 E2.88451
G1 X233.656 Y179.632 E2.89939
G1 X233.312 Y180.31 E2.91881
G1 X233.19 Y180.536 E2.92537
G1 X232.898 Y181.041 E2.94027
G1 X232.526 Y181.638 E2.95824
G1 X232.384 Y181.855 E2.96486
G1 X232.025 Y182.368 E2.98086
G1 X231.459 Y183.113 E3.00476
G1 X231.028 Y183.63 E3.02195
G1 X230.556 Y184.151 E3.03991
G1 X230.355 Y184.363 E3.04737
G1 X229.971 Y184.747 E3.06124
G1 X229.684 Y185.019 E3.07134
G1 X229.437 Y185.246 E3.07991
G1 X229.198 Y185.458 E3.08807
G1 X228.785 Y185.805 E3.10185
G1 X228.466 Y186.059 E3.11227
G1 X227.986 Y186.423 E3.12765
G1 X227.516 Y186.752 E3.14231
G1 X227.138 Y187.001 E3.15387
G1 X226.629 Y187.318 E3.16919
G1 X226.191 Y187.571 E3.18211
G1 X225.816 Y187.775 E3.19301
G1 X225.253 Y188.063 E3.20917
G1 X224.754 Y188.296 E3.22323
G1 X224.099 Y188.575 E3.24142
G1 X223.838 Y188.679 E3.2486
G1 X223.275 Y188.884 E3.2639
G1 X222.605 Y189.103 E3.28191
G1 X222.326 Y189.187 E3.28935
G1 X221.758 Y189.34 E3.30437
G1 X221.093 Y189.495 E3.32182
G1 X220.811 Y189.554 E3.32918
G1 X220.177 Y189.665 E3.34562
G1 X219.521 Y189.757 E3.36254
G1 X219.227 Y189.792 E3.3701
G1 X218.627 Y189.845 E3.38549
G1 X217.939 Y189.881 E3.40308
G1 X217.047 Y189.902 E3.42588
G1 X91.897 Y189.906 E6.62268
G1 X83.526 Y189.905 E6.83651
G1 X82.6 Y189.892 E6.86016
G1 X82.14 Y189.875 E6.87192
G1 X81.686 Y189.848 E6.88354
G1 X81.112 Y189.798 E6.89826
G1 X80.405 Y189.711 E6.91645
G1 X80.144 Y189.673 E6.92319
G1 X79.577 Y189.574 E6.93789
G1 X79.131 Y189.483 E6.94952
G1 X78.534 Y189.345 E6.96517
G1 X78.047 Y189.214 E6.97805
G1 X77.612 Y189.085 E6.98964
G1 X77.075 Y188.912 E7.00405
G1 X76.529 Y188.713 E7.0189
G1 X75.836 Y188.434 E7.03798
G1 X75.567 Y188.318 E7.04546
G1 X75.057 Y188.081 E7.05983
G1 X74.722 Y187.914 E7.06939
G1 X74.409 Y187.751 E7.07841
G1 X74.151 Y187.611 E7.0859
G1 X73.672 Y187.334 E7.10004
G1 X73.084 Y186.968 E7.11773
G1 X72.857 Y186.82 E7.12465
G1 X72.339 Y186.459 E7.14078
G1 X71.768 Y186.029 E7.15904
G1 X71.571 Y185.874 E7.16544
G1 X71.089 Y185.47 E7.18151
G1 X70.548 Y184.981 E7.20013
G1 X70.346 Y184.79 E7.20723
G1 X69.961 Y184.406 E7.22112
G1 X69.444 Y183.855 E7.24042
G1 X69.261 Y183.649 E7.24746
G1 X68.893 Y183.209 E7.26211
G1 X68.441 Y182.631 E7.28086
G1 X68.291 Y182.429 E7.28728
G1 X67.962 Y181.959 E7.30194
G1 X67.698 Y181.558 E7.3142
G1 X67.401 Y181.084 E7.32849
G1 X67.131 Y180.616 E7.34229
G1 X66.928 Y180.242 E7.35316
G1 X66.644 Y179.687 E7.36909
G1 X66.411 Y179.188 E7.38315
G1 X66.128 Y178.524 E7.40159
G1 X66.013 Y178.234 E7.40956
G1 X65.817 Y177.694 E7.42424
G1 X65.605 Y177.042 E7.44175
G1 X65.515 Y176.741 E7.44977
G1 X65.367 Y176.191 E7.46432
G1 X65.212 Y175.526 E7.48176
G1 X65.153 Y175.244 E7.48912
G1 X65.042 Y174.61 E7.50556
G1 X64.951 Y173.957 E7.52241
G1 X64.917 Y173.672 E7.52974
G1 X64.862 Y173.06 E7.54543
G1 X64.825 Y172.346 E7.5637
G1 X64.802 Y171.39 E7.58812
G1 X64.803 Y165.06 E7.74981
G1 X64.816 Y164.146 E7.77316
G1 X64.832 Y163.696 E7.78467
G1 X64.858 Y163.252 E7.79603
G1 X64.908 Y162.682 E7.81064
G1 X64.993 Y161.984 E7.8286
G1 X65.032 Y161.716 E7.83552
G1 X65.133 Y161.14 E7.85046
G1 X65.226 Y160.686 E7.8623
G1 X65.307 Y160.322 E7.87182
G1 X65.372 Y160.055 E7.87884
G1 X65.498 Y159.587 E7.89122
G1 X65.612 Y159.2 E7.90153
G1 X65.8 Y158.615 E7.91722
G1 X65.998 Y158.073 E7.93196
G1 X66.286 Y157.361 E7.95158
G1 X66.383 Y157.136 E7.95784
G1 X66.636 Y156.593 E7.97314
G1 X66.943 Y155.993 E7.99036
G1 X67.081 Y155.737 E7.99779
G1 X67.37 Y155.234 E8.01261
G1 X67.597 Y154.865 E8.02367
G1 X67.928 Y154.355 E8.0392
G1 X68.267 Y153.871 E8.0543
G1 X68.653 Y153.357 E8.07072
G1 X68.811 Y153.155 E8.07727
G1 X69.225 Y152.66 E8.09375
G1 X69.533 Y152.314 E8.10558
G1 X69.947 Y151.871 E8.12107
G1 X70.322 Y151.497 E8.1346
G1 X70.617 Y151.218 E8.14497
G1 X71.06 Y150.818 E8.16022
G1 X71.494 Y150.455 E8.17467
G1 X72.11 Y149.973 E8.19465
G1 X72.304 Y149.829 E8.20082
G1 X72.781 Y149.496 E8.21568
G1 X73.364 Y149.117 E8.23344
G1 X73.605 Y148.968 E8.24068
G1 X74.123 Y148.669 E8.25596
G1 X74.501 Y148.465 E8.26693
G1 X75.023 Y148.199 E8.2819
G1 X75.528 Y147.964 E8.29612
G1 X75.971 Y147.773 E8.30845
G1 X76.478 Y147.568 E8.32242
G1 X77.016 Y147.372 E8.33704
G1 X77.408 Y147.242 E8.34759
G1 X77.975 Y147.069 E8.36273
G1 X78.498 Y146.93 E8.37656
G1 X78.977 Y146.816 E8.38913
G1 X79.298 Y146.745 E8.39753
G1 X80.134 Y146.579 E8.4193
G1 X87.92 Y145.218 E8.6212
G1 X90.548 Y144.721 E8.68952
G1 X93.009 Y144.182 E8.75388
G1 X95.494 Y143.564 E8.81928
G1 X97.929 Y142.885 E8.88386
G1 X100.333 Y142.141 E8.94814
G1 X102.782 Y141.306 E9.01423
G1 X105.13 Y140.431 E9.07824
G1 X107.515 Y139.465 E9.14397
G1 X109.803 Y138.46 E9.2078
G1 X112.123 Y137.363 E9.27335
G1 X114.37 Y136.223 E9.33771
G1 X116.644 Y134.985 E9.40385
G1 X118.808 Y133.728 E9.46778
G1 X120.972 Y132.387 E9.53281
G1 X123.088 Y130.99 E9.59757
G1 X125.192 Y129.515 E9.66321
G1 X127.202 Y128.02 E9.7272
G1 X128.555 Y126.942 E9.77139
G1 X129.649 Y126.085 E9.80688
G1 X129.987 Y125.831 E9.81768
G1 X130.801 Y125.249 E9.84324
G1 X131.969 Y124.448 E9.87942
G1 X132.658 Y124.004 E9.90036
G1 X133.298 Y123.619 E9.91944
G1 X133.975 Y123.236 E9.93931
G1 X134.657 Y122.875 E9.95902
G1 X135.354 Y122.531 E9.97887
G1 X136.047 Y122.213 E9.99835
G1 X136.71 Y121.931 E10.01675
G1 X137.31 Y121.692 E10.03325
G1 X137.623 Y121.574 E10.04179
G1 X138.437 Y121.284 E10.06387
G1 X138.927 Y121.125 E10.07703
G1 X139.483 Y120.955 E10.09188
G1 X139.792 Y120.866 E10.10009
G1 X140.419 Y120.699 E10.11666
G1 X141.194 Y120.513 E10.13702
G1 X141.694 Y120.405 E10.15009
G1 X142.02 Y120.34 E10.15858
G1 X142.739 Y120.213 E10.17723
G1 X143.499 Y120.099 E10.19686
G1 X144.296 Y120.001 E10.21737
G1 X145.074 Y119.929 E10.23733
G1 X145.803 Y119.881 E10.25599
G1 X146.659 Y119.849 E10.27787
G1 X147.905 Y119.833 E10.3097
G1 X152.51 Y119.834 E10.42733
G1 X153.922 Y119.857 E10.46341
G0 F6000 X153.935 Y119.538
G1 F1200 X154.719 Y119.574 E10.48345
G1 X155.55 Y119.637 E10.50474
G1 X156.305 Y119.716 E10.52413
G1 X157.111 Y119.823 E10.5449
G1 X157.884 Y119.947 E10.5649
G1 X158.637 Y120.09 E10.58448
G1 X159.3 Y120.237 E10.60182
G1 X160.346 Y120.499 E10.62937
G1 X161.373 Y120.796 E10.65668
G1 X161.64 Y120.881 E10.66383
G1 X162.389 Y121.136 E10.68404
G1 X162.884 Y121.317 E10.69751
G1 X163.181 Y121.431 E10.70563
G1 X163.927 Y121.734 E10.7262
G1 X164.595 Y122.027 E10.74483
G1 X165.277 Y122.348 E10.76409
G1 X165.739 Y122.578 E10.77727
G1 X166.022 Y122.725 E10.78542
G1 X166.755 Y123.123 E10.80672
G1 X167.4 Y123.498 E10.82578
G1 X168.031 Y123.888 E10.84473
G1 X168.724 Y124.342 E10.86589
G1 X170.069 Y125.276 E10.90772
G1 X170.785 Y125.803 E10.93043
G1 X171.092 Y126.043 E10.94038
G1 X172.856 Y127.451 E10.99803
G1 X174.866 Y128.964 E11.0623
G1 X176.927 Y130.426 E11.12684
G1 X179.072 Y131.858 E11.19272
G1 X181.192 Y133.189 E11.25666
G1 X183.36 Y134.464 E11.32091
G1 X185.597 Y135.698 E11.38617
G1 X187.836 Y136.851 E11.4505
G1 X190.12 Y137.947 E11.51521
G1 X192.442 Y138.981 E11.58014
G1 X194.778 Y139.943 E11.64467
G1 X197.173 Y140.853 E11.71012
G1 X199.544 Y141.674 E11.77421
G1 X201.918 Y142.423 E11.83779
G1 X204.412 Y143.134 E11.90404
G1 X206.868 Y143.76 E11.96878
G1 X209.299 Y144.305 E12.03242
G1 X212.322 Y144.887 E12.11106
G1 X219.987 Y146.228 E12.30982
G1 X220.854 Y146.392 E12.33236
G1 X221.327 Y146.492 E12.34471
G1 X221.765 Y146.596 E12.35621
G1 X222.301 Y146.739 E12.37038
G1 X222.709 Y146.859 E12.38124
G1 X223.297 Y147.047 E12.39701
G1 X223.839 Y147.243 E12.41174
G1 X224.236 Y147.399 E12.42263
G1 X224.77 Y147.623 E12.43742
G1 X225.295 Y147.867 E12.45221
G1 X226.003 Y148.224 E12.47246
G1 X226.218 Y148.339 E12.47869
G1 X226.783 Y148.664 E12.49534
G1 X227.374 Y149.034 E12.51315
G1 X227.591 Y149.176 E12.51978
G1 X228.094 Y149.526 E12.53543
G1 X228.665 Y149.954 E12.55366
G1 X228.896 Y150.135 E12.56115
G1 X229.386 Y150.544 E12.57746
G1 X229.919 Y151.023 E12.59576
G1 X230.143 Y151.235 E12.60364
G1 X230.542 Y151.634 E12.61806
G1 X230.819 Y151.926 E12.62834
G1 X231.224 Y152.373 E12.64374
G1 X231.591 Y152.809 E12.6583
G1 X231.896 Y153.192 E12.67081
G1 X232.253 Y153.663 E12.6859
G1 X232.58 Y154.129 E12.70045
G1 X232.784 Y154.437 E12.70988
G1 X232.976 Y154.737 E12.71898
G1 X233.145 Y155.012 E12.72723
G1 X233.424 Y155.494 E12.74145
G1 X233.63 Y155.873 E12.75247
G1 X233.896 Y156.391 E12.76734
G1 X234.145 Y156.923 E12.78235
G1 X234.422 Y157.57 E12.80033
G1 X234.522 Y157.818 E12.80716
G1 X234.749 Y158.436 E12.82397
G1 X234.895 Y158.876 E12.83582
G1 X235.067 Y159.438 E12.85083
G1 X235.215 Y159.988 E12.86538
G1 X235.367 Y160.636 E12.88238
G1 X235.425 Y160.909 E12.88951
G1 X235.548 Y161.598 E12.90739
G1 X235.644 Y162.295 E12.92536
G1 X235.676 Y162.567 E12.93235
G1 X235.729 Y163.161 E12.94759
G1 X235.755 Y163.593 E12.95864
G1 X235.77 Y163.93 E12.96726
G1 X235.792 Y164.867 E12.9912
G1 X235.791 Y171.158 E13.1519
G1 X235.778 Y172.108 E13.17617
G1 X235.762 Y172.564 E13.18782
G1 X235.736 Y173.018 E13.19944
G1 X235.683 Y173.629 E13.2151
G1 X235.595 Y174.347 E13.23358
G1 X235.556 Y174.614 E13.24047
G1 X235.454 Y175.194 E13.25552
G1 X235.363 Y175.64 E13.26714
G1 X235.231 Y176.22 E13.28234
G1 X235.088 Y176.749 E13.29633
G1 X234.865 Y177.483 E13.31593
G1 X234.785 Y177.726 E13.32246
G1 X234.572 Y178.315 E13.33846
G1 X234.304 Y178.979 E13.35675
G1 X234.196 Y179.23 E13.36373
G1 X233.943 Y179.775 E13.37908
G1 X233.745 Y180.171 E13.39039
G1 X233.471 Y180.688 E13.40534
G1 X233.17 Y181.209 E13.42071
G1 X232.793 Y181.813 E13.43889
G1 X232.651 Y182.03 E13.44552
G1 X232.282 Y182.559 E13.46199
G1 X231.712 Y183.31 E13.48608
G1 X231.267 Y183.843 E13.50381
G1 X230.788 Y184.372 E13.52204
G1 X230.587 Y184.584 E13.5295
G1 X230.191 Y184.98 E13.54381
G1 X229.904 Y185.252 E13.55391
G1 X229.41 Y185.697 E13.57089
G1 X228.984 Y186.056 E13.58512
G1 X228.665 Y186.31 E13.59554
G1 X228.176 Y186.68 E13.6112
G1 X227.692 Y187.019 E13.6263
G1 X227.314 Y187.268 E13.63786
G1 X226.796 Y187.592 E13.65347
G1 X226.344 Y187.852 E13.66679
G1 X225.969 Y188.056 E13.67769
G1 X225.648 Y188.224 E13.68695
G1 X225.396 Y188.35 E13.69414
G1 X224.881 Y188.59 E13.70866
G1 X224.217 Y188.873 E13.72709
G1 X223.956 Y188.977 E13.73427
G1 X223.376 Y189.188 E13.75004
G1 X222.697 Y189.409 E13.76828
G1 X222.418 Y189.493 E13.77572
G1 X221.833 Y189.651 E13.7912
G1 X221.158 Y189.808 E13.8089
G1 X220.876 Y189.867 E13.81626
G1 X220.223 Y189.982 E13.83319
G1 X219.559 Y190.075 E13.85032
G1 X219.265 Y190.11 E13.85788
G1 X218.646 Y190.165 E13.87376
G1 X218.275 Y190.187 E13.88325
G1 X217.948 Y190.201 E13.89161
G1 X217.047 Y190.222 E13.91463
G1 X91.897 Y190.226 E17.11144
G1 X83.522 Y190.225 E17.32537
G1 X82.596 Y190.212 E17.34902
G1 X82.121 Y190.195 E17.36116
G1 X81.667 Y190.168 E17.37278
G1 X81.075 Y190.115 E17.38796
G1 X80.359 Y190.028 E17.40639
G1 X80.098 Y189.99 E17.41312
G1 X79.513 Y189.887 E17.4283
G1 X79.067 Y189.796 E17.43992
G1 X78.458 Y189.656 E17.45589
G1 X77.956 Y189.521 E17.46917
G1 X77.521 Y189.392 E17.48076
G1 X76.974 Y189.216 E17.49543
G1 X76.411 Y189.011 E17.51074
G1 X75.995 Y188.846 E17.52217
G1 X75.44 Y188.611 E17.53756
G1 X74.914 Y188.367 E17.55238
G1 X74.579 Y188.2 E17.56194
G1 X73.999 Y187.892 E17.57871
G1 X73.504 Y187.606 E17.59332
G1 X72.909 Y187.236 E17.61121
G1 X72.682 Y187.088 E17.61813
G1 X72.148 Y186.716 E17.63476
G1 X71.57 Y186.28 E17.65325
G1 X71.373 Y186.125 E17.65966
G1 X70.876 Y185.709 E17.67621
G1 X70.328 Y185.214 E17.69507
G1 X70.126 Y185.023 E17.70218
G1 X69.729 Y184.627 E17.7165
G1 X69.443 Y184.326 E17.7271
G1 X69.022 Y183.861 E17.74313
G1 X68.642 Y183.408 E17.75823
G1 X68.184 Y182.822 E17.77723
G1 X68.034 Y182.62 E17.78366
G1 X67.695 Y182.135 E17.79877
G1 X67.431 Y181.734 E17.81103
G1 X67.129 Y181.252 E17.82556
G1 X66.849 Y180.768 E17.83985
G1 X66.646 Y180.394 E17.85072
G1 X66.483 Y180.082 E17.85971
G1 X66.357 Y179.83 E17.86691
G1 X66.118 Y179.316 E17.88138
G1 X65.96 Y178.952 E17.89152
G1 X65.831 Y178.642 E17.9001
G1 X65.716 Y178.352 E17.90807
