;FLAVOR:Marlin
;TIME:7551
;Filament used: 4.24978m
;Layer height: 0.16
;MINX:64.025
;MINY:110.823
;MINZ:0.16
;MAXX:235.975
;MAXY:182.176
;MAXZ:7
;Generated with Cura_SteamEngine 4.6.1
M140 S60
M105
M190 S60
M104 S220
M105
M109 S220
M82 ;absolute extrusion mode
M201 X500.00 Y500.00 Z100.00 E5000.00 ;Setup machine max acceleration
M203 X500.00 Y500.00 Z10.00 E50.00 ;Setup machine max feedrate
M204 P500.00 R1000.00 T500.00 ;Setup Print/Retract/Travel acceleration
M205 X8.00 Y8.00 Z0.40 E5.00 ;Setup Jerk
M220 S100 ;Reset Feedrate
M221 S100 ;Reset Flowrate

G28 ;Home

G92 E0 ;Reset Extruder
G1 Z2.0 F3000 ;Move Z Axis up
G1 X10.1 Y20 Z0.28 F5000.0 ;Move to start position
G1 X10.1 Y200.0 Z0.28 F1500.0 E15 ;Draw the first line
G1 X10.4 Y200.0 Z0.28 F5000.0 ;Move to side a little
G1 X10.4 Y20 Z0.28 F1500.0 E30 ;Draw the second line
G92 E0 ;Reset Extruder
G1 Z2.0 F3000 ;Move Z Axis up

G92 E0
G92 E0
G1 F2700 E-5
;LAYER_COUNT:53
;LAYER:0
M107
G0 F6000 X217.537 Y111.477 Z0.16
;TYPE:SKIRT
G1 F2700 E0
G1 F1200 X217.998 Y111.494 E0.01178
G1 X218.451 Y111.521 E0.02338
G1 X219.022 Y111.571 E0.03802
G1 X219.732 Y111.658 E0.05629
G1 X219.993 Y111.696 E0.06303
G1 X220.56 Y111.795 E0.07773
G1 X221.006 Y111.886 E0.08936
G1 X221.603 Y112.024 E0.10501
G1 X222.087 Y112.155 E0.11782
G1 X222.833 Y112.381 E0.13773
G1 X223.062 Y112.457 E0.14389
G1 X223.6 Y112.653 E0.15852
G1 X224.301 Y112.935 E0.17782
G1 X224.572 Y113.052 E0.18536
G1 X225.078 Y113.287 E0.19961
G1 X225.415 Y113.455 E0.20923
G1 X225.728 Y113.618 E0.21824
G1 X225.986 Y113.758 E0.22574
G1 X226.465 Y114.035 E0.23987
G1 X227.053 Y114.401 E0.25756
G1 X227.28 Y114.549 E0.26449
G1 X227.798 Y114.91 E0.28061
G1 X228.539 Y115.473 E0.30439
G1 X229.032 Y115.886 E0.32081
G1 X229.394 Y116.209 E0.33321
G1 X229.818 Y116.605 E0.34803
G1 X230.192 Y116.98 E0.36155
G1 X230.675 Y117.497 E0.37963
G1 X230.852 Y117.696 E0.38643
G1 X231.21 Y118.121 E0.40062
G1 X231.514 Y118.503 E0.41309
G1 X231.875 Y118.981 E0.4284
G1 X232.183 Y119.42 E0.44209
G1 X232.391 Y119.734 E0.45172
G1 X232.579 Y120.028 E0.46063
G1 X232.727 Y120.269 E0.46785
G1 X232.995 Y120.732 E0.48152
G1 X233.206 Y121.12 E0.4928
G1 X233.493 Y121.682 E0.50892
G1 X233.726 Y122.181 E0.52299
G1 X233.884 Y122.545 E0.53312
G1 X234.011 Y122.851 E0.54159
G1 X234.125 Y123.139 E0.5495
G1 X234.317 Y123.665 E0.5638
G1 X234.53 Y124.319 E0.58137
G1 X234.62 Y124.619 E0.58937
G1 X234.771 Y125.182 E0.60426
G1 X234.923 Y125.836 E0.62141
G1 X234.982 Y126.117 E0.62875
G1 X235.096 Y126.761 E0.64545
G1 X235.188 Y127.427 E0.66262
G1 X235.221 Y127.707 E0.66983
G1 X235.273 Y128.287 E0.6847
G1 X235.298 Y128.703 E0.69535
G1 X235.312 Y129.023 E0.70353
G1 X235.335 Y129.979 E0.72796
G1 X235.334 Y136.253 E0.88822
G1 X235.321 Y137.216 E0.91282
G1 X235.305 Y137.673 E0.9245
G1 X235.279 Y138.117 E0.93586
G1 X235.229 Y138.687 E0.95048
G1 X235.144 Y139.385 E0.96844
G1 X235.105 Y139.653 E0.97535
G1 X235.004 Y140.229 E0.99029
G1 X234.911 Y140.683 E1.00213
G1 X234.83 Y141.047 E1.01166
G1 X234.765 Y141.314 E1.01867
G1 X234.639 Y141.782 E1.03106
G1 X234.525 Y142.169 E1.04136
G1 X234.341 Y142.743 E1.05676
G1 X234.144 Y143.284 E1.07146
G1 X233.98 Y143.698 E1.08284
G1 X233.744 Y144.254 E1.09827
G1 X233.508 Y144.76 E1.11253
G1 X233.314 Y145.147 E1.12359
G1 X233.049 Y145.647 E1.13804
G1 X232.765 Y146.139 E1.15255
G1 X232.546 Y146.495 E1.16323
G1 X232.204 Y147.022 E1.17928
G1 X231.868 Y147.501 E1.19422
G1 X231.326 Y148.214 E1.2171
G1 X230.912 Y148.709 E1.23358
G1 X230.604 Y149.055 E1.24542
G1 X230.187 Y149.502 E1.26103
G1 X229.81 Y149.878 E1.27463
G1 X229.305 Y150.35 E1.29229
G1 X229.099 Y150.533 E1.29933
G1 X228.576 Y150.967 E1.31669
G1 X228.002 Y151.412 E1.33524
G1 X227.366 Y151.867 E1.35522
G1 X226.785 Y152.244 E1.37291
G1 X226.531 Y152.401 E1.38053
G1 X226.014 Y152.7 E1.39579
G1 X225.636 Y152.904 E1.40676
G1 X225.114 Y153.17 E1.42173
G1 X224.609 Y153.405 E1.43596
G1 X223.888 Y153.711 E1.45596
G1 X223.656 Y153.803 E1.46234
G1 X223.107 Y154.002 E1.47725
G1 X222.48 Y154.205 E1.49409
G1 X222.192 Y154.291 E1.50177
G1 X221.621 Y154.444 E1.51687
G1 X220.859 Y154.62 E1.53684
G1 X219.964 Y154.801 E1.56017
G1 X212.155 Y156.165 E1.76266
G1 X209.594 Y156.649 E1.82923
G1 X207.111 Y157.192 E1.89416
G1 X204.644 Y157.806 E1.9591
G1 X202.196 Y158.488 E2.02401
G1 X199.79 Y159.233 E2.08835
G1 X197.36 Y160.061 E2.15392
G1 X195.01 Y160.937 E2.21799
G1 X192.63 Y161.902 E2.28359
G1 X190.307 Y162.921 E2.34838
G1 X188.009 Y164.008 E2.41332
G1 X185.731 Y165.164 E2.47857
G1 X183.521 Y166.366 E2.54283
G1 X181.32 Y167.646 E2.60787
G1 X179.159 Y168.985 E2.67281
G1 X177.045 Y170.379 E2.73749
G1 X174.938 Y171.857 E2.80323
G1 X172.94 Y173.343 E2.86684
G1 X171.455 Y174.526 E2.91534
G1 X170.241 Y175.469 E2.9546
G1 X169.918 Y175.706 E2.96484
G1 X169.251 Y176.18 E2.98574
G1 X168.169 Y176.921 E3.01924
G1 X167.492 Y177.356 E3.03979
G1 X166.844 Y177.748 E3.05914
G1 X166.215 Y178.104 E3.0776
G1 X165.45 Y178.51 E3.09972
G1 X164.768 Y178.845 E3.11913
G1 X164.094 Y179.155 E3.13808
G1 X163.438 Y179.434 E3.15629
G1 X162.804 Y179.686 E3.17372
G1 X162.493 Y179.803 E3.1822
G1 X161.456 Y180.167 E3.21028
G1 X161.224 Y180.241 E3.2165
G1 X160.442 Y180.475 E3.23735
G1 X159.666 Y180.683 E3.25787
G1 X158.926 Y180.86 E3.27731
G1 X158.433 Y180.966 E3.29019
G1 X158.118 Y181.028 E3.29839
G1 X157.407 Y181.155 E3.31684
G1 X156.638 Y181.27 E3.3367
G1 X155.841 Y181.368 E3.35721
G1 X155.076 Y181.439 E3.37683
G1 X154.305 Y181.49 E3.39657
G1 X153.52 Y181.518 E3.41664
G1 X152.322 Y181.534 E3.44724
G1 X147.693 Y181.536 E3.56548
G1 X146.175 Y181.51 E3.60426
G1 X145.395 Y181.473 E3.62421
G1 X144.643 Y181.416 E3.64347
G1 X143.869 Y181.335 E3.66335
G1 X143.079 Y181.231 E3.68371
G1 X142.306 Y181.106 E3.70371
G1 X141.551 Y180.962 E3.72334
G1 X140.883 Y180.814 E3.74082
G1 X139.914 Y180.571 E3.76634
G1 X139.158 Y180.358 E3.7864
G1 X138.552 Y180.169 E3.80262
G1 X137.768 Y179.901 E3.82378
G1 X137.132 Y179.663 E3.84113
G1 X136.385 Y179.362 E3.8617
G1 X135.643 Y179.037 E3.88239
G1 X134.947 Y178.709 E3.90204
G1 X134.544 Y178.508 E3.91355
G1 X134.271 Y178.366 E3.92141
G1 X133.608 Y178.006 E3.94068
G1 X132.877 Y177.582 E3.96226
G1 X132.232 Y177.184 E3.98162
G1 X131.877 Y176.954 E3.99243
G1 X131.621 Y176.782 E4.00031
G1 X130.314 Y175.875 E4.04094
G1 X129.819 Y175.514 E4.05659
G1 X129.484 Y175.259 E4.06735
G1 X127.405 Y173.607 E4.13518
G1 X125.363 Y172.073 E4.20042
G1 X123.289 Y170.606 E4.26531
G1 X121.179 Y169.201 E4.33006
G1 X119.024 Y167.851 E4.39502
G1 X116.845 Y166.572 E4.45956
G1 X114.623 Y165.351 E4.52432
G1 X112.32 Y164.169 E4.59044
G1 X110.071 Y163.092 E4.65414
G1 X107.724 Y162.052 E4.71971
G1 X105.386 Y161.091 E4.78428
G1 X103.005 Y160.192 E4.84929
G1 X100.6 Y159.36 E4.9143
G1 X98.212 Y158.608 E4.97825
G1 X95.734 Y157.906 E5.04404
G1 X93.261 Y157.278 E5.10921
G1 X90.797 Y156.729 E5.17369
G1 X87.839 Y156.163 E5.25062
G1 X80.285 Y154.842 E5.44651
G1 X79.319 Y154.659 E5.47162
G1 X78.852 Y154.56 E5.48382
G1 X78.479 Y154.471 E5.49361
G1 X77.964 Y154.333 E5.50723
G1 X77.462 Y154.185 E5.5206
G1 X76.906 Y154.007 E5.53551
G1 X76.394 Y153.82 E5.54944
G1 X75.73 Y153.553 E5.56772
G1 X75.493 Y153.451 E5.57431
G1 X74.982 Y153.215 E5.58869
G1 X74.287 Y152.864 E5.60858
G1 X74.07 Y152.748 E5.61486
G1 X73.516 Y152.429 E5.63119
G1 X72.939 Y152.068 E5.64858
G1 X72.699 Y151.911 E5.6559
G1 X72.208 Y151.569 E5.67119
G1 X71.702 Y151.19 E5.68733
G1 X71.483 Y151.019 E5.69443
G1 X70.972 Y150.592 E5.71144
G1 X70.407 Y150.083 E5.73087
G1 X70.217 Y149.904 E5.73754
G1 X69.82 Y149.509 E5.75184
G1 X69.57 Y149.246 E5.76111
G1 X69.338 Y148.994 E5.76986
G1 X69.147 Y148.779 E5.77721
G1 X68.785 Y148.347 E5.7916
G1 X68.481 Y147.964 E5.80409
G1 X68.122 Y147.489 E5.8193
G1 X67.808 Y147.041 E5.83328
G1 X67.61 Y146.741 E5.84246
G1 X67.269 Y146.196 E5.85888
G1 X66.993 Y145.719 E5.87296
G1 X66.653 Y145.083 E5.89138
G1 X66.529 Y144.837 E5.89842
G1 X66.282 Y144.309 E5.91331
G1 X65.905 Y143.414 E5.93811
G1 X65.678 Y142.795 E5.95495
G1 X65.463 Y142.128 E5.97285
G1 X65.374 Y141.83 E5.9808
G1 X65.228 Y141.286 E5.99519
G1 X65.083 Y140.666 E6.01145
G1 X65.025 Y140.393 E6.01858
G1 X64.906 Y139.725 E6.03591
G1 X64.809 Y139.027 E6.05391
G1 X64.776 Y138.744 E6.06119
G1 X64.726 Y138.169 E6.07593
G1 X64.687 Y137.43 E6.09484
G1 X64.665 Y136.502 E6.11855
G1 X64.666 Y130.174 E6.28019
G1 X64.679 Y129.26 E6.30354
G1 X64.695 Y128.823 E6.31471
G1 X64.721 Y128.369 E6.32632
G1 X64.772 Y127.777 E6.3415
G1 X64.859 Y127.069 E6.35972
G1 X64.898 Y126.802 E6.36662
G1 X64.996 Y126.239 E6.38121
G1 X65.087 Y125.793 E6.39284
G1 X65.225 Y125.196 E6.40849
G1 X65.356 Y124.709 E6.42137
G1 X65.485 Y124.274 E6.43296
G1 X65.656 Y123.743 E6.44721
G1 X65.863 Y123.172 E6.46273
G1 X66.127 Y122.516 E6.48079
G1 X66.235 Y122.265 E6.48777
G1 X66.481 Y121.737 E6.50265
G1 X66.823 Y121.063 E6.52196
G1 X66.94 Y120.846 E6.52825
G1 X67.231 Y120.342 E6.54312
G1 X67.631 Y119.7 E6.56244
G1 X67.777 Y119.478 E6.56923
G1 X68.115 Y118.996 E6.58427
G1 X68.524 Y118.451 E6.60167
G1 X68.673 Y118.261 E6.60784
G1 X69.087 Y117.767 E6.6243
G1 X69.41 Y117.405 E6.6367
G1 X69.806 Y116.981 E6.65152
G1 X70.181 Y116.607 E6.66504
G1 X70.698 Y116.124 E6.68312
G1 X70.897 Y115.947 E6.68992
G1 X71.327 Y115.585 E6.70428
G1 X71.712 Y115.279 E6.71684
G1 X72.144 Y114.952 E6.73068
G1 X72.621 Y114.617 E6.74557
G1 X72.999 Y114.368 E6.75713
G1 X73.508 Y114.051 E6.77245
G1 X73.946 Y113.798 E6.78537
G1 X74.321 Y113.594 E6.79627
G1 X74.884 Y113.306 E6.81243
G1 X75.396 Y113.067 E6.82686
G1 X76.032 Y112.797 E6.84451
G1 X76.287 Y112.695 E6.85152
G1 X76.862 Y112.485 E6.86716
G1 X77.532 Y112.266 E6.88517
G1 X77.811 Y112.182 E6.89261
G1 X78.379 Y112.029 E6.90764
G1 X79.044 Y111.874 E6.92508
G1 X79.326 Y111.815 E6.93244
G1 X79.96 Y111.704 E6.94888
G1 X80.644 Y111.609 E6.96652
G1 X80.945 Y111.574 E6.97426
G1 X81.477 Y111.526 E6.9879
G1 X81.841 Y111.503 E6.99722
G1 X82.178 Y111.488 E7.00584
G1 X83.117 Y111.464 E7.02983
G1 X216.468 Y111.463 E10.43612
G1 X216.611 Y111.464 E10.43977
G1 X217.537 Y111.477 E10.46343
G0 F6000 X217.541 Y111.157
G1 F1200 X218.018 Y111.175 E10.47562
G1 X218.471 Y111.202 E10.48721
G1 X219.059 Y111.253 E10.50229
G1 X219.778 Y111.341 E10.52079
G1 X220.039 Y111.379 E10.52753
G1 X220.624 Y111.482 E10.5427
G1 X221.07 Y111.573 E10.55433
G1 X221.679 Y111.713 E10.57029
G1 X222.178 Y111.848 E10.58349
G1 X222.934 Y112.077 E10.60367
G1 X223.163 Y112.153 E10.60984
G1 X223.717 Y112.355 E10.6249
G1 X224.428 Y112.641 E10.64447
G1 X224.699 Y112.758 E10.65201
G1 X225.221 Y113.001 E10.66672
G1 X225.558 Y113.169 E10.67634
G1 X226.138 Y113.477 E10.69312
G1 X226.633 Y113.763 E10.70772
G1 X227.228 Y114.133 E10.72562
G1 X227.455 Y114.281 E10.73254
G1 X227.989 Y114.653 E10.74916
G1 X228.737 Y115.222 E10.77317
G1 X229.245 Y115.647 E10.79009
G1 X229.607 Y115.97 E10.80248
G1 X230.038 Y116.373 E10.81755
G1 X230.424 Y116.76 E10.83151
G1 X230.914 Y117.284 E10.84984
G1 X231.091 Y117.483 E10.85664
G1 X231.46 Y117.922 E10.87129
G1 X231.764 Y118.304 E10.88376
G1 X232.132 Y118.79 E10.89933
G1 X232.45 Y119.243 E10.91347
G1 X232.658 Y119.557 E10.92309
G1 X232.999 Y120.102 E10.93951
G1 X233.276 Y120.579 E10.9536
G1 X233.487 Y120.967 E10.96489
G1 X233.78 Y121.539 E10.9813
G1 X234.019 Y122.053 E10.99578
G1 X234.177 Y122.417 E11.00592
G1 X234.422 Y123.021 E11.02257
G1 X234.62 Y123.564 E11.03733
G1 X234.836 Y124.227 E11.05514
G1 X234.926 Y124.527 E11.06314
G1 X235.082 Y125.108 E11.07851
G1 X235.236 Y125.771 E11.0959
G1 X235.295 Y126.052 E11.10323
G1 X235.413 Y126.716 E11.12046
G1 X235.506 Y127.389 E11.13781
G1 X235.539 Y127.669 E11.14501
G1 X235.592 Y128.267 E11.16035
G1 X235.632 Y129.014 E11.17946
G1 X235.655 Y129.979 E11.20411
G1 X235.654 Y136.257 E11.36448
G1 X235.641 Y137.22 E11.38908
G1 X235.624 Y137.692 E11.40114
G1 X235.598 Y138.136 E11.4125
G1 X235.547 Y138.723 E11.42755
G1 X235.461 Y139.431 E11.44577
G1 X235.422 Y139.699 E11.45269
G1 X235.318 Y140.293 E11.46809
G1 X235.225 Y140.747 E11.47993
G1 X235.141 Y141.123 E11.48977
G1 X235.076 Y141.39 E11.49679
G1 X234.946 Y141.872 E11.50954
G1 X234.832 Y142.259 E11.51985
G1 X234.644 Y142.844 E11.53554
G1 X234.441 Y143.402 E11.55071
G1 X234.277 Y143.816 E11.56209
G1 X234.038 Y144.381 E11.57776
G1 X233.794 Y144.903 E11.59248
G1 X233.6 Y145.29 E11.60353
G1 X233.33 Y145.799 E11.61825
G1 X233.037 Y146.307 E11.63323
G1 X232.818 Y146.663 E11.64391
G1 X232.471 Y147.198 E11.6602
G1 X232.124 Y147.692 E11.67562
G1 X231.736 Y148.209 E11.69213
G1 X231.578 Y148.411 E11.69868
G1 X231.151 Y148.922 E11.71569
G1 X230.843 Y149.268 E11.72752
G1 X230.419 Y149.722 E11.74339
G1 X230.031 Y150.11 E11.75741
G1 X229.765 Y150.362 E11.76677
G1 X229.311 Y150.772 E11.78239
G1 X228.772 Y151.22 E11.80029
G1 X228.198 Y151.665 E11.81885
G1 X227.542 Y152.134 E11.83945
G1 X226.953 Y152.517 E11.85739
G1 X226.699 Y152.674 E11.86502
G1 X226.166 Y152.982 E11.88074
G1 X225.788 Y153.186 E11.89172
G1 X225.256 Y153.457 E11.90697
G1 X224.735 Y153.699 E11.92164
G1 X224.006 Y154.008 E11.94187
G1 X223.774 Y154.1 E11.94824
G1 X223.207 Y154.306 E11.96365
G1 X222.572 Y154.512 E11.9807
G1 X222.284 Y154.598 E11.98838
G1 X221.695 Y154.755 E12.00395
G1 X220.924 Y154.933 E12.02416
G1 X220.019 Y155.116 E12.04775
G1 X212.193 Y156.482 E12.25068
G1 X209.652 Y156.964 E12.31674
G1 X207.187 Y157.502 E12.38119
G1 X204.738 Y158.112 E12.44566
G1 X202.307 Y158.789 E12.51012
G1 X199.887 Y159.539 E12.57483
G1 X197.464 Y160.364 E12.64022
G1 X195.098 Y161.246 E12.70471
G1 X192.779 Y162.187 E12.76864
G1 X190.43 Y163.217 E12.83416
G1 X188.148 Y164.296 E12.89864
G1 X185.914 Y165.43 E12.96263
G1 X183.664 Y166.653 E13.02805
G1 X181.48 Y167.923 E13.09258
G1 X179.335 Y169.253 E13.15705
G1 X177.204 Y170.658 E13.22225
G1 X175.144 Y172.104 E13.28654
G1 X173.138 Y173.595 E13.35039
G1 X171.652 Y174.778 E13.3989
G1 X170.431 Y175.727 E13.43841
G1 X170.104 Y175.966 E13.44875
G1 X169.433 Y176.444 E13.4698
G1 X168.344 Y177.189 E13.5035
G1 X167.659 Y177.63 E13.52431
G1 X167.003 Y178.025 E13.54387
G1 X166.366 Y178.386 E13.56257
G1 X165.593 Y178.796 E13.58492
G1 X164.903 Y179.135 E13.60456
G1 X164.221 Y179.448 E13.62373
G1 X163.556 Y179.731 E13.64219
G1 X162.922 Y179.983 E13.65962
G1 X162.601 Y180.104 E13.66838
G1 X161.557 Y180.471 E13.69665
G1 X161.317 Y180.547 E13.70308
G1 X160.526 Y180.784 E13.72417
G1 X159.742 Y180.994 E13.7449
G1 X158.993 Y181.173 E13.76457
G1 X158.5 Y181.279 E13.77745
G1 X158.176 Y181.343 E13.78589
G1 X157.456 Y181.471 E13.80457
G1 X156.679 Y181.588 E13.82464
G1 X156.188 Y181.651 E13.83729
G1 X155.872 Y181.686 E13.84541
G1 X155.099 Y181.758 E13.86524
G1 X154.318 Y181.809 E13.88523
G1 X153.524 Y181.838 E13.90553
G1 X152.322 Y181.854 E13.93623
G1 X147.688 Y181.856 E14.0546
G1 X146.162 Y181.83 E14.09359
G1 X145.372 Y181.792 E14.11379
G1 X144.612 Y181.734 E14.13326
G1 X143.829 Y181.653 E14.15337
G1 X143.03 Y181.547 E14.17396
G1 X142.248 Y181.421 E14.19419
G1 X141.797 Y181.338 E14.2059
G1 X141.483 Y181.275 E14.21408
G1 X140.807 Y181.125 E14.23177
G1 X139.828 Y180.879 E14.25756
G1 X139.064 Y180.664 E14.27783
G1 X138.451 Y180.472 E14.29424
G1 X137.657 Y180.201 E14.31567
G1 X137.014 Y179.96 E14.33321
G1 X136.258 Y179.655 E14.35403
G1 X135.508 Y179.327 E14.37494
G1 X134.805 Y178.995 E14.3948
G1 X134.12 Y178.648 E14.41442
G1 X133.448 Y178.283 E14.43395
G1 X132.711 Y177.856 E14.45571
G1 X132.058 Y177.452 E14.47532
G1 X131.439 Y177.046 E14.49423
G1 X130.126 Y176.133 E14.53508
G1 X129.631 Y175.772 E14.55073
G1 X129.285 Y175.509 E14.56183
G1 X127.223 Y173.87 E14.62911
G1 X125.156 Y172.318 E14.69514
G1 X123.129 Y170.884 E14.75856
G1 X121.001 Y169.467 E14.82387
G1 X118.862 Y168.127 E14.88834
G1 X116.672 Y166.842 E14.9532
G1 X114.466 Y165.629 E15.01751
G1 X112.221 Y164.477 E15.08197
G1 X109.92 Y163.375 E15.14713
G1 X107.586 Y162.341 E15.21234
G1 X105.295 Y161.399 E15.27562
G1 X102.899 Y160.494 E15.34104
G1 X100.5 Y159.665 E15.40588
G1 X98.099 Y158.909 E15.47017
G1 X95.646 Y158.214 E15.5353
G1 X93.182 Y157.588 E15.60024
G1 X90.73 Y157.042 E15.66441
G1 X87.79 Y156.479 E15.74087
G1 X80.225 Y155.157 E15.93704
G1 X79.259 Y154.974 E15.96215
G1 X78.778 Y154.871 E15.97472
G1 X78.405 Y154.782 E15.98451
G1 X77.873 Y154.64 E15.99858
