;FLAVOR:Marlin
;TIME:3831
;Filament used: 1.67766m
;Layer height: 0.16
;MINX:116.1
;MINY:113.524
;MINZ:0.16
;MAXX:170.598
;MAXY:186.335
;MAXZ:20.56
;Generated with Cura_SteamEngine 4.6.1
M140 S60
M105
M190 S60
M104 S220
M105
M109 S220
M82 ;absolute extrusion mode
M201 X500.00 Y500.00 Z100.00 E5000.00 ;Setup machine max acceleration
M203 X500.00 Y500.00 Z10.00 E50.00 ;Setup machine max feedrate
M204 P500.00 R1000.00 T500.00 ;Setup Print/Retract/Travel acceleration
M205 X8.00 Y8.00 Z0.40 E5.00 ;Setup Jerk
M220 S100 ;Reset Feedrate
M221 S100 ;Reset Flowrate

G28 ;Home

G92 E0 ;Reset Extruder
G1 Z2.0 F3000 ;Move Z Axis up
G1 X10.1 Y20 Z0.28 F5000.0 ;Move to start position
G1 X10.1 Y200.0 Z0.28 F1500.0 E15 ;Draw the first line
G1 X10.4 Y200.0 Z0.28 F5000.0 ;Move to side a little
G1 X10.4 Y20 Z0.28 F1500.0 E30 ;Draw the second line
G92 E0 ;Reset Extruder
G1 Z2.0 F3000 ;Move Z Axis up

G92 E0
G92 E0
G1 F2700 E-5
;LAYER_COUNT:122
;LAYER:0
M107
G0 F6000 X153.448 Y114.177 Z0.16
;TYPE:SKIRT
G1 F2700 E0
G1 F1200 X154.217 Y114.205 E0.01966
G1 X155.262 Y114.271 E0.0464
G1 X155.528 Y114.294 E0.05322
G1 X156.024 Y114.349 E0.06597
G1 X157.067 Y114.491 E0.09286
G1 X157.665 Y114.591 E0.10835
G1 X158.738 Y114.803 E0.13628
G1 X159.614 Y115.016 E0.15931
G1 X160.467 Y115.307 E0.18233
G1 X161.313 Y115.683 E0.20598
G1 X161.439 Y115.746 E0.20958
G1 X162.226 Y116.184 E0.23259
G1 X162.972 Y116.691 E0.25563
G1 X163.669 Y117.261 E0.27863
G1 X164.058 Y117.628 E0.29229
G1 X164.585 Y118.166 E0.31152
G1 X164.948 Y118.565 E0.3253
G1 X165.25 Y118.916 E0.33713
G1 X165.532 Y119.259 E0.34847
G1 X165.835 Y119.644 E0.36099
G1 X166.104 Y120.001 E0.37241
G1 X166.318 Y120.299 E0.38178
G1 X166.577 Y120.677 E0.39348
G1 X166.869 Y121.125 E0.40714
G1 X167.145 Y121.575 E0.42063
G1 X167.384 Y121.987 E0.43279
G1 X167.601 Y122.38 E0.44426
G1 X167.764 Y122.692 E0.45325
G1 X168.02 Y123.218 E0.4682
G1 X168.358 Y123.967 E0.48919
G1 X168.705 Y124.842 E0.51323
G1 X168.999 Y125.697 E0.53632
G1 X169.195 Y126.335 E0.55337
G1 X169.356 Y126.927 E0.56904
G1 X169.497 Y127.514 E0.58447
G1 X169.566 Y127.844 E0.59308
G1 X169.629 Y128.171 E0.60158
G1 X169.755 Y128.946 E0.62164
G1 X169.817 Y129.456 E0.63476
G1 X169.904 Y130.365 E0.65809
G1 X169.946 Y131.036 E0.67526
G1 X169.959 Y131.481 E0.68663
G1 X169.959 Y132.074 E0.70178
G1 X169.94 Y132.593 E0.71505
G1 X169.895 Y133.319 E0.73363
G1 X169.865 Y133.672 E0.74268
G1 X169.805 Y134.204 E0.75635
G1 X169.762 Y134.515 E0.76437
G1 X169.71 Y134.852 E0.77308
G1 X169.55 Y135.781 E0.79716
G1 X169.136 Y138.388 E0.86459
G1 X168.809 Y140.907 E0.92947
G1 X168.555 Y143.427 E0.99417
G1 X168.37 Y145.986 E1.05971
G1 X168.259 Y148.493 E1.12381
G1 X168.218 Y151.065 E1.18952
G1 X168.249 Y153.593 E1.25409
G1 X168.351 Y156.08 E1.31768
G1 X168.529 Y158.665 E1.38386
G1 X168.775 Y161.183 E1.44849
G1 X169.198 Y164.437 E1.53231
G1 X169.367 Y165.576 E1.56172
G1 X169.431 Y166.098 E1.57515
G1 X169.475 Y166.557 E1.58693
G1 X169.508 Y167.009 E1.59851
G1 X169.53 Y167.441 E1.60956
G1 X169.543 Y167.958 E1.62277
G1 X169.543 Y168.303 E1.63158
G1 X169.532 Y168.783 E1.64384
G1 X169.502 Y169.417 E1.66006
G1 X169.459 Y170.015 E1.67537
G1 X169.406 Y170.538 E1.6888
G1 X169.344 Y171.006 E1.70086
G1 X169.272 Y171.466 E1.71275
G1 X169.161 Y172.074 E1.72854
G1 X169.045 Y172.6 E1.7423
G1 X168.955 Y172.963 E1.75185
G1 X168.833 Y173.411 E1.76371
G1 X168.601 Y174.192 E1.78452
G1 X168.43 Y174.716 E1.7986
G1 X168.355 Y174.926 E1.8043
G1 X168.156 Y175.438 E1.81833
G1 X167.987 Y175.841 E1.82949
G1 X167.814 Y176.232 E1.84041
G1 X167.542 Y176.811 E1.85676
G1 X167.122 Y177.61 E1.87981
G1 X166.513 Y178.654 E1.91069
G1 X166.318 Y178.975 E1.92028
G1 X166.124 Y179.281 E1.92953
G1 X165.608 Y180.02 E1.95256
G1 X165.226 Y180.489 E1.96801
G1 X164.26 Y181.604 E2.00569
G1 X163.8 Y182.123 E2.02341
G1 X163.173 Y182.77 E2.04642
G1 X162.491 Y183.36 E2.06946
G1 X161.76 Y183.886 E2.09246
G1 X160.984 Y184.346 E2.1155
G1 X159.795 Y184.886 E2.14886
G1 X159.42 Y185.028 E2.1591
G1 X158.564 Y185.309 E2.18212
G1 X157.686 Y185.514 E2.20515
G1 X156.793 Y185.639 E2.22818
G1 X156.129 Y185.681 E2.24518
G1 X155.525 Y185.695 E2.26061
G1 X144.756 Y185.695 E2.53569
G1 X144.086 Y185.686 E2.5528
G1 X143.186 Y185.634 E2.57583
G1 X142.294 Y185.502 E2.59887
G1 X141.418 Y185.292 E2.62188
G1 X140.896 Y185.127 E2.63586
G1 X140.489 Y184.986 E2.64686
G1 X139.651 Y184.654 E2.66989
G1 X138.846 Y184.248 E2.69292
G1 X138.081 Y183.773 E2.71592
G1 X137.36 Y183.232 E2.73894
G1 X136.69 Y182.629 E2.76197
G1 X136.192 Y182.103 E2.78047
G1 X135.368 Y181.167 E2.81233
G1 X134.901 Y180.629 E2.83052
G1 X134.335 Y179.928 E2.85354
G1 X133.99 Y179.427 E2.86908
G1 X132.959 Y177.833 E2.91757
G1 X132.111 Y176.505 E2.95782
G1 X130.689 Y174.411 E3.02247
G1 X129.206 Y172.358 E3.08716
G1 X127.65 Y170.326 E3.15254
G1 X126.043 Y168.344 E3.21772
G1 X124.41 Y166.445 E3.28169
G1 X122.723 Y164.591 E3.34572
G1 X120.043 Y161.842 E3.44379
G1 X119.78 Y161.583 E3.45322
G1 X119.167 Y160.923 E3.47623
G1 X118.615 Y160.21 E3.49926
G1 X118.128 Y159.452 E3.52227
G1 X117.71 Y158.653 E3.54531
G1 X117.365 Y157.821 E3.56832
G1 X117.095 Y156.961 E3.59134
G1 X116.902 Y156.08 E3.61438
G1 X116.761 Y154.749 E3.64857
G1 X116.748 Y154.42 E3.65698
G1 X116.74 Y154.019 E3.66722
G1 X116.741 Y137.598 E4.08668
G1 X116.751 Y136.9 E4.10451
G1 X116.804 Y136.001 E4.12751
G1 X116.936 Y135.109 E4.15055
G1 X117.147 Y134.233 E4.17356
G1 X117.435 Y133.379 E4.19658
G1 X117.797 Y132.553 E4.21962
G1 X118.231 Y131.763 E4.24264
G1 X118.734 Y131.015 E4.26567
G1 X119.3 Y130.314 E4.28868
G1 X119.927 Y129.666 E4.31172
G1 X120.608 Y129.076 E4.33473
G1 X121.409 Y128.504 E4.35987
G1 X122.094 Y128.065 E4.38066
G1 X123.36 Y127.285 E4.41864
G1 X125.489 Y125.887 E4.4837
G1 X127.584 Y124.424 E4.54897
G1 X129.603 Y122.929 E4.61314
G1 X131.604 Y121.358 E4.67813
G1 X133.555 Y119.734 E4.74297
G1 X136.387 Y117.213 E4.83982
G1 X137.086 Y116.644 E4.86284
G1 X137.832 Y116.14 E4.88584
G1 X138.621 Y115.703 E4.90888
G1 X139.445 Y115.338 E4.9319
G1 X140.299 Y115.048 E4.95493
G1 X140.956 Y114.88 E4.97226
G1 X141.814 Y114.691 E4.9947
G1 X142.316 Y114.594 E5.00776
G1 X143.154 Y114.456 E5.02945
G1 X143.571 Y114.397 E5.04021
G1 X144.021 Y114.344 E5.05178
G1 X144.885 Y114.265 E5.07395
G1 X145.546 Y114.222 E5.09087
G1 X145.873 Y114.206 E5.09923
G1 X147.169 Y114.167 E5.13235
G1 X147.655 Y114.164 E5.14476
G1 X152.326 Y114.164 E5.26408
G1 X153.448 Y114.177 E5.29274
G0 F6000 X153.458 Y113.857
G1 F1200 X154.236 Y113.886 E5.31263
G1 X155.29 Y113.952 E5.3396
G1 X155.556 Y113.975 E5.34642
G1 X156.067 Y114.032 E5.35956
G1 X157.11 Y114.174 E5.38645
G1 X157.727 Y114.277 E5.40242
G1 X158.8 Y114.489 E5.43036
G1 X159.69 Y114.705 E5.45376
G1 X160.557 Y114.999 E5.47714
G1 X161.456 Y115.396 E5.50224
G1 X161.582 Y115.459 E5.50584
G1 X162.382 Y115.904 E5.52923
G1 X163.14 Y116.417 E5.55261
G1 X163.851 Y116.994 E5.576
G1 X164.284 Y117.401 E5.59118
G1 X164.817 Y117.944 E5.61061
G1 X165.19 Y118.356 E5.62481
G1 X165.492 Y118.707 E5.63664
G1 X165.783 Y119.061 E5.64834
G1 X166.086 Y119.446 E5.66086
G1 X166.363 Y119.814 E5.67262
G1 X166.577 Y120.112 E5.68199
G1 X166.845 Y120.503 E5.6941
G1 X167.137 Y120.951 E5.70776
G1 X167.422 Y121.414 E5.72165
G1 X167.661 Y121.826 E5.73382
G1 X167.885 Y122.232 E5.74566
G1 X168.048 Y122.544 E5.75465
G1 X168.311 Y123.086 E5.77004
G1 X168.649 Y123.835 E5.79103
G1 X169.007 Y124.738 E5.81584
G1 X169.301 Y125.593 E5.83894
G1 X169.504 Y126.251 E5.85653
G1 X169.665 Y126.843 E5.8722
G1 X169.81 Y127.448 E5.88809
G1 X169.879 Y127.778 E5.8967
G1 X169.944 Y128.116 E5.90549
G1 X170.071 Y128.899 E5.92576
G1 X170.135 Y129.426 E5.93932
G1 X170.222 Y130.335 E5.96264
G1 X170.266 Y131.027 E5.98035
G1 X170.279 Y131.472 E5.99173
G1 X170.279 Y132.084 E6.00736
G1 X170.259 Y132.611 E6.02083
G1 X170.213 Y133.346 E6.03964
G1 X170.183 Y133.699 E6.04869
G1 X170.122 Y134.247 E6.06278
G1 X170.079 Y134.558 E6.0708
G1 X170.025 Y134.907 E6.07982
G1 X169.867 Y135.821 E6.10351
G1 X169.452 Y138.439 E6.17122
G1 X169.126 Y140.949 E6.23587
G1 X168.874 Y143.446 E6.29998
G1 X168.69 Y145.987 E6.36505
G1 X168.579 Y148.513 E6.42964
G1 X168.538 Y151.066 E6.49486
G1 X168.569 Y153.577 E6.55901
G1 X168.673 Y156.102 E6.62356
G1 X168.849 Y158.644 E6.68865
G1 X169.09 Y161.115 E6.75207
G1 X169.524 Y164.456 E6.83813
G1 X169.683 Y165.529 E6.86583
G1 X169.749 Y166.067 E6.87968
G1 X169.793 Y166.526 E6.89146
G1 X169.827 Y166.993 E6.90342
G1 X169.849 Y167.425 E6.91447
G1 X169.863 Y167.958 E6.92809
G1 X169.863 Y168.303 E6.9369
G1 X169.851 Y168.798 E6.94955
G1 X169.821 Y169.432 E6.96576
G1 X169.778 Y170.041 E6.98135
G1 X169.724 Y170.573 E6.99501
G1 X169.66 Y171.056 E7.00746
G1 X169.588 Y171.516 E7.01935
G1 X169.475 Y172.134 E7.0354
G1 X169.356 Y172.677 E7.0496
G1 X169.266 Y173.04 E7.05915
G1 X169.14 Y173.502 E7.07138
G1 X168.908 Y174.283 E7.0922
G1 X168.731 Y174.824 E7.10674
G1 X168.656 Y175.034 E7.11243
G1 X168.452 Y175.562 E7.12689
G1 X168.283 Y175.965 E7.13805
G1 X168.103 Y176.368 E7.14933
G1 X167.831 Y176.947 E7.16567
G1 X167.398 Y177.772 E7.18947
G1 X166.789 Y178.816 E7.22034
G1 X166.588 Y179.146 E7.23021
G1 X166.394 Y179.452 E7.23947
G1 X165.871 Y180.203 E7.26284
G1 X165.468 Y180.698 E7.27915
G1 X164.5 Y181.816 E7.31692
G1 X164.04 Y182.335 E7.33464
G1 X163.403 Y182.993 E7.35803
G1 X162.712 Y183.593 E7.38141
G1 X161.971 Y184.13 E7.40478
G1 X161.185 Y184.601 E7.42819
G1 X160.362 Y185.001 E7.45156
G1 X159.908 Y185.185 E7.46408
G1 X159.533 Y185.327 E7.47432
G1 X158.664 Y185.613 E7.49769
G1 X157.773 Y185.823 E7.52107
G1 X156.867 Y185.954 E7.54445
G1 X156.138 Y186.001 E7.56311
G1 X155.525 Y186.015 E7.57878
G1 X144.751 Y186.015 E7.85399
G1 X144.081 Y186.006 E7.8711
G1 X143.167 Y185.954 E7.89449
G1 X142.261 Y185.822 E7.91787
G1 X141.37 Y185.612 E7.94126
G1 X140.791 Y185.43 E7.95676
G1 X140.384 Y185.289 E7.96776
G1 X139.533 Y184.951 E7.99115
G1 X138.715 Y184.541 E8.01452
G1 X137.935 Y184.061 E8.03792
G1 X137.201 Y183.515 E8.06129
G1 X136.517 Y182.907 E8.08466
G1 X135.952 Y182.314 E8.10559
G1 X135.126 Y181.377 E8.13749
G1 X134.661 Y180.841 E8.15562
G1 X134.086 Y180.129 E8.179
G1 X133.721 Y179.601 E8.19539
G1 X132.69 Y178.006 E8.2439
G1 X131.843 Y176.68 E8.2841
G1 X130.432 Y174.602 E8.34826
G1 X128.94 Y172.537 E8.41333
G1 X127.404 Y170.531 E8.47787
G1 X125.812 Y168.567 E8.54245
G1 X124.173 Y166.661 E8.60666
G1 X122.47 Y164.789 E8.6713
G1 X119.815 Y162.067 E8.76843
G1 X119.556 Y161.811 E8.77773
G1 X118.932 Y161.141 E8.80112
G1 X118.37 Y160.418 E8.82451
G1 X117.873 Y159.65 E8.84788
G1 X117.445 Y158.84 E8.87128
G1 X117.089 Y157.997 E8.89466
G1 X116.808 Y157.126 E8.91803
G1 X116.604 Y156.233 E8.94143
G1 X116.479 Y155.327 E8.96479
G1 X116.441 Y154.762 E8.97926
G1 X116.428 Y154.433 E8.98767
G1 X116.42 Y154.019 E8.99825
G1 X116.421 Y137.594 E9.4178
G1 X116.431 Y136.896 E9.43563
G1 X116.484 Y135.982 E9.45902
G1 X116.617 Y135.076 E9.48241
G1 X116.828 Y134.185 E9.5058
G1 X117.116 Y133.317 E9.52916
G1 X117.479 Y132.476 E9.55256
G1 X117.914 Y131.671 E9.57593
G1 X118.417 Y130.906 E9.59932
G1 X118.985 Y130.188 E9.6227
G1 X119.614 Y129.523 E9.64609
G1 X120.298 Y128.915 E9.66946
G1 X121.236 Y128.235 E9.69906
G1 X121.926 Y127.793 E9.71999
G1 X123.202 Y127.007 E9.75827
G1 X125.3 Y125.629 E9.82239
G1 X127.373 Y124.182 E9.88696
G1 X129.429 Y122.659 E9.95232
G1 X131.406 Y121.107 E10.01652
G1 X133.334 Y119.502 E10.0806
G1 X136.174 Y116.974 E10.17772
G1 X136.883 Y116.396 E10.20109
G1 X137.641 Y115.882 E10.22448
G1 X138.44 Y115.436 E10.24786
G1 X139.276 Y115.061 E10.27126
G1 X140.14 Y114.761 E10.29462
G1 X140.888 Y114.567 E10.31436
G1 X141.746 Y114.378 E10.3368
G1 X142.263 Y114.278 E10.35026
G1 X143.109 Y114.139 E10.37216
G1 X143.526 Y114.08 E10.38291
G1 X143.991 Y114.025 E10.39487
G1 X144.542 Y113.972 E10.40901
G1 X144.865 Y113.946 E10.41729
G1 X145.526 Y113.903 E10.43421
G1 X145.863 Y113.887 E10.44283
G1 X147.167 Y113.847 E10.47615
G1 X147.655 Y113.844 E10.48862
G1 X152.329 Y113.844 E10.60801
G1 X153.458 Y113.857 E10.63685
G0 F6000 X153.468 Y113.538
G1 F1200 X154.254 Y113.567 E10.65694
G1 X155.317 Y113.633 E10.68415
G1 X155.583 Y113.656 E10.69097
G1 X156.11 Y113.715 E10.70451
G1 X157.153 Y113.857 E10.7314
G1 X157.789 Y113.963 E10.74787
G1 X158.862 Y114.175 E10.77581
G1 X159.765 Y114.394 E10.79954
G1 X160.646 Y114.69 E10.82328
G1 X161.599 Y115.11 E10.84989
G1 X161.725 Y115.173 E10.85349
G1 X162.537 Y115.624 E10.87721
G1 X163.308 Y116.143 E10.90095
G1 X164.031 Y116.727 E10.92469
G1 X164.509 Y117.174 E10.94141
G1 X165.048 Y117.723 E10.96106
G1 X165.433 Y118.147 E10.97569
G1 X165.735 Y118.498 E10.98752
G1 X166.035 Y118.863 E10.99959
G1 X166.338 Y119.248 E11.0121
G1 X166.623 Y119.627 E11.02422
G1 X166.837 Y119.925 E11.03359
G1 X167.113 Y120.328 E11.04606
G1 X167.405 Y120.776 E11.05972
G1 X167.699 Y121.254 E11.07406
G1 X167.938 Y121.666 E11.08622
G1 X168.168 Y122.084 E11.09841
G1 X168.331 Y122.396 E11.1074
G1 X168.603 Y122.955 E11.12328
G1 X168.941 Y123.704 E11.14427
G1 X169.31 Y124.634 E11.16983
G1 X169.604 Y125.489 E11.19293
G1 X169.812 Y126.167 E11.21104
G1 X169.973 Y126.759 E11.22671
G1 X170.123 Y127.383 E11.24311
G1 X170.192 Y127.713 E11.25172
G1 X170.259 Y128.06 E11.26074
G1 X170.388 Y128.853 E11.28127
G1 X170.454 Y129.395 E11.29521
G1 X170.541 Y130.304 E11.31854
G1 X170.585 Y131.018 E11.33681
G1 X170.598 Y131.463 E11.34818
G1 X170.598 Y132.093 E11.36428
G1 X170.579 Y132.629 E11.37798
G1 X170.532 Y133.374 E11.39705
G1 X170.502 Y133.727 E11.40609
G1 X170.439 Y134.291 E11.42059
G1 X170.396 Y134.602 E11.42861
G1 X170.34 Y134.961 E11.43789
G1 X170.189 Y135.834 E11.46052
G1 X169.767 Y138.495 E11.52934
G1 X169.444 Y140.987 E11.59353
G1 X169.193 Y143.466 E11.65718
G1 X169.008 Y146.024 E11.72269
G1 X168.899 Y148.496 E11.7859
G1 X168.858 Y151.067 E11.85158
G1 X168.889 Y153.56 E11.91526
G1 X168.993 Y156.102 E11.98025
G1 X169.165 Y158.591 E12.04398
G1 X169.411 Y161.106 E12.10853
G1 X169.834 Y164.366 E12.1925
G1 X170 Y165.482 E12.22132
G1 X170.068 Y166.036 E12.23558
G1 X170.112 Y166.495 E12.24736
G1 X170.147 Y166.977 E12.2597
G1 X170.169 Y167.409 E12.27075
G1 X170.183 Y167.958 E12.28478
G1 X170.183 Y168.303 E12.29359
G1 X170.171 Y168.813 E12.30662
G1 X170.141 Y169.447 E12.32283
G1 X170.097 Y170.066 E12.33869
G1 X170.042 Y170.608 E12.3526
G1 X169.976 Y171.105 E12.36541
G1 X169.904 Y171.565 E12.3773
G1 X169.79 Y172.195 E12.39365
G1 X169.667 Y172.754 E12.40828
G1 X169.577 Y173.117 E12.41783
G1 X169.447 Y173.593 E12.43043
G1 X169.215 Y174.374 E12.45124
G1 X169.033 Y174.931 E12.46621
G1 X168.958 Y175.141 E12.47191
G1 X168.747 Y175.686 E12.48684
G1 X168.578 Y176.089 E12.498
G1 X168.393 Y176.504 E12.50961
G1 X168.121 Y177.083 E12.52595
G1 X167.675 Y177.933 E12.55047
G1 X167.066 Y178.977 E12.58134
G1 X166.858 Y179.318 E12.59154
G1 X166.664 Y179.624 E12.6008
G1 X166.133 Y180.387 E12.62454
G1 X165.71 Y180.908 E12.64168
G1 X164.739 Y182.029 E12.67957
G1 X164.279 Y182.548 E12.69728
G1 X163.634 Y183.216 E12.721
G1 X162.933 Y183.826 E12.74474
G1 X162.182 Y184.374 E12.76849
G1 X161.387 Y184.855 E12.79222
G1 X160.554 Y185.266 E12.81595
G1 X160.022 Y185.484 E12.83063
G1 X159.647 Y185.626 E12.84088
G1 X158.764 Y185.918 E12.86463
G1 X157.86 Y186.132 E12.88836
G1 X156.941 Y186.268 E12.91209
G1 X156.148 Y186.321 E12.93239
G1 X155.525 Y186.335 E12.94831
G1 X144.747 Y186.335 E13.22362
G1 X144.077 Y186.326 E13.24074
G1 X143.149 Y186.274 E13.26448
G1 X142.229 Y186.142 E13.28822
G1 X141.324 Y185.931 E13.31196
G1 X140.687 Y185.732 E13.32901
G1 X140.28 Y185.591 E13.34001
G1 X139.415 Y185.249 E13.36377
G1 X138.584 Y184.835 E13.38748
G1 X137.791 Y184.35 E13.41123
G1 X137.043 Y183.799 E13.43496
G1 X136.344 Y183.185 E13.45872
G1 X135.712 Y182.526 E13.48205
G1 X134.884 Y181.586 E13.51405
G1 X134.421 Y181.053 E13.53208
G1 X133.837 Y180.33 E13.55582
G1 X133.453 Y179.775 E13.57306
G1 X132.42 Y178.178 E13.62164
G1 X131.58 Y176.863 E13.6615
G1 X130.152 Y174.76 E13.72643
G1 X128.7 Y172.749 E13.78979
G1 X127.148 Y170.723 E13.85498
G1 X125.561 Y168.766 E13.91934
G1 X123.922 Y166.859 E13.98358
G1 X122.259 Y165.031 E14.0467
G1 X119.588 Y162.292 E14.14442
G1 X119.331 Y162.039 E14.15364
G1 X118.698 Y161.359 E14.17737
