;FLAVOR:Marlin
;TIME:3203
;Filament used: 1.36428m
;Layer height: 0.16
;MINX:113.232
;MINY:112.929
;MINZ:0.16
;MAXX:186.789
;MAXY:179.456
;MAXZ:20.56
;Generated with Cura_SteamEngine 4.6.1
M140 S60
M105
M190 S60
M104 S220
M105
M109 S220
M82 ;absolute extrusion mode
M201 X500.00 Y500.00 Z100.00 E5000.00 ;Setup machine max acceleration
M203 X500.00 Y500.00 Z10.00 E50.00 ;Setup machine max feedrate
M204 P500.00 R1000.00 T500.00 ;Setup Print/Retract/Travel acceleration
M205 X8.00 Y8.00 Z0.40 E5.00 ;Setup Jerk
M220 S100 ;Reset Feedrate
M221 S100 ;Reset Flowrate

G28 ;Home

G92 E0 ;Reset Extruder
G1 Z2.0 F3000 ;Move Z Axis up
G1 X10.1 Y20 Z0.28 F5000.0 ;Move to start position
G1 X10.1 Y200.0 Z0.28 F1500.0 E15 ;Draw the first line
G1 X10.4 Y200.0 Z0.28 F5000.0 ;Move to side a little
G1 X10.4 Y20 Z0.28 F1500.0 E30 ;Draw the second line
G92 E0 ;Reset Extruder
G1 Z2.0 F3000 ;Move Z Axis up

G92 E0
G92 E0
G1 F2700 E-5
;LAYER_COUNT:121
;LAYER:0
M107
G0 F6000 X167.342 Y116.549 Z0.16
;TYPE:SKIRT
G1 F2700 E0
G1 F1200 X167.991 Y116.527 E0.01659
G1 X168.706 Y116.526 E0.03485
G1 X169.499 Y116.556 E0.05512
G1 X170.045 Y116.598 E0.06911
G1 X170.553 Y116.65 E0.08215
G1 X170.976 Y116.704 E0.09305
G1 X171.455 Y116.777 E0.10542
G1 X171.897 Y116.855 E0.11689
G1 X172.37 Y116.95 E0.12921
G1 X172.817 Y117.051 E0.14092
G1 X173.286 Y117.168 E0.15326
G1 X173.767 Y117.301 E0.16601
G1 X174.176 Y117.424 E0.17692
G1 X174.57 Y117.551 E0.1875
G1 X175.054 Y117.72 E0.20059
G1 X175.521 Y117.897 E0.21335
G1 X175.964 Y118.078 E0.22557
G1 X176.365 Y118.252 E0.23674
G1 X176.763 Y118.435 E0.24793
G1 X177.16 Y118.628 E0.2592
G1 X177.633 Y118.873 E0.27281
G1 X178.069 Y119.114 E0.28554
G1 X178.459 Y119.341 E0.29706
G1 X178.82 Y119.562 E0.30787
G1 X179.219 Y119.819 E0.32
G1 X179.617 Y120.089 E0.33228
G1 X180.016 Y120.374 E0.34481
G1 X180.378 Y120.646 E0.35637
G1 X180.739 Y120.931 E0.36812
G1 X181.104 Y121.232 E0.38021
G1 X181.463 Y121.542 E0.39232
G1 X181.783 Y121.832 E0.40335
G1 X182.144 Y122.176 E0.41609
G1 X182.501 Y122.533 E0.42899
G1 X182.815 Y122.861 E0.44059
G1 X183.103 Y123.176 E0.45149
G1 X183.415 Y123.534 E0.46362
G1 X183.618 Y123.778 E0.47173
G1 X184.164 Y124.496 E0.49477
G1 X184.643 Y125.259 E0.51778
G1 X185.053 Y126.062 E0.54081
G1 X185.39 Y126.898 E0.56384
G1 X185.652 Y127.76 E0.58685
G1 X185.885 Y128.981 E0.6186
G1 X186.007 Y129.93 E0.64304
G1 X186.065 Y130.514 E0.65803
G1 X186.109 Y131.209 E0.67582
G1 X186.147 Y132.298 E0.70365
G1 X186.149 Y132.582 E0.71091
G1 X186.146 Y132.887 E0.7187
G1 X186.127 Y133.714 E0.73983
G1 X186.113 Y134.076 E0.74908
G1 X186.049 Y135.104 E0.77539
G1 X186.001 Y135.665 E0.78978
G1 X185.476 Y141.239 E0.93279
G1 X185.369 Y142.096 E0.95485
G1 X185.322 Y142.423 E0.96329
G1 X185.218 Y143.081 E0.9803
G1 X185.157 Y143.43 E0.98935
G1 X185.06 Y143.93 E1.00236
G1 X184.993 Y144.249 E1.01069
G1 X184.773 Y145.196 E1.03552
G1 X184.667 Y145.604 E1.04629
G1 X184.578 Y145.922 E1.05473
G1 X184.351 Y146.692 E1.07523
G1 X184.13 Y147.36 E1.09321
G1 X183.79 Y148.195 E1.11624
G1 X183.377 Y148.996 E1.13926
G1 X182.895 Y149.758 E1.16229
G1 X182.347 Y150.474 E1.18532
G1 X181.511 Y151.358 E1.2164
G1 X180.962 Y151.873 E1.23563
G1 X179.104 Y153.668 E1.30162
G1 X177.297 Y155.515 E1.36762
G1 X175.602 Y157.348 E1.43139
G1 X173.909 Y159.286 E1.49712
G1 X172.299 Y161.237 E1.56174
G1 X170.731 Y163.251 E1.62694
G1 X169.25 Y165.27 E1.6909
G1 X167.776 Y167.403 E1.75713
G1 X166.427 Y169.477 E1.82032
G1 X164.522 Y172.637 E1.91458
G1 X163.892 Y173.727 E1.94673
G1 X163.408 Y174.486 E1.96973
G1 X162.857 Y175.2 E1.99277
G1 X162.246 Y175.862 E2.01578
G1 X161.578 Y176.468 E2.03882
G1 X160.859 Y177.012 E2.06185
G1 X160.095 Y177.49 E2.08487
G1 X159.292 Y177.898 E2.10787
G1 X158.455 Y178.234 E2.13091
G1 X157.592 Y178.494 E2.15394
G1 X156.71 Y178.677 E2.17695
G1 X155.407 Y178.801 E2.21038
G1 X154.77 Y178.816 E2.22666
G1 X145.461 Y178.815 E2.46444
G1 X144.763 Y178.805 E2.48227
G1 X143.864 Y178.752 E2.50528
G1 X142.972 Y178.62 E2.52831
G1 X142.096 Y178.409 E2.55133
G1 X141.242 Y178.121 E2.57435
G1 X140.416 Y177.759 E2.59738
G1 X139.626 Y177.325 E2.62041
G1 X138.878 Y176.822 E2.64343
G1 X138.177 Y176.256 E2.66645
G1 X137.529 Y175.629 E2.68948
G1 X136.939 Y174.948 E2.7125
G1 X136.412 Y174.216 E2.73554
G1 X135.952 Y173.441 E2.75856
G1 X135.677 Y172.889 E2.77431
G1 X135.444 Y172.382 E2.78856
G1 X134.335 Y170.024 E2.85512
G1 X133.191 Y167.756 E2.92001
G1 X131.993 Y165.543 E2.98429
G1 X130.716 Y163.335 E3.04944
G1 X129.364 Y161.144 E3.11521
G1 X127.998 Y159.062 E3.17882
G1 X126.52 Y156.945 E3.24477
G1 X125.015 Y154.912 E3.30938
G1 X123.463 Y152.936 E3.37356
G1 X121.814 Y150.954 E3.43942
G1 X120.13 Y149.043 E3.50448
G1 X118.707 Y147.51 E3.55791
G1 X117.653 Y146.401 E3.59699
G1 X117.318 Y146.03 E3.60976
G1 X117.009 Y145.671 E3.62186
G1 X116.705 Y145.301 E3.63409
G1 X116.429 Y144.948 E3.64554
G1 X116.138 Y144.557 E3.65799
G1 X115.894 Y144.212 E3.66878
G1 X115.609 Y143.787 E3.68185
G1 X115.439 Y143.519 E3.68996
G1 X114.991 Y142.737 E3.71298
G1 X114.613 Y141.919 E3.736
G1 X114.31 Y141.07 E3.75903
G1 X114.083 Y140.198 E3.78204
G1 X113.934 Y139.309 E3.80507
G1 X113.864 Y138.41 E3.8281
G1 X113.885 Y137.356 E3.85503
G1 X113.936 Y136.667 E3.87268
G1 X114.887 Y126.348 E4.13738
G1 X114.959 Y125.674 E4.15469
G1 X115.095 Y124.783 E4.17772
G1 X115.309 Y123.907 E4.20075
G1 X115.599 Y123.054 E4.22377
G1 X115.964 Y122.23 E4.24679
G1 X116.401 Y121.441 E4.26983
G1 X116.906 Y120.695 E4.29284
G1 X117.762 Y119.686 E4.32664
G1 X118.156 Y119.279 E4.34111
G1 X118.576 Y118.87 E4.35608
G1 X118.902 Y118.57 E4.3674
G1 X119.284 Y118.235 E4.38038
G1 X119.635 Y117.943 E4.39204
G1 X120.012 Y117.645 E4.40431
G1 X120.371 Y117.374 E4.4158
G1 X120.76 Y117.094 E4.42805
G1 X121.12 Y116.848 E4.43918
G1 X121.516 Y116.591 E4.45124
G1 X121.9 Y116.354 E4.46277
G1 X122.313 Y116.112 E4.475
G1 X122.712 Y115.891 E4.48665
G1 X123.176 Y115.65 E4.5
G1 X123.563 Y115.461 E4.511
G1 X123.946 Y115.283 E4.52179
G1 X124.357 Y115.103 E4.53325
G1 X124.848 Y114.904 E4.54679
G1 X125.259 Y114.749 E4.55801
G1 X125.727 Y114.585 E4.57067
G1 X126.183 Y114.438 E4.58291
G1 X126.629 Y114.305 E4.5948
G1 X127.04 Y114.193 E4.60568
G1 X127.463 Y114.088 E4.61681
G1 X127.895 Y113.99 E4.62813
G1 X128.462 Y113.878 E4.64289
G1 X128.939 Y113.798 E4.65525
G1 X129.388 Y113.733 E4.66684
G1 X129.789 Y113.684 E4.67716
G1 X130.244 Y113.639 E4.68883
G1 X130.531 Y113.617 E4.69619
G1 X131.112 Y113.589 E4.71105
G1 X132.147 Y113.569 E4.73749
G1 X133.031 Y113.59 E4.76008
G1 X133.532 Y113.624 E4.7729
G1 X134.034 Y113.671 E4.78578
G1 X134.475 Y113.723 E4.79712
G1 X134.969 Y113.794 E4.80987
G1 X135.427 Y113.871 E4.82174
G1 X135.872 Y113.956 E4.83331
G1 X136.543 Y114.103 E4.85085
G1 X137.547 Y114.345 E4.87724
G1 X139.166 Y114.728 E4.91973
G1 X141.715 Y115.265 E4.98627
G1 X144.171 Y115.707 E5.05002
G1 X146.714 Y116.094 E5.11572
G1 X149.223 Y116.402 E5.18029
G1 X151.739 Y116.639 E5.24484
G1 X154.28 Y116.806 E5.30989
G1 X156.814 Y116.901 E5.37466
G1 X159.385 Y116.925 E5.44034
G1 X161.885 Y116.877 E5.50421
G1 X164.472 Y116.754 E5.57037
G1 X166.09 Y116.64 E5.6118
G1 X166.837 Y116.582 E5.63094
G1 X167.342 Y116.549 E5.64387
G1 F2700 E0.64387
G0 F6000 X133.554 Y113.305
G1 F2700 E5.64387
G1 F1200 X134.071 Y113.353 E5.65713
G1 X134.512 Y113.405 E5.66847
G1 X135.023 Y113.478 E5.68166
G1 X135.481 Y113.555 E5.69352
G1 X135.939 Y113.643 E5.70543
G1 X136.618 Y113.792 E5.72319
G1 X137.621 Y114.034 E5.74955
G1 X139.267 Y114.422 E5.79274
G1 X141.769 Y114.949 E5.85806
G1 X144.241 Y115.394 E5.92222
G1 X146.731 Y115.773 E5.98655
G1 X149.257 Y116.083 E6.05156
G1 X151.79 Y116.322 E6.11655
G1 X154.278 Y116.486 E6.18024
G1 X156.829 Y116.581 E6.24545
G1 X159.382 Y116.605 E6.31066
G1 X161.899 Y116.557 E6.37497
G1 X164.435 Y116.436 E6.43982
G1 X166.051 Y116.322 E6.4812
G1 X166.817 Y116.262 E6.50083
G1 X167.322 Y116.229 E6.51376
G1 X167.99 Y116.207 E6.53083
G1 X168.705 Y116.206 E6.54909
G1 X169.524 Y116.237 E6.57003
G1 X170.07 Y116.279 E6.58402
G1 X170.593 Y116.332 E6.59744
G1 X171.016 Y116.386 E6.60834
G1 X171.51 Y116.461 E6.6211
G1 X171.952 Y116.539 E6.63257
G1 X172.441 Y116.638 E6.64531
G1 X172.888 Y116.739 E6.65702
G1 X173.371 Y116.86 E6.66973
G1 X173.852 Y116.993 E6.68248
G1 X174.274 Y117.119 E6.69373
G1 X174.668 Y117.246 E6.70431
G1 X175.167 Y117.421 E6.71781
G1 X175.634 Y117.598 E6.73057
G1 X176.092 Y117.784 E6.7432
G1 X176.493 Y117.958 E6.75436
G1 X176.903 Y118.147 E6.7659
G1 X177.3 Y118.34 E6.77717
G1 X177.788 Y118.593 E6.79121
G1 X178.224 Y118.834 E6.80394
G1 X178.626 Y119.068 E6.81582
G1 X178.987 Y119.289 E6.82663
G1 X179.398 Y119.554 E6.83912
G1 X179.796 Y119.824 E6.85141
G1 X180.208 Y120.119 E6.86435
G1 X180.57 Y120.391 E6.87592
G1 X180.943 Y120.684 E6.88803
G1 X181.308 Y120.985 E6.90012
G1 X181.678 Y121.304 E6.9126
G1 X181.998 Y121.594 E6.92363
G1 X182.37 Y121.95 E6.93678
G1 X182.727 Y122.307 E6.94968
G1 X183.052 Y122.645 E6.96165
G1 X183.34 Y122.96 E6.97256
G1 X183.661 Y123.329 E6.98505
G1 X183.864 Y123.573 E6.99316
G1 X184.419 Y124.302 E7.01656
G1 X184.907 Y125.076 E7.03993
G1 X185.326 Y125.89 E7.06332
G1 X185.673 Y126.737 E7.0867
G1 X185.944 Y127.612 E7.1101
G1 X186.202 Y128.94 E7.14466
G1 X186.324 Y129.889 E7.1691
G1 X186.384 Y130.492 E7.18457
G1 X186.429 Y131.197 E7.20262
G1 X186.459 Y131.957 E7.22205
G1 X186.469 Y132.58 E7.23796
G1 X186.466 Y132.895 E7.24601
G1 X186.447 Y133.722 E7.26714
G1 X186.432 Y134.095 E7.27668
G1 X186.368 Y135.131 E7.30319
G1 X186.32 Y135.695 E7.31765
G1 X185.829 Y140.954 E7.45257
G1 X185.793 Y141.278 E7.4609
G1 X185.639 Y142.473 E7.49167
G1 X185.535 Y143.131 E7.50869
G1 X185.471 Y143.491 E7.51803
G1 X185.374 Y143.991 E7.53104
G1 X185.305 Y144.32 E7.53963
G1 X185.158 Y144.966 E7.55655
G1 X185.082 Y145.276 E7.5647
G1 X184.976 Y145.684 E7.57547
G1 X184.885 Y146.012 E7.58416
G1 X184.658 Y146.782 E7.60467
G1 X184.431 Y147.468 E7.62313
G1 X184.086 Y148.316 E7.64651
G1 X183.669 Y149.131 E7.6699
G1 X183.182 Y149.906 E7.69328
G1 X182.629 Y150.635 E7.71665
G1 X181.73 Y151.592 E7.75019
G1 X181.176 Y152.112 E7.7696
G1 X179.33 Y153.895 E7.83516
G1 X177.535 Y155.73 E7.90073
G1 X175.835 Y157.568 E7.96468
G1 X174.154 Y159.493 E8.02996
G1 X172.539 Y161.45 E8.09477
G1 X170.999 Y163.429 E8.15883
G1 X169.499 Y165.472 E8.22357
G1 X168.046 Y167.574 E8.28884
G1 X166.702 Y169.64 E8.3518
G1 X164.808 Y172.782 E8.44551
G1 X164.17 Y173.887 E8.4781
G1 X163.678 Y174.659 E8.50149
G1 X163.12 Y175.385 E8.52488
G1 X162.502 Y176.059 E8.54824
G1 X161.826 Y176.678 E8.57165
G1 X161.1 Y177.234 E8.59501
G1 X160.327 Y177.726 E8.61841
G1 X159.515 Y178.148 E8.64179
G1 X158.669 Y178.497 E8.66516
G1 X157.796 Y178.772 E8.68854
G1 X156.902 Y178.969 E8.71193
G1 X155.994 Y179.087 E8.73532
G1 X155.417 Y179.121 E8.75008
G1 X154.77 Y179.136 E8.76661
G1 X145.457 Y179.135 E9.0045
G1 X144.759 Y179.125 E9.02233
G1 X143.845 Y179.072 E9.04572
G1 X142.939 Y178.939 E9.06911
G1 X142.048 Y178.728 E9.0925
G1 X141.18 Y178.44 E9.11586
G1 X140.339 Y178.077 E9.13926
G1 X139.534 Y177.642 E9.16263
G1 X138.769 Y177.139 E9.18602
G1 X138.051 Y176.571 E9.2094
G1 X137.386 Y175.942 E9.23278
G1 X136.778 Y175.258 E9.25616
G1 X136.232 Y174.523 E9.27955
G1 X135.752 Y173.743 E9.30294
G1 X135.386 Y173.022 E9.3236
G1 X135.153 Y172.515 E9.33785
G1 X134.053 Y170.176 E9.40388
G1 X132.917 Y167.924 E9.4683
G1 X131.697 Y165.67 E9.53377
G1 X130.438 Y163.493 E9.59801
G1 X129.112 Y161.344 E9.66251
G1 X127.713 Y159.211 E9.72767
G1 X126.278 Y157.156 E9.7917
G1 X124.762 Y155.108 E9.85678
G1 X123.194 Y153.112 E9.92162
G1 X121.586 Y151.179 E9.98585
G1 X119.9 Y149.267 E10.05096
G1 X118.39 Y147.64 E10.10766
G1 X117.422 Y146.622 E10.14355
G1 X117.075 Y146.239 E10.15675
G1 X116.766 Y145.88 E10.16885
G1 X116.453 Y145.498 E10.18146
G1 X116.177 Y145.145 E10.19291
G1 X115.877 Y144.741 E10.20576
G1 X115.633 Y144.396 E10.21655
G1 X115.339 Y143.959 E10.23001
G1 X115.169 Y143.691 E10.23812
G1 X114.713 Y142.897 E10.2615
G1 X114.328 Y142.066 E10.2849
G1 X114.017 Y141.206 E10.30826
G1 X113.782 Y140.321 E10.33165
G1 X113.625 Y139.419 E10.35503
G1 X113.548 Y138.507 E10.37841
G1 X113.565 Y137.333 E10.40841
G1 X113.617 Y136.638 E10.42621
G1 X114.569 Y126.314 E10.69104
G1 X114.641 Y125.64 E10.70836
G1 X114.778 Y124.735 E10.73174
G1 X114.994 Y123.845 E10.75513
G1 X115.286 Y122.977 E10.77852
G1 X115.653 Y122.139 E10.80189
G1 X116.091 Y121.335 E10.82528
G1 X116.598 Y120.573 E10.84866
G1 X117.17 Y119.858 E10.87205
G1 X117.532 Y119.464 E10.88571
G1 X117.926 Y119.057 E10.90018
G1 X118.359 Y118.634 E10.91565
G1 X118.685 Y118.334 E10.92696
G1 X119.08 Y117.989 E10.94036
G1 X119.431 Y117.697 E10.95202
G1 X119.819 Y117.39 E10.96466
G1 X120.178 Y117.119 E10.97615
G1 X120.579 Y116.83 E10.98878
G1 X120.939 Y116.584 E10.99991
G1 X121.348 Y116.319 E11.01236
G1 X121.732 Y116.082 E11.02389
G1 X122.158 Y115.832 E11.03651
G1 X122.557 Y115.611 E11.04816
G1 X123.036 Y115.362 E11.06195
G1 X123.423 Y115.173 E11.07295
G1 X123.818 Y114.99 E11.08407
G1 X124.229 Y114.81 E11.09553
G1 X124.735 Y114.604 E11.10948
G1 X125.146 Y114.449 E11.1207
G1 X125.629 Y114.28 E11.13378
G1 X126.085 Y114.133 E11.14601
G1 X126.545 Y113.997 E11.15827
G1 X126.956 Y113.885 E11.16915
G1 X127.393 Y113.776 E11.18065
G1 X127.825 Y113.678 E11.19197
G1 X128.41 Y113.562 E11.2072
G1 X128.887 Y113.482 E11.21956
G1 X129.349 Y113.415 E11.23148
G1 X129.75 Y113.366 E11.2418
G1 X130.22 Y113.32 E11.25386
G1 X130.507 Y113.298 E11.26122
G1 X131.106 Y113.269 E11.27653
G1 X132.141 Y113.249 E11.30298
G1 X133.053 Y113.271 E11.32628
G1 X133.554 Y113.305 E11.33911
G0 F6000 X133.575 Y112.986
G1 F1200 X134.109 Y113.035 E11.3528
G1 X134.55 Y113.087 E11.36415
G1 X135.076 Y113.162 E11.37772
G1 X135.534 Y113.239 E11.38958
G1 X136.006 Y113.33 E11.40186
G1 X136.693 Y113.48 E11.41982
G1 X137.739 Y113.732 E11.44731
G1 X139.329 Y114.108 E11.48904
G1 X141.823 Y114.634 E11.55415
G1 X144.311 Y115.082 E11.61872
G1 X146.783 Y115.457 E11.68259
G1 X149.291 Y115.766 E11.74714
G1 X151.77 Y115.999 E11.81074
G1 X154.346 Y116.169 E11.87668
G1 X156.809 Y116.261 E11.93964
G1 X159.379 Y116.285 E12.00529
G1 X161.877 Y116.237 E12.06911
G1 X164.441 Y116.115 E12.13468
G1 X167.301 Y115.91 E12.20792
G1 X167.99 Y115.887 E12.22553
G1 X168.705 Y115.886 E12.2438
G1 X169.548 Y115.918 E12.26535
G1 X170.094 Y115.96 E12.27933
G1 X170.634 Y116.015 E12.2932
G1 X171.057 Y116.069 E12.30409
G1 X171.566 Y116.146 E12.31724
G1 X172.008 Y116.224 E12.32871
G1 X172.511 Y116.326 E12.34182
G1 X172.958 Y116.427 E12.35352
G1 X173.456 Y116.552 E12.36664
G1 X173.937 Y116.685 E12.37939
G1 X174.372 Y116.815 E12.39098
G1 X174.766 Y116.942 E12.40156
G1 X175.281 Y117.122 E12.41549
G1 X175.748 Y117.299 E12.42825
G1 X176.219 Y117.491 E12.44124
G1 X176.62 Y117.665 E12.45241
G1 X177.043 Y117.859 E12.46429
G1 X177.44 Y118.052 E12.47557
G1 X177.943 Y118.313 E12.49005
G1 X178.379 Y118.554 E12.50277
G1 X178.793 Y118.795 E12.51501
G1 X179.154 Y119.016 E12.52582
G1 X179.578 Y119.29 E12.53871
G1 X179.976 Y119.56 E12.551
G1 X180.401 Y119.863 E12.56433
G1 X180.763 Y120.135 E12.5759
G1 X181.146 Y120.437 E12.58836
G1 X181.511 Y120.738 E12.60044
G1 X181.892 Y121.067 E12.6133
G1 X182.212 Y121.357 E12.62433
G1 X182.597 Y121.723 E12.6379
G1 X182.954 Y122.08 E12.6508
G1 X183.288 Y122.429 E12.66314
G1 X183.576 Y122.744 E12.67404
G1 X183.907 Y123.125 E12.68693
G1 X184.11 Y123.369 E12.69504
G1 X184.673 Y124.108 E12.71877
G1 X185.171 Y124.893 E12.74252
G1 X185.599 Y125.718 E12.76626
G1 X185.955 Y126.576 E12.78999
G1 X186.235 Y127.462 E12.81372
G1 X186.438 Y128.369 E12.83746
G1 X186.52 Y128.899 E12.85116
G1 X186.642 Y129.848 E12.8756
G1 X186.704 Y130.469 E12.89154
G1 X186.731 Y130.854 E12.9014
G1 X186.749 Y131.184 E12.90984
G1 X186.779 Y131.944 E12.92927
G1 X186.789 Y132.578 E12.94547
G1 X186.786 Y132.902 E12.95375
G1 X186.767 Y133.729 E12.97488
G1 X186.751 Y134.114 E12.98472
G1 X186.687 Y135.158 E13.01144
G1 X186.638 Y135.725 E13.02597
G1 X186.111 Y141.318 E13.16947
G1 X186.004 Y142.175 E13.19153
G1 X185.955 Y142.523 E13.20051
G1 X185.851 Y143.181 E13.21753
G1 X185.785 Y143.552 E13.22715
G1 X185.688 Y144.052 E13.24016
G1 X185.617 Y144.391 E13.24901
G1 X185.47 Y145.037 E13.26593
