;FLAVOR:Marlin
;TIME:3365
;Filament used: 1.46741m
;Layer height: 0.16
;MINX:116.1
;MINY:99.808
;MINZ:0.16
;MAXX:170.592
;MAXY:172.758
;MAXZ:20.56
;Generated with Cura_SteamEngine 4.6.1
M140 S60
M105
M190 S60
M104 S220
M105
M109 S220
M82 ;absolute extrusion mode
M201 X500.00 Y500.00 Z100.00 E5000.00 ;Setup machine max acceleration
M203 X500.00 Y500.00 Z10.00 E50.00 ;Setup machine max feedrate
M204 P500.00 R1000.00 T500.00 ;Setup Print/Retract/Travel acceleration
M205 X8.00 Y8.00 Z0.40 E5.00 ;Setup Jerk
M220 S100 ;Reset Feedrate
M221 S100 ;Reset Flowrate

G28 ;Home

G92 E0 ;Reset Extruder
G1 Z2.0 F3000 ;Move Z Axis up
G1 X10.1 Y20 Z0.28 F5000.0 ;Move to start position
G1 X10.1 Y200.0 Z0.28 F1500.0 E15 ;Draw the first line
G1 X10.4 Y200.0 Z0.28 F5000.0 ;Move to side a little
G1 X10.4 Y20 Z0.28 F1500.0 E30 ;Draw the second line
G92 E0 ;Reset Extruder
G1 Z2.0 F3000 ;Move Z Axis up

G92 E0
G92 E0
G1 F2700 E-5
;LAYER_COUNT:122
;LAYER:0
M107
G0 F6000 X153.977 Y100.481 Z0.16
;TYPE:SKIRT
G1 F2700 E0
G1 F1200 X154.324 Y100.497 E0.00887
G1 X155.064 Y100.545 E0.02782
G1 X155.417 Y100.574 E0.03686
G1 X155.897 Y100.622 E0.04918
G1 X156.204 Y100.658 E0.05708
G1 X156.8 Y100.736 E0.07243
G1 X157.133 Y100.785 E0.08103
G1 X157.637 Y100.868 E0.09408
G1 X157.945 Y100.924 E0.10208
G1 X158.632 Y101.059 E0.11996
G1 X159.301 Y101.212 E0.13749
G1 X160.165 Y101.47 E0.16052
G1 X161.003 Y101.802 E0.18355
G1 X161.808 Y102.208 E0.20658
G1 X162.573 Y102.683 E0.22958
G1 X163.294 Y103.225 E0.25262
G1 X163.967 Y103.831 E0.27575
G1 X164.301 Y104.16 E0.28773
G1 X164.773 Y104.657 E0.30524
G1 X165.141 Y105.072 E0.3194
G1 X165.503 Y105.505 E0.33382
G1 X165.804 Y105.885 E0.3462
G1 X166.104 Y106.283 E0.35893
G1 X166.36 Y106.641 E0.37018
G1 X166.62 Y107.022 E0.38196
G1 X166.86 Y107.392 E0.39322
G1 X167.116 Y107.809 E0.40572
G1 X167.364 Y108.235 E0.41831
G1 X167.591 Y108.647 E0.43033
G1 X167.806 Y109.059 E0.4422
G1 X168.018 Y109.489 E0.45445
G1 X168.194 Y109.869 E0.46514
G1 X168.361 Y110.251 E0.47579
G1 X168.547 Y110.7 E0.48821
G1 X168.744 Y111.212 E0.50222
G1 X168.893 Y111.635 E0.51368
G1 X169.023 Y112.031 E0.52432
G1 X169.154 Y112.458 E0.53573
G1 X169.293 Y112.954 E0.54889
G1 X169.409 Y113.414 E0.56101
G1 X169.506 Y113.839 E0.57214
G1 X169.595 Y114.269 E0.58336
G1 X169.691 Y114.8 E0.59714
G1 X169.764 Y115.28 E0.60955
G1 X169.818 Y115.694 E0.62021
G1 X169.867 Y116.138 E0.63162
G1 X169.909 Y116.63 E0.64423
G1 X169.926 Y116.907 E0.65132
G1 X169.945 Y117.458 E0.66541
G1 X169.952 Y118.453 E0.69082
G1 X169.931 Y119.184 E0.7095
G1 X169.904 Y119.599 E0.72013
G1 X169.794 Y120.564 E0.74494
G1 X169.703 Y121.118 E0.75928
G1 X169.388 Y122.883 E0.80507
G1 X169.011 Y125.398 E0.87003
G1 X168.705 Y127.936 E0.93533
G1 X168.471 Y130.474 E1.00044
G1 X168.312 Y132.968 E1.06427
G1 X168.222 Y135.531 E1.12978
G1 X168.203 Y138.075 E1.19477
G1 X168.257 Y140.608 E1.25949
G1 X168.384 Y143.173 E1.32509
G1 X168.578 Y145.665 E1.38893
G1 X168.851 Y148.224 E1.45467
G1 X169.374 Y152.027 E1.55273
G1 X169.425 Y152.468 E1.56407
G1 X169.448 Y152.715 E1.5704
G1 X169.485 Y153.279 E1.58484
G1 X169.523 Y154.301 E1.61097
G1 X169.519 Y155.154 E1.63276
G1 X169.495 Y155.667 E1.64587
G1 X169.458 Y156.182 E1.65906
G1 X169.415 Y156.621 E1.67033
G1 X169.354 Y157.118 E1.68312
G1 X169.288 Y157.564 E1.69464
G1 X169.21 Y158.017 E1.70638
G1 X169.125 Y158.454 E1.71775
G1 X169.017 Y158.946 E1.73062
G1 X168.91 Y159.38 E1.74204
G1 X168.793 Y159.812 E1.75347
G1 X168.669 Y160.234 E1.7647
G1 X168.499 Y160.759 E1.7788
G1 X168.349 Y161.183 E1.79029
G1 X168.198 Y161.583 E1.80121
G1 X168.026 Y162.011 E1.81299
G1 X167.808 Y162.515 E1.82702
G1 X167.622 Y162.914 E1.83826
G1 X167.438 Y163.287 E1.84889
G1 X167.241 Y163.668 E1.85984
G1 X166.985 Y164.133 E1.8734
G1 X166.741 Y164.55 E1.88574
G1 X166.501 Y164.94 E1.89744
G1 X166.266 Y165.303 E1.90849
G1 X165.986 Y165.714 E1.92119
G1 X165.73 Y166.07 E1.93239
G1 X165.447 Y166.444 E1.94437
G1 X165.162 Y166.804 E1.9561
G1 X164.811 Y167.224 E1.97008
G1 X164.516 Y167.558 E1.98146
G1 X164.211 Y167.888 E1.99294
G1 X163.906 Y168.204 E2.00416
G1 X163.59 Y168.518 E2.01554
G1 X163.257 Y168.834 E2.02727
G1 X162.877 Y169.176 E2.04032
G1 X162.547 Y169.459 E2.05143
G1 X162.204 Y169.741 E2.06277
G1 X161.958 Y169.934 E2.07076
G1 X161.225 Y170.458 E2.09377
G1 X160.449 Y170.915 E2.11678
G1 X159.634 Y171.302 E2.13982
G1 X158.789 Y171.615 E2.16284
G1 X157.919 Y171.852 E2.18588
G1 X157.032 Y172.011 E2.20889
G1 X155.874 Y172.098 E2.23856
G1 X155.096 Y172.111 E2.25843
G1 X144.896 Y172.118 E2.51898
G1 X144.183 Y172.109 E2.53719
G1 X143.283 Y172.058 E2.56022
G1 X142.391 Y171.927 E2.58325
G1 X141.514 Y171.718 E2.60628
G1 X140.66 Y171.431 E2.62929
G1 X139.492 Y170.895 E2.66212
G1 X138.311 Y170.259 E2.69638
G1 X136.048 Y169.081 E2.76155
G1 X133.769 Y167.976 E2.82625
G1 X131.413 Y166.915 E2.89225
G1 X129.064 Y165.934 E2.95727
G1 X126.732 Y165.042 E3.02105
G1 X124.348 Y164.201 E3.08562
G1 X123.657 Y163.967 E3.10426
G1 X122.816 Y163.64 E3.12731
G1 X122.009 Y163.241 E3.15031
G1 X121.239 Y162.771 E3.17335
G1 X120.514 Y162.236 E3.19636
G1 X119.84 Y161.638 E3.21938
G1 X119.221 Y160.982 E3.24242
G1 X118.663 Y160.275 E3.26543
G1 X118.17 Y159.52 E3.28846
G1 X117.745 Y158.725 E3.31149
G1 X117.393 Y157.896 E3.33449
G1 X117.115 Y157.038 E3.35753
G1 X116.915 Y156.159 E3.38056
G1 X116.793 Y155.266 E3.40358
G1 X116.757 Y154.688 E3.41837
G1 X116.746 Y154.365 E3.42663
G1 X116.74 Y154.019 E3.43547
G1 X116.741 Y137.598 E3.85492
G1 X116.751 Y136.9 E3.87275
G1 X116.804 Y136.001 E3.89576
G1 X116.936 Y135.109 E3.91879
G1 X117.147 Y134.233 E3.94181
G1 X117.435 Y133.379 E3.96483
G1 X117.797 Y132.553 E3.98786
G1 X118.231 Y131.763 E4.01089
G1 X118.885 Y130.815 E4.04031
G1 X119.37 Y130.193 E4.06045
G1 X120.316 Y129.02 E4.09895
G1 X121.854 Y126.999 E4.16382
G1 X123.331 Y124.942 E4.22851
G1 X124.761 Y122.825 E4.29376
G1 X126.121 Y120.682 E4.3586
G1 X127.429 Y118.486 E4.42389
G1 X128.655 Y116.291 E4.48811
G1 X129.844 Y114.013 E4.55375
G1 X130.942 Y111.757 E4.61784
G1 X131.525 Y110.465 E4.65404
G1 X131.949 Y109.553 E4.67973
G1 X132.177 Y109.088 E4.69296
G1 X132.407 Y108.647 E4.70567
G1 X132.638 Y108.229 E4.71787
G1 X132.876 Y107.821 E4.72993
G1 X133.106 Y107.447 E4.74115
G1 X133.346 Y107.075 E4.75246
G1 X133.614 Y106.679 E4.76467
G1 X133.914 Y106.258 E4.77787
G1 X134.177 Y105.909 E4.78904
G1 X134.476 Y105.532 E4.80133
G1 X134.795 Y105.148 E4.81408
G1 X135.087 Y104.812 E4.82545
G1 X135.372 Y104.498 E4.83628
G1 X135.711 Y104.142 E4.84884
G1 X135.932 Y103.921 E4.85682
G1 X136.597 Y103.312 E4.87986
G1 X137.313 Y102.765 E4.90287
G1 X138.075 Y102.284 E4.92589
G1 X138.877 Y101.872 E4.94892
G1 X139.712 Y101.532 E4.97195
G1 X140.537 Y101.278 E4.994
G1 X141.059 Y101.141 E5.00779
G1 X141.65 Y101.004 E5.02328
G1 X142.056 Y100.923 E5.03386
G1 X142.399 Y100.861 E5.04276
G1 X143.094 Y100.752 E5.06073
G1 X143.733 Y100.667 E5.0772
G1 X144.067 Y100.628 E5.08579
G1 X144.72 Y100.563 E5.10255
G1 X145.054 Y100.535 E5.11111
G1 X145.76 Y100.493 E5.12918
G1 X147.048 Y100.451 E5.16209
G1 X147.472 Y100.448 E5.17293
G1 X152.787 Y100.449 E5.30869
G1 X153.977 Y100.481 E5.3391
G0 F6000 X153.987 Y100.161
G1 F1200 X154.344 Y100.178 E5.34823
G1 X155.084 Y100.226 E5.36717
G1 X155.449 Y100.256 E5.37653
G1 X155.929 Y100.304 E5.38885
G1 X156.246 Y100.341 E5.397
G1 X156.842 Y100.419 E5.41235
G1 X157.185 Y100.469 E5.42121
G1 X157.689 Y100.552 E5.43426
G1 X158.007 Y100.61 E5.44251
G1 X158.694 Y100.745 E5.4604
G1 X159.379 Y100.902 E5.47835
G1 X160.256 Y101.163 E5.50172
G1 X161.108 Y101.499 E5.52512
G1 X161.927 Y101.908 E5.5485
G1 X162.707 Y102.387 E5.57188
G1 X163.442 Y102.932 E5.59525
G1 X164.191 Y103.603 E5.62094
G1 X164.525 Y103.932 E5.63292
G1 X165.012 Y104.445 E5.65098
G1 X165.38 Y104.86 E5.66515
G1 X165.754 Y105.306 E5.68002
G1 X166.055 Y105.686 E5.6924
G1 X166.365 Y106.097 E5.70555
G1 X166.621 Y106.455 E5.7168
G1 X166.888 Y106.848 E5.72893
G1 X167.128 Y107.218 E5.7402
G1 X167.393 Y107.648 E5.7531
G1 X167.641 Y108.074 E5.76569
G1 X167.875 Y108.499 E5.77808
G1 X168.09 Y108.911 E5.78995
G1 X168.309 Y109.355 E5.8026
G1 X168.485 Y109.735 E5.8133
G1 X168.657 Y110.128 E5.82426
G1 X168.843 Y110.577 E5.83667
G1 X169.046 Y111.106 E5.85114
G1 X169.195 Y111.529 E5.8626
G1 X169.329 Y111.937 E5.87357
G1 X169.46 Y112.364 E5.88498
G1 X169.603 Y112.875 E5.89853
G1 X169.719 Y113.335 E5.91065
G1 X169.819 Y113.774 E5.92215
G1 X169.908 Y114.204 E5.93337
G1 X170.007 Y114.752 E5.94759
G1 X170.08 Y115.232 E5.95999
G1 X170.136 Y115.658 E5.97097
G1 X170.185 Y116.102 E5.98238
G1 X170.228 Y116.61 E5.9954
G1 X170.245 Y116.887 E6.00249
G1 X170.265 Y117.455 E6.01701
G1 X170.272 Y118.45 E6.04243
G1 X170.25 Y119.204 E6.06169
G1 X170.223 Y119.619 E6.07232
G1 X170.11 Y120.615 E6.09792
G1 X170.018 Y121.174 E6.11239
G1 X169.702 Y122.946 E6.15837
G1 X169.326 Y125.453 E6.22312
G1 X169.027 Y127.93 E6.28686
G1 X168.791 Y130.489 E6.3525
G1 X168.631 Y133.002 E6.41682
G1 X168.542 Y135.544 E6.48179
G1 X168.523 Y138.072 E6.54637
G1 X168.577 Y140.62 E6.61147
G1 X168.702 Y143.135 E6.67579
G1 X168.897 Y145.638 E6.73992
G1 X169.168 Y148.178 E6.80517
G1 X169.691 Y151.983 E6.90328
G1 X169.744 Y152.438 E6.91498
G1 X169.767 Y152.685 E6.92132
G1 X169.805 Y153.268 E6.93624
G1 X169.843 Y154.29 E6.96236
G1 X169.839 Y155.169 E6.98482
G1 X169.815 Y155.682 E6.99794
G1 X169.776 Y156.214 E7.01156
G1 X169.733 Y156.653 E7.02283
G1 X169.67 Y157.165 E7.03601
G1 X169.604 Y157.611 E7.04752
G1 X169.524 Y158.078 E7.05963
G1 X169.439 Y158.515 E7.071
G1 X169.327 Y159.023 E7.08429
G1 X169.22 Y159.457 E7.0957
G1 X169.1 Y159.903 E7.1075
G1 X168.976 Y160.325 E7.11874
G1 X168.801 Y160.865 E7.13324
G1 X168.651 Y161.289 E7.14472
G1 X168.495 Y161.702 E7.156
G1 X168.323 Y162.13 E7.16778
G1 X168.098 Y162.65 E7.18226
G1 X167.912 Y163.049 E7.1935
G1 X167.722 Y163.434 E7.20447
G1 X167.525 Y163.815 E7.21542
G1 X167.261 Y164.295 E7.22942
G1 X167.017 Y164.712 E7.24176
G1 X166.769 Y165.114 E7.25382
G1 X166.534 Y165.477 E7.26487
G1 X166.246 Y165.9 E7.27794
G1 X165.99 Y166.256 E7.28914
G1 X165.698 Y166.643 E7.30153
G1 X165.413 Y167.003 E7.31325
G1 X165.051 Y167.436 E7.32767
G1 X164.756 Y167.77 E7.33905
G1 X164.442 Y168.11 E7.35088
G1 X164.137 Y168.426 E7.36209
G1 X163.81 Y168.75 E7.37385
G1 X163.477 Y169.066 E7.38558
G1 X163.085 Y169.419 E7.39905
G1 X162.755 Y169.702 E7.41016
G1 X162.402 Y169.992 E7.42183
G1 X162.156 Y170.185 E7.42982
G1 X161.412 Y170.718 E7.45319
G1 X160.624 Y171.184 E7.47658
G1 X159.798 Y171.58 E7.49998
G1 X158.941 Y171.902 E7.52336
G1 X158.06 Y172.148 E7.54673
G1 X157.16 Y172.316 E7.57011
G1 X155.879 Y172.418 E7.60294
G1 X155.096 Y172.431 E7.62294
G1 X144.892 Y172.438 E7.88359
G1 X144.179 Y172.429 E7.90181
G1 X143.265 Y172.378 E7.92519
G1 X142.359 Y172.247 E7.94857
G1 X141.468 Y172.037 E7.97196
G1 X140.598 Y171.75 E7.99536
G1 X139.757 Y171.389 E8.01873
G1 X139.341 Y171.176 E8.03067
G1 X138.24 Y170.583 E8.06262
G1 X135.889 Y169.359 E8.13032
G1 X133.612 Y168.255 E8.19496
G1 X131.315 Y167.221 E8.2593
G1 X128.956 Y166.235 E8.32461
G1 X126.59 Y165.33 E8.38932
G1 X124.286 Y164.517 E8.45173
G1 X123.554 Y164.27 E8.47146
G1 X122.701 Y163.939 E8.49484
G1 X121.879 Y163.535 E8.51823
G1 X121.096 Y163.061 E8.54161
G1 X120.357 Y162.52 E8.56501
G1 X119.669 Y161.917 E8.58838
G1 X119.035 Y161.256 E8.61177
G1 X118.462 Y160.542 E8.63516
G1 X117.953 Y159.782 E8.65852
G1 X117.513 Y158.979 E8.68191
G1 X117.144 Y158.141 E8.7053
G1 X116.85 Y157.274 E8.72868
G1 X116.632 Y156.385 E8.75207
G1 X116.493 Y155.48 E8.77545
G1 X116.437 Y154.699 E8.79545
G1 X116.426 Y154.376 E8.80371
G1 X116.42 Y154.019 E8.81283
G1 X116.421 Y137.594 E9.23239
G1 X116.431 Y136.896 E9.25022
G1 X116.484 Y135.982 E9.27361
G1 X116.617 Y135.076 E9.297
G1 X116.828 Y134.185 E9.32038
G1 X117.116 Y133.317 E9.34375
G1 X117.479 Y132.476 E9.36714
G1 X117.914 Y131.671 E9.39052
G1 X118.632 Y130.619 E9.42305
G1 X119.121 Y129.992 E9.44336
G1 X120.056 Y128.833 E9.4814
G1 X121.6 Y126.805 E9.54651
G1 X123.078 Y124.745 E9.61127
G1 X124.486 Y122.66 E9.67554
G1 X125.847 Y120.516 E9.7404
G1 X127.146 Y118.336 E9.80523
G1 X128.378 Y116.131 E9.86974
G1 X129.559 Y113.868 E9.93495
G1 X130.649 Y111.628 E9.99858
G1 X131.235 Y110.331 E10.03494
G1 X131.661 Y109.412 E10.06081
G1 X131.889 Y108.947 E10.07404
G1 X132.126 Y108.492 E10.08714
G1 X132.357 Y108.074 E10.09934
G1 X132.603 Y107.653 E10.1118
G1 X132.833 Y107.279 E10.12301
G1 X133.081 Y106.895 E10.13469
G1 X133.349 Y106.499 E10.1469
G1 X133.658 Y106.066 E10.16049
G1 X133.921 Y105.717 E10.17166
G1 X134.23 Y105.327 E10.18437
G1 X134.549 Y104.943 E10.19712
G1 X134.85 Y104.597 E10.20883
G1 X135.135 Y104.283 E10.21966
G1 X135.485 Y103.916 E10.23262
G1 X135.706 Y103.695 E10.2406
G1 X136.38 Y103.076 E10.26398
G1 X137.107 Y102.519 E10.28737
G1 X137.879 Y102.027 E10.31075
G1 X138.691 Y101.605 E10.33413
G1 X139.537 Y101.255 E10.35752
G1 X140.456 Y100.968 E10.38211
G1 X140.978 Y100.831 E10.3959
G1 X141.588 Y100.691 E10.41188
G1 X141.994 Y100.61 E10.42246
G1 X142.347 Y100.545 E10.43163
G1 X142.737 Y100.481 E10.44172
G1 X143.052 Y100.435 E10.44985
G1 X143.691 Y100.35 E10.46632
G1 X144.035 Y100.31 E10.47517
G1 X144.688 Y100.245 E10.49193
G1 X145.032 Y100.216 E10.50075
G1 X145.749 Y100.173 E10.51909
G1 X147.045 Y100.131 E10.55222
G1 X147.472 Y100.128 E10.56312
G1 X152.787 Y100.129 E10.69889
G1 X153.987 Y100.161 E10.72955
G0 F6000 X153.997 Y99.841
G1 F1200 X154.365 Y99.859 E10.73896
G1 X155.105 Y99.907 E10.75791
G1 X155.481 Y99.938 E10.76754
G1 X156.287 Y100.023 E10.78824
G1 X156.883 Y100.101 E10.8036
G1 X157.237 Y100.154 E10.81274
G1 X157.741 Y100.237 E10.82579
G1 X158.068 Y100.296 E10.83428
G1 X158.755 Y100.431 E10.85216
G1 X159.456 Y100.591 E10.87053
G1 X160.347 Y100.855 E10.89427
G1 X161.212 Y101.195 E10.91801
G1 X162.045 Y101.608 E10.94176
G1 X162.839 Y102.09 E10.96548
G1 X163.589 Y102.64 E10.98924
G1 X164.416 Y103.375 E11.0175
G1 X164.75 Y103.704 E11.02948
G1 X165.252 Y104.233 E11.04811
G1 X165.62 Y104.648 E11.06227
G1 X166.005 Y105.107 E11.07758
G1 X166.306 Y105.487 E11.08996
G1 X166.625 Y105.911 E11.10351
G1 X166.881 Y106.269 E11.11476
G1 X167.157 Y106.674 E11.12727
G1 X167.397 Y107.044 E11.13854
G1 X167.67 Y107.487 E11.15183
G1 X167.918 Y107.913 E11.16442
G1 X168.159 Y108.35 E11.17717
G1 X168.374 Y108.762 E11.18904
G1 X168.599 Y109.22 E11.20208
G1 X168.775 Y109.6 E11.21277
G1 X168.953 Y110.006 E11.2241
G1 X169.139 Y110.455 E11.23651
G1 X169.348 Y111 E11.25142
G1 X169.497 Y111.423 E11.26288
G1 X169.635 Y111.843 E11.27417
G1 X169.766 Y112.27 E11.28558
G1 X169.913 Y112.797 E11.29955
G1 X170.029 Y113.257 E11.31167
G1 X170.133 Y113.709 E11.32352
G1 X170.222 Y114.139 E11.33474
G1 X170.323 Y114.704 E11.3494
G1 X170.396 Y115.184 E11.3618
G1 X170.454 Y115.623 E11.37311
G1 X170.503 Y116.067 E11.38452
G1 X170.548 Y116.59 E11.39793
G1 X170.565 Y116.867 E11.40502
G1 X170.585 Y117.453 E11.42
G1 X170.592 Y118.448 E11.44541
G1 X170.569 Y119.225 E11.46527
G1 X170.542 Y119.64 E11.47589
G1 X170.426 Y120.666 E11.50227
G1 X170.333 Y121.23 E11.51687
G1 X170.021 Y122.979 E11.56225
G1 X169.643 Y125.503 E11.62744
G1 X169.342 Y127.997 E11.69161
G1 X169.111 Y130.503 E11.75589
G1 X168.949 Y133.033 E11.82065
G1 X168.862 Y135.522 E11.88427
G1 X168.843 Y138.067 E11.94928
G1 X168.897 Y140.597 E12.01392
G1 X169.022 Y143.129 E12.07868
G1 X169.216 Y145.615 E12.14237
G1 X169.485 Y148.136 E12.20713
G1 X170.008 Y151.94 E12.30521
G1 X170.062 Y152.409 E12.31727
G1 X170.085 Y152.656 E12.32361
G1 X170.125 Y153.256 E12.33897
G1 X170.163 Y154.278 E12.36509
G1 X170.158 Y155.184 E12.38824
G1 X170.134 Y155.697 E12.40136
G1 X170.095 Y156.245 E12.41539
G1 X170.052 Y156.684 E12.42666
G1 X169.987 Y157.212 E12.44025
G1 X169.921 Y157.658 E12.45176
G1 X169.838 Y158.139 E12.46423
G1 X169.753 Y158.576 E12.4756
G1 X169.638 Y159.099 E12.48928
G1 X169.531 Y159.533 E12.5007
G1 X169.407 Y159.993 E12.51287
G1 X169.283 Y160.415 E12.5241
G1 X169.103 Y160.972 E12.53906
G1 X168.953 Y161.396 E12.55054
G1 X168.792 Y161.821 E12.56215
G1 X168.62 Y162.249 E12.57394
G1 X168.388 Y162.785 E12.58885
G1 X168.202 Y163.184 E12.6001
G1 X168.006 Y163.581 E12.61141
G1 X167.809 Y163.962 E12.62237
G1 X167.538 Y164.456 E12.63676
