;FLAVOR:Marlin
;TIME:2757
;Filament used: 1.13511m
;Layer height: 0.16
;MINX:124.214
;MINY:132.213
;MINZ:0.16
;MAXX:175.784
;MAXY:187.456
;MAXZ:20.56
;Generated with Cura_SteamEngine 4.6.1
M140 S60
M105
M190 S60
M104 S220
M105
M109 S220
M82 ;absolute extrusion mode
M201 X500.00 Y500.00 Z100.00 E5000.00 ;Setup machine max acceleration
M203 X500.00 Y500.00 Z10.00 E50.00 ;Setup machine max feedrate
M204 P500.00 R1000.00 T500.00 ;Setup Print/Retract/Travel acceleration
M205 X8.00 Y8.00 Z0.40 E5.00 ;Setup Jerk
M220 S100 ;Reset Feedrate
M221 S100 ;Reset Flowrate

G28 ;Home

G92 E0 ;Reset Extruder
G1 Z2.0 F3000 ;Move Z Axis up
G1 X10.1 Y20 Z0.28 F5000.0 ;Move to start position
G1 X10.1 Y200.0 Z0.28 F1500.0 E15 ;Draw the first line
G1 X10.4 Y200.0 Z0.28 F5000.0 ;Move to side a little
G1 X10.4 Y20 Z0.28 F1500.0 E30 ;Draw the second line
G92 E0 ;Reset Extruder
G1 Z2.0 F3000 ;Move Z Axis up

G92 E0
G92 E0
G1 F2700 E-5
;LAYER_COUNT:118
;LAYER:0
M107
G0 F6000 X159.03 Y132.885 Z0.16
;TYPE:SKIRT
G1 F2700 E0
G1 F1200 X159.531 Y132.923 E0.01283
G1 X160.152 Y132.989 E0.02879
G1 X160.594 Y133.05 E0.04018
G1 X161.22 Y133.157 E0.05641
G1 X161.561 Y133.226 E0.06529
G1 X162.138 Y133.36 E0.08042
G1 X162.57 Y133.474 E0.09184
G1 X163.197 Y133.661 E0.10855
G1 X163.673 Y133.82 E0.12137
G1 X164.255 Y134.035 E0.13722
G1 X164.607 Y134.177 E0.14691
G1 X165.176 Y134.427 E0.16279
G1 X165.558 Y134.609 E0.1736
G1 X166.1 Y134.888 E0.18917
G1 X166.482 Y135.099 E0.20032
G1 X167.028 Y135.422 E0.21652
G1 X167.397 Y135.657 E0.22769
G1 X167.932 Y136.023 E0.24425
G1 X168.266 Y136.267 E0.25482
G1 X168.758 Y136.65 E0.27075
G1 X169.127 Y136.956 E0.28299
G1 X169.586 Y137.36 E0.29861
G1 X169.837 Y137.595 E0.30739
G1 X170.282 Y138.039 E0.32345
G1 X170.667 Y138.447 E0.33778
G1 X171.08 Y138.912 E0.35367
G1 X171.251 Y139.117 E0.36048
G1 X171.649 Y139.626 E0.37699
G1 X171.987 Y140.088 E0.39161
G1 X172.32 Y140.572 E0.40662
G1 X172.51 Y140.866 E0.41556
G1 X172.832 Y141.399 E0.43147
G1 X173.052 Y141.79 E0.44293
G1 X173.357 Y142.376 E0.4598
G1 X173.548 Y142.774 E0.47108
G1 X173.786 Y143.31 E0.48606
G1 X173.924 Y143.646 E0.49534
G1 X174.154 Y144.26 E0.51208
G1 X174.331 Y144.785 E0.52624
G1 X174.503 Y145.352 E0.54137
G1 X174.582 Y145.641 E0.54902
G1 X174.735 Y146.278 E0.56576
G1 X174.846 Y146.819 E0.57987
G1 X174.95 Y147.419 E0.59542
G1 X174.992 Y147.712 E0.60298
G1 X175.063 Y148.35 E0.61938
G1 X175.11 Y148.942 E0.63455
G1 X175.138 Y149.469 E0.64803
G1 X175.144 Y149.689 E0.65365
G1 X175.14 Y150.371 E0.67107
G1 X175.117 Y150.947 E0.6858
G1 X175.071 Y151.592 E0.70231
G1 X175.031 Y151.977 E0.7122
G1 X174.944 Y152.614 E0.72862
G1 X174.863 Y153.095 E0.74108
G1 X174.744 Y153.69 E0.75658
G1 X174.667 Y154.024 E0.76534
G1 X174.519 Y154.594 E0.78038
G1 X174.395 Y155.018 E0.79167
G1 X174.187 Y155.65 E0.80866
G1 X174.018 Y156.113 E0.82125
G1 X173.782 Y156.701 E0.83744
G1 X173.628 Y157.053 E0.84725
G1 X173.365 Y157.608 E0.86294
G1 X172.716 Y158.875 E0.8993
G1 X172.216 Y159.814 E0.92647
G1 X171.086 Y162.091 E0.99141
G1 X170.014 Y164.412 E1.05671
G1 X169.027 Y166.718 E1.12078
G1 X168.072 Y169.131 E1.18707
G1 X167.226 Y171.469 E1.25058
G1 X166.424 Y173.898 E1.31592
G1 X165.703 Y176.303 E1.38006
G1 X165.106 Y178.55 E1.43945
G1 X164.888 Y179.342 E1.46043
G1 X164.61 Y180.2 E1.48347
G1 X164.258 Y181.029 E1.50647
G1 X163.833 Y181.824 E1.5295
G1 X163.34 Y182.579 E1.55253
G1 X162.782 Y183.286 E1.57554
G1 X162.163 Y183.942 E1.59858
G1 X161.488 Y184.54 E1.62161
G1 X160.764 Y185.076 E1.64462
G1 X159.994 Y185.545 E1.66765
G1 X159.186 Y185.945 E1.69068
G1 X158.346 Y186.271 E1.7137
G1 X157.48 Y186.521 E1.73673
G1 X156.596 Y186.694 E1.75973
G1 X155.407 Y186.801 E1.79023
G1 X154.77 Y186.816 E1.8065
G1 X145.461 Y186.815 E2.04429
G1 X144.763 Y186.805 E2.06212
G1 X143.864 Y186.752 E2.08513
G1 X142.972 Y186.62 E2.10816
G1 X142.096 Y186.409 E2.13118
G1 X141.242 Y186.121 E2.1542
G1 X140.416 Y185.759 E2.17723
G1 X139.626 Y185.325 E2.20026
G1 X138.878 Y184.822 E2.22328
G1 X138.177 Y184.256 E2.2463
G1 X137.529 Y183.629 E2.26933
G1 X136.939 Y182.948 E2.29235
G1 X136.412 Y182.216 E2.31539
G1 X135.952 Y181.441 E2.33841
G1 X135.562 Y180.629 E2.36142
G1 X135.246 Y179.785 E2.38444
G1 X135.084 Y179.232 E2.39916
G1 X134.834 Y178.282 E2.42425
G1 X134.131 Y175.74 E2.49162
G1 X133.385 Y173.31 E2.55655
G1 X132.57 Y170.903 E2.62146
G1 X131.69 Y168.526 E2.68621
G1 X130.742 Y166.175 E2.75096
G1 X129.728 Y163.85 E2.81575
G1 X128.232 Y160.709 E2.90462
G1 X126.647 Y157.637 E2.99292
G1 X126.481 Y157.293 E3.00268
G1 X126.253 Y156.785 E3.0169
G1 X126.083 Y156.377 E3.02819
G1 X125.833 Y155.713 E3.04631
G1 X125.675 Y155.244 E3.05895
G1 X125.496 Y154.654 E3.0747
G1 X125.404 Y154.314 E3.0837
G1 X125.261 Y153.714 E3.09946
G1 X125.164 Y153.244 E3.11171
G1 X125.059 Y152.645 E3.12725
G1 X125.002 Y152.251 E3.13742
G1 X124.933 Y151.645 E3.153
G1 X124.894 Y151.18 E3.16492
G1 X124.861 Y150.581 E3.18024
G1 X124.854 Y150.297 E3.1875
G1 X124.86 Y149.613 E3.20497
G1 X124.889 Y148.935 E3.2223
G1 X124.939 Y148.278 E3.23914
G1 X124.974 Y147.954 E3.24746
G1 X125.046 Y147.419 E3.26125
G1 X125.1 Y147.086 E3.26987
G1 X125.238 Y146.39 E3.28799
G1 X125.384 Y145.768 E3.30431
G1 X125.543 Y145.171 E3.32009
G1 X125.609 Y144.951 E3.32596
G1 X125.791 Y144.403 E3.34071
G1 X125.95 Y143.965 E3.35261
G1 X126.205 Y143.33 E3.37009
G1 X126.438 Y142.802 E3.38483
G1 X126.709 Y142.235 E3.40088
G1 X126.843 Y141.976 E3.40833
G1 X127.139 Y141.444 E3.42388
G1 X127.372 Y141.053 E3.43551
G1 X127.705 Y140.531 E3.45133
G1 X127.977 Y140.132 E3.46366
G1 X128.34 Y139.633 E3.47942
G1 X128.56 Y139.349 E3.4886
G1 X128.943 Y138.884 E3.50399
G1 X129.242 Y138.542 E3.51559
G1 X129.684 Y138.068 E3.53215
G1 X129.996 Y137.754 E3.54345
G1 X130.483 Y137.295 E3.56055
G1 X130.813 Y137.004 E3.57179
G1 X131.269 Y136.625 E3.58693
G1 X131.587 Y136.376 E3.59725
G1 X132.093 Y136.004 E3.61329
G1 X132.487 Y135.733 E3.62551
G1 X133.052 Y135.371 E3.64265
G1 X133.39 Y135.17 E3.65269
G1 X133.902 Y134.885 E3.66766
G1 X134.295 Y134.681 E3.67897
G1 X134.854 Y134.413 E3.69481
G1 X135.219 Y134.251 E3.70501
G1 X135.8 Y134.014 E3.72104
G1 X136.233 Y133.853 E3.73284
G1 X136.798 Y133.662 E3.74807
G1 X137.144 Y133.556 E3.75731
G1 X137.741 Y133.392 E3.77313
G1 X138.26 Y133.267 E3.78677
G1 X138.938 Y133.128 E3.80444
G1 X139.309 Y133.065 E3.81406
G1 X139.898 Y132.983 E3.82925
G1 X140.334 Y132.935 E3.84045
G1 X140.936 Y132.887 E3.85588
G1 X141.354 Y132.866 E3.86657
G1 X141.94 Y132.853 E3.88154
G1 X142.341 Y132.856 E3.89178
G1 X143.028 Y132.885 E3.90935
G1 X143.201 Y132.898 E3.91378
G1 X145.772 Y133.054 E3.97957
G1 X148.35 Y133.138 E4.04546
G1 X150.881 Y133.147 E4.11011
G1 X153.374 Y133.087 E4.17381
G1 X156.196 Y132.922 E4.24602
G1 X157.373 Y132.865 E4.27612
G1 X157.941 Y132.853 E4.29063
G1 X158.339 Y132.856 E4.3008
G1 X159.03 Y132.885 E4.31846
G0 F6000 X159.055 Y132.566
G1 F1200 X159.556 Y132.604 E4.3313
G1 X160.196 Y132.672 E4.34774
G1 X160.638 Y132.733 E4.35914
G1 X161.283 Y132.843 E4.37585
G1 X161.624 Y132.912 E4.38474
G1 X162.22 Y133.051 E4.40037
G1 X162.652 Y133.165 E4.41178
G1 X163.298 Y133.358 E4.429
G1 X163.774 Y133.517 E4.44182
G1 X164.375 Y133.738 E4.45818
G1 X164.727 Y133.88 E4.46788
G1 X165.314 Y134.138 E4.48425
G1 X165.696 Y134.32 E4.49506
G1 X166.255 Y134.607 E4.51111
G1 X166.637 Y134.818 E4.52226
G1 X167.2 Y135.152 E4.53898
G1 X167.569 Y135.387 E4.55016
G1 X168.121 Y135.765 E4.56725
G1 X168.455 Y136.009 E4.57781
G1 X168.963 Y136.404 E4.59425
G1 X169.332 Y136.71 E4.60649
G1 X169.805 Y137.127 E4.6226
G1 X170.056 Y137.362 E4.63138
G1 X170.515 Y137.819 E4.64793
G1 X170.9 Y138.227 E4.66226
G1 X171.326 Y138.707 E4.67865
G1 X171.497 Y138.912 E4.68547
G1 X171.907 Y139.437 E4.70249
G1 X172.245 Y139.899 E4.71711
G1 X172.589 Y140.399 E4.73261
G1 X172.779 Y140.693 E4.74155
G1 X173.11 Y141.242 E4.75793
G1 X173.33 Y141.633 E4.76939
G1 X173.645 Y142.238 E4.78681
G1 X173.836 Y142.636 E4.79809
G1 X174.082 Y143.188 E4.81353
G1 X174.22 Y143.524 E4.8228
G1 X174.457 Y144.158 E4.84009
G1 X174.634 Y144.683 E4.85425
G1 X174.812 Y145.268 E4.86986
G1 X174.891 Y145.557 E4.87752
G1 X175.048 Y146.214 E4.89477
G1 X175.159 Y146.755 E4.90888
G1 X175.267 Y147.374 E4.92493
G1 X175.309 Y147.667 E4.93249
G1 X175.382 Y148.325 E4.9494
G1 X175.429 Y148.917 E4.96457
G1 X175.458 Y149.46 E4.97846
G1 X175.464 Y149.68 E4.98408
G1 X175.46 Y150.384 E5.00207
G1 X175.437 Y150.96 E5.01679
G1 X175.389 Y151.625 E5.03382
G1 X175.349 Y152.01 E5.04371
G1 X175.259 Y152.667 E5.06065
G1 X175.178 Y153.148 E5.07311
G1 X175.056 Y153.762 E5.0891
G1 X174.979 Y154.096 E5.09785
G1 X174.826 Y154.684 E5.11337
G1 X174.702 Y155.108 E5.12466
G1 X174.488 Y155.759 E5.14216
G1 X174.319 Y156.222 E5.15475
G1 X174.075 Y156.83 E5.17149
G1 X173.921 Y157.182 E5.1813
G1 X173.65 Y157.754 E5.19747
G1 X172.998 Y159.025 E5.23396
G1 X172.506 Y159.949 E5.2607
G1 X171.369 Y162.239 E5.32601
G1 X170.311 Y164.529 E5.39044
G1 X169.318 Y166.849 E5.4549
G1 X168.378 Y169.227 E5.52022
G1 X167.531 Y171.567 E5.58379
G1 X166.72 Y174.022 E5.64983
G1 X166.012 Y176.385 E5.71284
G1 X165.414 Y178.635 E5.77231
G1 X165.196 Y179.427 E5.79329
G1 X164.915 Y180.298 E5.81667
G1 X164.559 Y181.142 E5.84007
G1 X164.13 Y181.951 E5.86346
G1 X163.633 Y182.719 E5.88683
G1 X163.07 Y183.441 E5.91022
G1 X162.447 Y184.112 E5.9336
G1 X161.767 Y184.725 E5.95699
G1 X161.037 Y185.277 E5.98037
G1 X160.261 Y185.763 E6.00376
G1 X159.446 Y186.179 E6.02713
G1 X158.597 Y186.522 E6.05052
G1 X157.722 Y186.791 E6.0739
G1 X156.827 Y186.981 E6.09727
G1 X155.918 Y187.093 E6.12067
G1 X155.417 Y187.121 E6.13349
G1 X155.095 Y187.131 E6.14171
G1 X154.77 Y187.136 E6.15002
G1 X145.457 Y187.135 E6.38791
G1 X144.759 Y187.125 E6.40574
G1 X143.845 Y187.072 E6.42912
G1 X142.939 Y186.939 E6.45252
G1 X142.048 Y186.728 E6.4759
G1 X141.18 Y186.44 E6.49926
G1 X140.339 Y186.077 E6.52266
G1 X139.534 Y185.642 E6.54604
G1 X138.769 Y185.139 E6.56942
G1 X138.051 Y184.571 E6.59281
G1 X137.386 Y183.942 E6.61619
G1 X136.778 Y183.258 E6.63957
G1 X136.232 Y182.523 E6.66295
G1 X135.752 Y181.743 E6.68635
G1 X135.342 Y180.925 E6.70972
G1 X135.005 Y180.074 E6.7331
G1 X134.774 Y179.313 E6.75342
G1 X134.526 Y178.371 E6.7783
G1 X133.82 Y175.817 E6.84598
G1 X133.08 Y173.406 E6.91041
G1 X132.267 Y171.005 E6.97516
G1 X131.393 Y168.644 E7.03946
G1 X130.444 Y166.291 E7.10427
G1 X129.438 Y163.986 E7.16852
G1 X127.945 Y160.85 E7.25724
G1 X126.358 Y157.776 E7.3456
G1 X126.192 Y157.432 E7.35536
G1 X125.957 Y156.908 E7.37003
G1 X125.787 Y156.5 E7.38132
G1 X125.529 Y155.815 E7.40002
G1 X125.371 Y155.346 E7.41266
G1 X125.187 Y154.737 E7.42891
G1 X125.095 Y154.397 E7.43791
G1 X124.947 Y153.778 E7.45416
G1 X124.85 Y153.308 E7.46642
G1 X124.742 Y152.691 E7.48242
G1 X124.685 Y152.297 E7.49259
G1 X124.614 Y151.672 E7.50866
G1 X124.575 Y151.207 E7.52058
G1 X124.541 Y150.589 E7.53639
G1 X124.534 Y150.305 E7.54365
G1 X124.541 Y149.599 E7.56168
G1 X124.57 Y148.921 E7.57902
G1 X124.621 Y148.243 E7.59638
G1 X124.656 Y147.919 E7.60471
G1 X124.73 Y147.367 E7.61893
G1 X124.784 Y147.034 E7.62755
G1 X124.926 Y146.317 E7.64622
G1 X125.072 Y145.695 E7.66254
G1 X125.237 Y145.079 E7.67883
G1 X125.303 Y144.859 E7.6847
G1 X125.49 Y144.294 E7.6999
G1 X125.649 Y143.856 E7.7118
G1 X125.912 Y143.201 E7.72983
G1 X126.145 Y142.673 E7.74457
G1 X126.425 Y142.088 E7.76114
G1 X126.559 Y141.829 E7.76859
G1 X126.864 Y141.28 E7.78463
G1 X127.097 Y140.889 E7.79626
G1 X127.441 Y140.351 E7.81257
G1 X127.713 Y139.952 E7.82491
G1 X128.087 Y139.437 E7.84116
G1 X128.307 Y139.153 E7.85034
G1 X128.702 Y138.673 E7.86622
G1 X129.001 Y138.331 E7.87782
G1 X129.457 Y137.842 E7.8949
G1 X129.769 Y137.528 E7.90621
G1 X130.272 Y137.055 E7.92385
G1 X130.602 Y136.764 E7.93508
G1 X131.072 Y136.373 E7.9507
G1 X131.39 Y136.124 E7.96102
G1 X131.912 Y135.74 E7.97757
G1 X132.306 Y135.469 E7.98979
G1 X132.888 Y135.096 E8.00744
G1 X133.226 Y134.895 E8.01749
G1 X133.755 Y134.601 E8.03295
G1 X134.148 Y134.397 E8.04426
G1 X134.725 Y134.12 E8.06061
G1 X135.09 Y133.958 E8.07081
G1 X135.689 Y133.714 E8.08733
G1 X136.122 Y133.553 E8.09913
G1 X136.704 Y133.356 E8.11483
G1 X137.05 Y133.25 E8.12407
G1 X137.666 Y133.081 E8.14039
G1 X138.185 Y132.956 E8.15402
G1 X138.884 Y132.813 E8.17225
G1 X139.255 Y132.75 E8.18186
G1 X139.863 Y132.665 E8.19754
G1 X140.299 Y132.617 E8.20875
G1 X140.92 Y132.567 E8.22466
G1 X141.338 Y132.546 E8.23535
G1 X141.942 Y132.533 E8.25078
G1 X142.343 Y132.536 E8.26103
G1 X143.178 Y132.575 E8.28238
G1 X145.836 Y132.736 E8.3504
G1 X148.327 Y132.818 E8.41406
G1 X150.874 Y132.827 E8.47912
G1 X153.377 Y132.766 E8.54308
G1 X156.18 Y132.602 E8.6148
G1 X157.357 Y132.545 E8.6449
G1 X157.943 Y132.533 E8.65987
G1 X158.341 Y132.536 E8.67004
G1 X159.055 Y132.566 E8.68829
G0 F6000 X159.079 Y132.247
G1 F1200 X159.58 Y132.285 E8.70113
G1 X160.24 Y132.355 E8.71808
G1 X160.682 Y132.416 E8.72948
G1 X161.347 Y132.53 E8.74671
G1 X161.688 Y132.599 E8.7556
G1 X162.302 Y132.741 E8.7717
G1 X162.734 Y132.855 E8.78311
G1 X163.4 Y133.054 E8.80086
G1 X163.876 Y133.213 E8.81368
G1 X164.494 Y133.441 E8.83051
G1 X164.846 Y133.583 E8.8402
G1 X165.451 Y133.849 E8.85709
G1 X165.833 Y134.031 E8.8679
G1 X166.41 Y134.327 E8.88446
G1 X166.792 Y134.538 E8.89561
G1 X167.371 Y134.882 E8.91281
G1 X167.74 Y135.117 E8.92399
G1 X168.31 Y135.506 E8.94161
G1 X168.644 Y135.75 E8.95218
G1 X169.167 Y136.158 E8.96912
G1 X169.536 Y136.464 E8.98137
G1 X170.023 Y136.893 E8.99795
G1 X170.274 Y137.128 E9.00673
G1 X170.748 Y137.6 E9.02382
G1 X171.133 Y138.008 E9.03814
G1 X171.571 Y138.502 E9.05501
G1 X171.742 Y138.707 E9.06183
G1 X172.165 Y139.248 E9.07937
G1 X172.503 Y139.71 E9.09399
G1 X172.858 Y140.225 E9.10997
G1 X173.048 Y140.519 E9.11891
G1 X173.389 Y141.085 E9.13579
G1 X173.609 Y141.476 E9.14725
G1 X173.934 Y142.099 E9.1652
G1 X174.125 Y142.497 E9.17648
G1 X174.378 Y143.067 E9.19241
G1 X174.516 Y143.403 E9.20168
G1 X174.76 Y144.056 E9.21949
G1 X174.937 Y144.581 E9.23364
G1 X175.121 Y145.183 E9.24972
G1 X175.2 Y145.472 E9.25738
G1 X175.362 Y146.149 E9.27516
G1 X175.473 Y146.69 E9.28926
G1 X175.584 Y147.329 E9.30583
G1 X175.626 Y147.622 E9.31339
G1 X175.701 Y148.299 E9.33079
G1 X175.748 Y148.891 E9.34596
G1 X175.778 Y149.452 E9.36031
G1 X175.784 Y149.672 E9.36593
G1 X175.779 Y150.397 E9.38445
G1 X175.756 Y150.973 E9.39918
G1 X175.707 Y151.658 E9.41672
G1 X175.667 Y152.043 E9.42661
G1 X175.575 Y152.72 E9.44406
G1 X175.494 Y153.201 E9.45652
G1 X175.368 Y153.834 E9.473
G1 X175.291 Y154.168 E9.48176
G1 X175.133 Y154.774 E9.49776
G1 X175.009 Y155.198 E9.50904
G1 X174.788 Y155.869 E9.52709
G1 X174.619 Y156.332 E9.53968
G1 X174.368 Y156.958 E9.5569
G1 X174.214 Y157.31 E9.56672
G1 X173.935 Y157.9 E9.58339
G1 X173.281 Y159.176 E9.62002
G1 X172.782 Y160.114 E9.64715
G1 X171.661 Y162.372 E9.71155
G1 X170.61 Y164.646 E9.77554
G1 X169.611 Y166.98 E9.84039
G1 X168.668 Y169.363 E9.90585
G1 X167.837 Y171.663 E9.96832
G1 X167.031 Y174.102 E10.03394
G1 X166.313 Y176.495 E10.09776
G1 X165.723 Y178.72 E10.15655
G1 X165.505 Y179.512 E10.17754
G1 X165.22 Y180.397 E10.20129
G1 X164.86 Y181.253 E10.22501
G1 X164.428 Y182.076 E10.24875
G1 X163.926 Y182.859 E10.27251
G1 X163.359 Y183.595 E10.29624
G1 X162.731 Y184.28 E10.31998
G1 X162.047 Y184.908 E10.3437
G1 X161.311 Y185.476 E10.36745
G1 X160.529 Y185.978 E10.39118
G1 X159.706 Y186.411 E10.41494
G1 X158.85 Y186.771 E10.43866
G1 X157.966 Y187.057 E10.46239
G1 X157.06 Y187.265 E10.48614
G1 X156.14 Y187.395 E10.50987
G1 X155.427 Y187.441 E10.52812
G1 X155.105 Y187.451 E10.53635
G1 X154.77 Y187.456 E10.54491
G1 X145.452 Y187.455 E10.78292
G1 X144.754 Y187.445 E10.80076
G1 X143.827 Y187.392 E10.82447
G1 X142.907 Y187.259 E10.84822
G1 X142.002 Y187.047 E10.87196
G1 X141.118 Y186.759 E10.89571
G1 X140.263 Y186.396 E10.91944
G1 X139.442 Y185.96 E10.94318
G1 X138.662 Y185.456 E10.9669
G1 X137.927 Y184.886 E10.99066
G1 X137.245 Y184.255 E11.0144
G1 X136.619 Y183.568 E11.03814
G1 X136.055 Y182.83 E11.06186
G1 X135.556 Y182.046 E11.0856
G1 X135.126 Y181.222 E11.10934
G1 X134.769 Y180.364 E11.13308
G1 X134.465 Y179.395 E11.15902
G1 X134.214 Y178.44 E11.18425
G1 X133.519 Y175.928 E11.25082
G1 X132.771 Y173.49 E11.31596
G1 X131.967 Y171.118 E11.37994
