;FLAVOR:Marlin
;TIME:1128
;Filament used: 0.540437m
;Layer height: 0.16
;MINX:124.214
;MINY:132.213
;MINZ:0.16
;MAXX:175.784
;MAXY:167.788
;MAXZ:7.84
;Generated with Cura_SteamEngine 4.6.1
M140 S60
M105
M190 S60
M104 S220
M105
M109 S220
M82 ;absolute extrusion mode
M201 X500.00 Y500.00 Z100.00 E5000.00 ;Setup machine max acceleration
M203 X500.00 Y500.00 Z10.00 E50.00 ;Setup machine max feedrate
M204 P500.00 R1000.00 T500.00 ;Setup Print/Retract/Travel acceleration
M205 X8.00 Y8.00 Z0.40 E5.00 ;Setup Jerk
M220 S100 ;Reset Feedrate
M221 S100 ;Reset Flowrate

G28 ;Home

G92 E0 ;Reset Extruder
G1 Z2.0 F3000 ;Move Z Axis up
G1 X10.1 Y20 Z0.28 F5000.0 ;Move to start position
G1 X10.1 Y200.0 Z0.28 F1500.0 E15 ;Draw the first line
G1 X10.4 Y200.0 Z0.28 F5000.0 ;Move to side a little
G1 X10.4 Y20 Z0.28 F1500.0 E30 ;Draw the second line
G92 E0 ;Reset Extruder
G1 Z2.0 F3000 ;Move Z Axis up

G92 E0
G92 E0
G1 F2700 E-5
;LAYER_COUNT:41
;LAYER:0
M107
G0 F6000 X159.03 Y132.885 Z0.16
;TYPE:SKIRT
G1 F2700 E0
G1 F1200 X159.531 Y132.923 E0.01283
G1 X160.152 Y132.989 E0.02879
G1 X160.594 Y133.05 E0.04018
G1 X161.22 Y133.157 E0.05641
G1 X161.561 Y133.226 E0.06529
G1 X162.138 Y133.36 E0.08042
G1 X162.57 Y133.474 E0.09184
G1 X163.197 Y133.661 E0.10855
G1 X163.673 Y133.82 E0.12137
G1 X164.255 Y134.035 E0.13722
G1 X164.607 Y134.177 E0.14691
G1 X165.176 Y134.427 E0.16279
G1 X165.558 Y134.609 E0.1736
G1 X166.1 Y134.888 E0.18917
G1 X166.482 Y135.099 E0.20032
G1 X167.028 Y135.422 E0.21652
G1 X167.397 Y135.657 E0.22769
G1 X167.932 Y136.023 E0.24425
G1 X168.266 Y136.267 E0.25482
G1 X168.758 Y136.65 E0.27075
G1 X169.127 Y136.956 E0.28299
G1 X169.586 Y137.36 E0.29861
G1 X169.837 Y137.595 E0.30739
G1 X170.282 Y138.039 E0.32345
G1 X170.667 Y138.447 E0.33778
G1 X171.08 Y138.912 E0.35367
G1 X171.251 Y139.117 E0.36048
G1 X171.649 Y139.626 E0.37699
G1 X171.987 Y140.088 E0.39161
G1 X172.32 Y140.572 E0.40662
G1 X172.51 Y140.866 E0.41556
G1 X172.832 Y141.399 E0.43147
G1 X173.052 Y141.79 E0.44293
G1 X173.357 Y142.376 E0.4598
G1 X173.548 Y142.774 E0.47108
G1 X173.786 Y143.31 E0.48606
G1 X173.924 Y143.646 E0.49534
G1 X174.154 Y144.26 E0.51208
G1 X174.331 Y144.785 E0.52624
G1 X174.503 Y145.352 E0.54137
G1 X174.582 Y145.641 E0.54902
G1 X174.735 Y146.278 E0.56576
G1 X174.846 Y146.819 E0.57987
G1 X174.95 Y147.419 E0.59542
G1 X174.992 Y147.712 E0.60298
G1 X175.063 Y148.35 E0.61938
G1 X175.11 Y148.942 E0.63455
G1 X175.138 Y149.469 E0.64803
G1 X175.144 Y149.689 E0.65365
G1 X175.14 Y150.371 E0.67107
G1 X175.117 Y150.947 E0.6858
G1 X175.071 Y151.592 E0.70231
G1 X175.031 Y151.977 E0.7122
G1 X174.944 Y152.614 E0.72862
G1 X174.863 Y153.095 E0.74108
G1 X174.744 Y153.69 E0.75658
G1 X174.667 Y154.024 E0.76534
G1 X174.519 Y154.594 E0.78038
G1 X174.395 Y155.018 E0.79167
G1 X174.187 Y155.65 E0.80866
G1 X174.018 Y156.113 E0.82125
G1 X173.782 Y156.701 E0.83744
G1 X173.628 Y157.053 E0.84725
G1 X173.378 Y157.583 E0.86222
G1 X173.188 Y157.957 E0.87293
G1 X172.859 Y158.553 E0.89032
G1 X172.622 Y158.951 E0.90216
G1 X172.286 Y159.479 E0.91814
G1 X172.022 Y159.866 E0.93011
G1 X171.661 Y160.362 E0.94578
G1 X171.441 Y160.646 E0.95496
G1 X171.093 Y161.071 E0.96899
G1 X170.824 Y161.382 E0.97949
G1 X170.346 Y161.898 E0.99746
G1 X170.011 Y162.235 E1.0096
G1 X169.528 Y162.69 E1.02655
G1 X169.145 Y163.028 E1.03959
G1 X168.696 Y163.401 E1.0545
G1 X168.454 Y163.591 E1.06236
G1 X168.003 Y163.926 E1.07671
G1 X167.657 Y164.168 E1.0875
G1 X167.053 Y164.559 E1.10588
G1 X166.572 Y164.847 E1.1202
G1 X166.021 Y165.154 E1.13631
G1 X165.702 Y165.319 E1.14548
G1 X165.186 Y165.568 E1.16012
G1 X164.813 Y165.735 E1.17056
G1 X164.183 Y165.992 E1.18794
G1 X163.742 Y166.155 E1.19995
G1 X163.146 Y166.355 E1.21601
G1 X162.737 Y166.478 E1.22692
G1 X162.189 Y166.626 E1.24142
G1 X161.786 Y166.723 E1.252
G1 X161.104 Y166.863 E1.26979
G1 X160.655 Y166.939 E1.28142
G1 X160.075 Y167.019 E1.29638
G1 X159.677 Y167.063 E1.3066
G1 X159.039 Y167.114 E1.32295
G1 X158.551 Y167.137 E1.33543
G1 X158.033 Y167.148 E1.34867
G1 X157.779 Y167.147 E1.35516
G1 X157.078 Y167.12 E1.37307
G1 X156.646 Y167.088 E1.38414
G1 X154.087 Y166.938 E1.44962
G1 X151.541 Y166.86 E1.51468
G1 X149.006 Y166.853 E1.57944
G1 X146.459 Y166.919 E1.64452
G1 X143.67 Y167.084 E1.71589
G1 X142.555 Y167.137 E1.7444
G1 X142.033 Y167.148 E1.75774
G1 X141.777 Y167.147 E1.76427
G1 X141.075 Y167.12 E1.78222
G1 X140.474 Y167.076 E1.79761
G1 X139.805 Y167.004 E1.8148
G1 X139.363 Y166.942 E1.8262
G1 X138.848 Y166.857 E1.83953
G1 X138.589 Y166.807 E1.84627
G1 X137.928 Y166.656 E1.86359
G1 X137.404 Y166.518 E1.87743
G1 X136.759 Y166.325 E1.89463
G1 X136.309 Y166.174 E1.90676
G1 X135.753 Y165.969 E1.92189
G1 X135.422 Y165.836 E1.931
G1 X134.885 Y165.603 E1.94596
G1 X134.547 Y165.444 E1.9555
G1 X133.948 Y165.137 E1.97269
G1 X133.439 Y164.855 E1.98756
G1 X132.908 Y164.54 E2.00333
G1 X132.633 Y164.365 E2.01165
G1 X132.088 Y163.992 E2.02852
G1 X131.689 Y163.7 E2.04115
G1 X131.2 Y163.319 E2.05699
G1 X130.906 Y163.075 E2.06675
G1 X130.457 Y162.679 E2.08204
G1 X130.104 Y162.349 E2.09438
G1 X129.643 Y161.89 E2.111
G1 X129.403 Y161.635 E2.11994
G1 X129.032 Y161.218 E2.1342
G1 X128.722 Y160.85 E2.14649
G1 X128.29 Y160.3 E2.16436
G1 X128.059 Y159.984 E2.17436
G1 X127.724 Y159.496 E2.18947
G1 X127.464 Y159.093 E2.20173
G1 X127.143 Y158.56 E2.21762
G1 X126.938 Y158.195 E2.22831
G1 X126.64 Y157.624 E2.24476
G1 X126.475 Y157.281 E2.25449
G1 X126.253 Y156.785 E2.26837
G1 X126.083 Y156.377 E2.27966
G1 X125.833 Y155.713 E2.29778
G1 X125.675 Y155.244 E2.31042
G1 X125.496 Y154.654 E2.32617
G1 X125.404 Y154.314 E2.33517
G1 X125.261 Y153.714 E2.35093
G1 X125.164 Y153.244 E2.36318
G1 X125.059 Y152.645 E2.37872
G1 X125.002 Y152.251 E2.38889
G1 X124.933 Y151.645 E2.40447
G1 X124.894 Y151.18 E2.41639
G1 X124.861 Y150.581 E2.43171
G1 X124.854 Y150.297 E2.43897
G1 X124.86 Y149.613 E2.45644
G1 X124.889 Y148.935 E2.47377
G1 X124.939 Y148.278 E2.4906
G1 X124.974 Y147.954 E2.49893
G1 X125.046 Y147.419 E2.51272
G1 X125.1 Y147.086 E2.52134
G1 X125.238 Y146.39 E2.53946
G1 X125.384 Y145.768 E2.55578
G1 X125.543 Y145.171 E2.57156
G1 X125.609 Y144.951 E2.57743
G1 X125.791 Y144.403 E2.59218
G1 X125.95 Y143.965 E2.60408
G1 X126.205 Y143.33 E2.62156
G1 X126.438 Y142.802 E2.6363
G1 X126.709 Y142.235 E2.65235
G1 X126.843 Y141.976 E2.6598
G1 X127.139 Y141.444 E2.67535
G1 X127.372 Y141.053 E2.68698
G1 X127.705 Y140.531 E2.7028
G1 X127.977 Y140.132 E2.71513
G1 X128.34 Y139.633 E2.73089
G1 X128.56 Y139.349 E2.74007
G1 X128.943 Y138.884 E2.75546
G1 X129.242 Y138.542 E2.76706
G1 X129.684 Y138.068 E2.78362
G1 X129.996 Y137.754 E2.79492
G1 X130.483 Y137.295 E2.81202
G1 X130.813 Y137.004 E2.82326
G1 X131.269 Y136.625 E2.8384
G1 X131.587 Y136.376 E2.84872
G1 X132.093 Y136.004 E2.86476
G1 X132.487 Y135.733 E2.87698
G1 X133.052 Y135.371 E2.89412
G1 X133.39 Y135.17 E2.90416
G1 X133.902 Y134.885 E2.91913
G1 X134.295 Y134.681 E2.93044
G1 X134.854 Y134.413 E2.94628
G1 X135.219 Y134.251 E2.95648
G1 X135.8 Y134.014 E2.97251
G1 X136.233 Y133.853 E2.98431
G1 X136.798 Y133.662 E2.99954
G1 X137.144 Y133.556 E3.00878
G1 X137.741 Y133.392 E3.0246
G1 X138.26 Y133.267 E3.03823
G1 X138.938 Y133.128 E3.05591
G1 X139.309 Y133.065 E3.06553
G1 X139.898 Y132.983 E3.08072
G1 X140.334 Y132.935 E3.09192
G1 X140.936 Y132.887 E3.10735
G1 X141.354 Y132.866 E3.11804
G1 X141.94 Y132.853 E3.13301
G1 X142.341 Y132.856 E3.14325
G1 X143.028 Y132.885 E3.16082
G1 X143.201 Y132.898 E3.16525
G1 X145.772 Y133.054 E3.23104
G1 X148.35 Y133.138 E3.29693
G1 X150.881 Y133.147 E3.36158
G1 X153.374 Y133.087 E3.42528
G1 X156.196 Y132.922 E3.49749
G1 X157.373 Y132.865 E3.52759
G1 X157.941 Y132.853 E3.5421
G1 X158.339 Y132.856 E3.55227
G1 X159.03 Y132.885 E3.56993
G0 F6000 X159.055 Y132.566
G1 F1200 X159.556 Y132.604 E3.58277
G1 X160.196 Y132.672 E3.59921
G1 X160.638 Y132.733 E3.61061
G1 X161.283 Y132.843 E3.62732
G1 X161.624 Y132.912 E3.63621
G1 X162.22 Y133.051 E3.65184
G1 X162.652 Y133.165 E3.66325
G1 X163.298 Y133.358 E3.68047
G1 X163.774 Y133.517 E3.69329
G1 X164.375 Y133.738 E3.70965
G1 X164.727 Y133.88 E3.71934
G1 X165.314 Y134.138 E3.73572
G1 X165.696 Y134.32 E3.74653
G1 X166.255 Y134.607 E3.76258
G1 X166.637 Y134.818 E3.77373
G1 X167.2 Y135.152 E3.79045
G1 X167.569 Y135.387 E3.80163
G1 X168.121 Y135.765 E3.81872
G1 X168.455 Y136.009 E3.82928
G1 X168.963 Y136.404 E3.84572
G1 X169.332 Y136.71 E3.85796
G1 X169.805 Y137.127 E3.87407
G1 X170.056 Y137.362 E3.88285
G1 X170.515 Y137.819 E3.8994
G1 X170.9 Y138.227 E3.91373
G1 X171.326 Y138.707 E3.93012
G1 X171.497 Y138.912 E3.93694
G1 X171.907 Y139.437 E3.95396
G1 X172.245 Y139.899 E3.96858
G1 X172.589 Y140.399 E3.98408
G1 X172.779 Y140.693 E3.99302
G1 X173.11 Y141.242 E4.0094
G1 X173.33 Y141.633 E4.02086
G1 X173.645 Y142.238 E4.03828
G1 X173.836 Y142.636 E4.04956
G1 X174.082 Y143.188 E4.06499
G1 X174.22 Y143.524 E4.07427
G1 X174.457 Y144.158 E4.09156
G1 X174.634 Y144.683 E4.10571
G1 X174.812 Y145.268 E4.12133
G1 X174.891 Y145.557 E4.12899
G1 X175.048 Y146.214 E4.14624
G1 X175.159 Y146.755 E4.16035
G1 X175.267 Y147.374 E4.1764
G1 X175.309 Y147.667 E4.18396
G1 X175.382 Y148.325 E4.20087
G1 X175.429 Y148.917 E4.21604
G1 X175.458 Y149.46 E4.22993
G1 X175.464 Y149.68 E4.23555
G1 X175.46 Y150.384 E4.25354
G1 X175.437 Y150.96 E4.26826
G1 X175.389 Y151.625 E4.28529
G1 X175.349 Y152.01 E4.29518
G1 X175.259 Y152.667 E4.31212
G1 X175.178 Y153.148 E4.32458
G1 X175.056 Y153.762 E4.34057
G1 X174.979 Y154.096 E4.34932
G1 X174.826 Y154.684 E4.36484
G1 X174.702 Y155.108 E4.37613
G1 X174.488 Y155.759 E4.39363
G1 X174.319 Y156.222 E4.40622
G1 X174.075 Y156.83 E4.42296
G1 X173.921 Y157.182 E4.43277
G1 X173.663 Y157.728 E4.4482
G1 X173.473 Y158.102 E4.45891
G1 X173.134 Y158.717 E4.47685
G1 X172.897 Y159.115 E4.48868
G1 X172.55 Y159.659 E4.50516
G1 X172.286 Y160.046 E4.51713
G1 X171.914 Y160.558 E4.5333
G1 X171.694 Y160.842 E4.54247
G1 X171.335 Y161.28 E4.55694
G1 X171.066 Y161.591 E4.56744
G1 X170.573 Y162.123 E4.58597
G1 X170.238 Y162.46 E4.59811
G1 X169.739 Y162.93 E4.61562
G1 X169.356 Y163.268 E4.62867
G1 X168.894 Y163.653 E4.64403
G1 X168.652 Y163.843 E4.65189
G1 X168.187 Y164.188 E4.66668
G1 X167.841 Y164.43 E4.67746
G1 X167.218 Y164.833 E4.69642
G1 X166.737 Y165.121 E4.71074
G1 X166.168 Y165.439 E4.72739
G1 X165.849 Y165.604 E4.73656
G1 X165.316 Y165.86 E4.75166
G1 X164.943 Y166.027 E4.7621
G1 X164.294 Y166.292 E4.78001
G1 X163.853 Y166.455 E4.79202
G1 X163.238 Y166.661 E4.80859
G1 X162.829 Y166.784 E4.8195
G1 X162.263 Y166.937 E4.83447
G1 X161.86 Y167.034 E4.84506
G1 X161.157 Y167.178 E4.86339
G1 X160.708 Y167.254 E4.87502
G1 X160.111 Y167.338 E4.89042
G1 X159.713 Y167.382 E4.90065
G1 X159.054 Y167.433 E4.91754
G1 X158.566 Y167.456 E4.93001
G1 X158.032 Y167.468 E4.94366
G1 X157.778 Y167.467 E4.95015
G1 X157.055 Y167.439 E4.96863
G1 X156.677 Y167.411 E4.97831
G1 X154.057 Y167.257 E5.04535
G1 X151.532 Y167.18 E5.10988
G1 X149.013 Y167.173 E5.17422
G1 X146.484 Y167.239 E5.23885
G1 X143.686 Y167.403 E5.31044
G1 X142.571 Y167.456 E5.33895
G1 X142.032 Y167.468 E5.35273
G1 X141.776 Y167.467 E5.35926
G1 X141.052 Y167.439 E5.37777
G1 X140.451 Y167.395 E5.39316
G1 X139.76 Y167.321 E5.41092
G1 X139.318 Y167.259 E5.42232
G1 X138.788 Y167.171 E5.43604
G1 X138.529 Y167.121 E5.44278
G1 X137.846 Y166.965 E5.46067
G1 X137.322 Y166.827 E5.47452
G1 X136.657 Y166.629 E5.49224
G1 X136.207 Y166.478 E5.50436
G1 X135.634 Y166.266 E5.51997
G1 X135.303 Y166.133 E5.52908
G1 X134.749 Y165.892 E5.54451
G1 X134.411 Y165.733 E5.55406
G1 X133.793 Y165.417 E5.57179
G1 X133.284 Y165.135 E5.58665
G1 X132.737 Y164.81 E5.6029
G1 X132.462 Y164.635 E5.61123
G1 X131.899 Y164.25 E5.62865
G1 X131.5 Y163.958 E5.64128
G1 X130.996 Y163.565 E5.65761
G1 X130.702 Y163.321 E5.66737
G1 X130.238 Y162.913 E5.68315
G1 X129.885 Y162.583 E5.69549
G1 X129.41 Y162.11 E5.71261
G1 X129.17 Y161.855 E5.72156
G1 X128.787 Y161.424 E5.73629
G1 X128.477 Y161.056 E5.74858
G1 X128.032 Y160.489 E5.76699
G1 X127.801 Y160.173 E5.77699
G1 X127.455 Y159.669 E5.7926
G1 X127.195 Y159.266 E5.80485
G1 X126.864 Y158.717 E5.82123
G1 X126.659 Y158.352 E5.83192
G1 X126.352 Y157.763 E5.84889
G1 X126.187 Y157.42 E5.85861
G1 X125.957 Y156.908 E5.87295
G1 X125.787 Y156.5 E5.88424
G1 X125.529 Y155.815 E5.90294
G1 X125.371 Y155.346 E5.91558
G1 X125.187 Y154.737 E5.93183
G1 X125.095 Y154.397 E5.94083
G1 X124.947 Y153.778 E5.95708
G1 X124.85 Y153.308 E5.96934
G1 X124.742 Y152.691 E5.98534
G1 X124.685 Y152.297 E5.99551
G1 X124.614 Y151.672 E6.01158
G1 X124.575 Y151.207 E6.0235
G1 X124.541 Y150.589 E6.03931
G1 X124.534 Y150.305 E6.04657
G1 X124.541 Y149.599 E6.0646
G1 X124.57 Y148.921 E6.08194
G1 X124.621 Y148.243 E6.0993
G1 X124.656 Y147.919 E6.10763
G1 X124.73 Y147.367 E6.12185
G1 X124.784 Y147.034 E6.13047
G1 X124.926 Y146.317 E6.14914
G1 X125.072 Y145.695 E6.16546
G1 X125.237 Y145.079 E6.18175
G1 X125.303 Y144.859 E6.18762
G1 X125.49 Y144.294 E6.20282
G1 X125.649 Y143.856 E6.21472
G1 X125.912 Y143.201 E6.23275
G1 X126.145 Y142.673 E6.24749
G1 X126.425 Y142.088 E6.26406
G1 X126.559 Y141.829 E6.27151
G1 X126.864 Y141.28 E6.28755
G1 X127.097 Y140.889 E6.29918
G1 X127.441 Y140.351 E6.31549
G1 X127.713 Y139.952 E6.32782
G1 X128.087 Y139.437 E6.34408
G1 X128.307 Y139.153 E6.35326
G1 X128.702 Y138.673 E6.36914
G1 X129.001 Y138.331 E6.38074
G1 X129.457 Y137.842 E6.39782
G1 X129.769 Y137.528 E6.40913
G1 X130.272 Y137.055 E6.42677
G1 X130.602 Y136.764 E6.438
G1 X131.072 Y136.373 E6.45362
G1 X131.39 Y136.124 E6.46394
G1 X131.912 Y135.74 E6.48049
G1 X132.306 Y135.469 E6.49271
G1 X132.888 Y135.096 E6.51036
G1 X133.226 Y134.895 E6.52041
G1 X133.755 Y134.601 E6.53587
G1 X134.148 Y134.397 E6.54718
G1 X134.725 Y134.12 E6.56353
G1 X135.09 Y133.958 E6.57373
G1 X135.689 Y133.714 E6.59025
G1 X136.122 Y133.553 E6.60205
G1 X136.704 Y133.356 E6.61774
G1 X137.05 Y133.25 E6.62699
G1 X137.666 Y133.081 E6.6433
G1 X138.185 Y132.956 E6.65694
G1 X138.884 Y132.813 E6.67517
G1 X139.255 Y132.75 E6.68478
G1 X139.863 Y132.665 E6.70046
G1 X140.299 Y132.617 E6.71166
G1 X140.92 Y132.567 E6.72758
G1 X141.338 Y132.546 E6.73827
G1 X141.942 Y132.533 E6.7537
G1 X142.343 Y132.536 E6.76394
G1 X143.178 Y132.575 E6.7853
G1 X145.836 Y132.736 E6.85332
G1 X148.327 Y132.818 E6.91698
G1 X150.874 Y132.827 E6.98204
G1 X153.377 Y132.766 E7.046
G1 X156.18 Y132.602 E7.11772
G1 X157.357 Y132.545 E7.14782
G1 X157.943 Y132.533 E7.16279
G1 X158.341 Y132.536 E7.17296
G1 X159.055 Y132.566 E7.19121
G0 F6000 X159.079 Y132.247
G1 F1200 X159.58 Y132.285 E7.20405
G1 X160.24 Y132.355 E7.221
G1 X160.682 Y132.416 E7.2324
G1 X161.347 Y132.53 E7.24963
G1 X161.688 Y132.599 E7.25852
G1 X162.302 Y132.741 E7.27462
G1 X162.734 Y132.855 E7.28603
G1 X163.4 Y133.054 E7.30378
G1 X163.876 Y133.213 E7.3166
G1 X164.494 Y133.441 E7.33343
G1 X164.846 Y133.583 E7.34312
G1 X165.451 Y133.849 E7.36001
G1 X165.833 Y134.031 E7.37081
G1 X166.41 Y134.327 E7.38738
G1 X166.792 Y134.538 E7.39853
G1 X167.371 Y134.882 E7.41573
G1 X167.74 Y135.117 E7.42691
G1 X168.31 Y135.506 E7.44453
G1 X168.644 Y135.75 E7.4551
G1 X169.167 Y136.158 E7.47204
G1 X169.536 Y136.464 E7.48429
G1 X170.023 Y136.893 E7.50086
G1 X170.274 Y137.128 E7.50965
G1 X170.748 Y137.6 E7.52673
G1 X171.133 Y138.008 E7.54106
G1 X171.571 Y138.502 E7.55793
G1 X171.742 Y138.707 E7.56475
G1 X172.165 Y139.248 E7.58229
G1 X172.503 Y139.71 E7.59691
G1 X172.858 Y140.225 E7.61289
G1 X173.048 Y140.519 E7.62183
G1 X173.389 Y141.085 E7.63871
G1 X173.609 Y141.476 E7.65017
G1 X173.934 Y142.099 E7.66812
G1 X174.125 Y142.497 E7.6794
G1 X174.378 Y143.067 E7.69533
G1 X174.516 Y143.403 E7.7046
G1 X174.76 Y144.056 E7.72241
G1 X174.937 Y144.581 E7.73656
G1 X175.121 Y145.183 E7.75264
G1 X175.2 Y145.472 E7.76029
G1 X175.362 Y146.149 E7.77808
G1 X175.473 Y146.69 E7.79218
G1 X175.584 Y147.329 E7.80875
G1 X175.626 Y147.622 E7.81631
G1 X175.701 Y148.299 E7.83371
G1 X175.748 Y148.891 E7.84888
G1 X175.778 Y149.452 E7.86323
G1 X175.784 Y149.672 E7.86885
G1 X175.779 Y150.397 E7.88737
G1 X175.756 Y150.973 E7.9021
G1 X175.707 Y151.658 E7.91964
G1 X175.667 Y152.043 E7.92953
G1 X175.575 Y152.72 E7.94698
G1 X175.494 Y153.201 E7.95944
G1 X175.368 Y153.834 E7.97592
