;FLAVOR:Marlin
;TIME:10269
;Filament used: 6.1859m
;Layer height: 0.16
;MINX:56.948
;MINY:104.218
;MINZ:0.16
;MAXX:243.053
;MAXY:195.773
;MAXZ:48.84
;Generated with Cura_SteamEngine 4.6.1
M140 S60
M105
M190 S60
M104 S220
M105
M109 S220
M82 ;absolute extrusion mode
M201 X500.00 Y500.00 Z100.00 E5000.00 ;Setup machine max acceleration
M203 X500.00 Y500.00 Z10.00 E50.00 ;Setup machine max feedrate
M204 P500.00 R1000.00 T500.00 ;Setup Print/Retract/Travel acceleration
M205 X8.00 Y8.00 Z0.40 E5.00 ;Setup Jerk
M220 S100 ;Reset Feedrate
M221 S100 ;Reset Flowrate

G28 ;Home

G92 E0 ;Reset Extruder
G1 Z2.0 F3000 ;Move Z Axis up
G1 X10.1 Y20 Z0.28 F5000.0 ;Move to start position
G1 X10.1 Y200.0 Z0.28 F1500.0 E15 ;Draw the first line
G1 X10.4 Y200.0 Z0.28 F5000.0 ;Move to side a little
G1 X10.4 Y20 Z0.28 F1500.0 E30 ;Draw the second line
G92 E0 ;Reset Extruder
G1 Z2.0 F3000 ;Move Z Axis up

G92 E0
G92 E0
G1 F2700 E-5
;LAYER_COUNT:285
;LAYER:0
M107
G0 F6000 X81.235 Y104.869 Z0.16
;TYPE:SKIRT
G1 F2700 E0
G1 F1200 X82.134 Y104.922 E0.023
G1 X83.026 Y105.054 E0.04604
G1 X83.902 Y105.265 E0.06905
G1 X84.756 Y105.553 E0.09207
G1 X85.582 Y105.915 E0.11511
G1 X86.372 Y106.349 E0.13814
G1 X87.12 Y106.852 E0.16116
G1 X87.989 Y107.571 E0.18997
G1 X88.917 Y108.43 E0.22227
G1 X90.865 Y110.192 E0.28937
G1 X92.816 Y111.858 E0.3549
G1 X94.778 Y113.44 E0.41928
G1 X96.794 Y114.974 E0.48399
G1 X98.878 Y116.469 E0.5495
G1 X100.961 Y117.875 E0.6137
G1 X103.128 Y119.251 E0.67927
G1 X105.29 Y120.538 E0.74354
G1 X107.539 Y121.794 E0.80934
G1 X109.772 Y122.957 E0.87365
G1 X112.069 Y124.074 E0.93889
G1 X114.373 Y125.114 E1.00346
G1 X116.723 Y126.096 E1.06852
G1 X119.104 Y127.014 E1.1337
G1 X121.481 Y127.851 E1.19808
G1 X123.937 Y128.64 E1.26397
G1 X126.333 Y129.336 E1.3277
G1 X128.812 Y129.981 E1.39313
G1 X131.282 Y130.549 E1.45787
G1 X133.782 Y131.052 E1.52301
G1 X136.289 Y131.479 E1.58797
G1 X138.8 Y131.836 E1.65276
G1 X141.301 Y132.12 E1.71705
G1 X143.855 Y132.336 E1.78253
G1 X146.399 Y132.48 E1.84761
G1 X148.927 Y132.551 E1.91221
G1 X151.464 Y132.551 E1.97702
G1 X154.005 Y132.478 E2.04195
G1 X156.57 Y132.333 E2.10758
G1 X159.055 Y132.121 E2.17128
G1 X161.628 Y131.828 E2.23743
G1 X164.099 Y131.476 E2.30119
G1 X166.635 Y131.041 E2.36691
G1 X169.08 Y130.55 E2.43061
G1 X171.583 Y129.974 E2.49622
G1 X174.054 Y129.33 E2.56145
G1 X176.482 Y128.624 E2.62604
G1 X178.925 Y127.838 E2.69159
G1 X181.29 Y127.003 E2.75566
G1 X183.655 Y126.091 E2.8204
G1 X186.021 Y125.103 E2.8859
G1 X188.333 Y124.058 E2.95071
G1 X190.618 Y122.946 E3.01562
G1 X192.881 Y121.765 E3.08082
G1 X195.086 Y120.534 E3.14533
G1 X197.261 Y119.237 E3.21002
G1 X199.42 Y117.866 E3.27535
G1 X201.524 Y116.445 E3.3402
G1 X203.604 Y114.953 E3.40559
G1 X205.608 Y113.426 E3.46994
G1 X207.572 Y111.842 E3.53439
G1 X209.506 Y110.188 E3.5994
G1 X212.369 Y107.564 E3.6986
G1 X213.059 Y106.985 E3.72161
G1 X213.799 Y106.469 E3.74465
G1 X214.581 Y106.022 E3.76766
G1 X215.4 Y105.645 E3.79069
G1 X216.249 Y105.342 E3.81372
G1 X217.121 Y105.116 E3.83673
G1 X218.01 Y104.968 E3.85975
G1 X218.941 Y104.898 E3.8836
G1 X220.277 Y104.864 E3.91773
G1 X231.704 Y104.865 E4.20962
G1 X232.399 Y104.875 E4.22738
G1 X233.299 Y104.928 E4.25041
G1 X234.19 Y105.06 E4.27341
G1 X235.067 Y105.271 E4.29646
G1 X235.921 Y105.559 E4.31948
G1 X236.746 Y105.922 E4.3425
G1 X237.536 Y106.356 E4.36552
G1 X238.284 Y106.858 E4.38854
G1 X238.985 Y107.425 E4.41157
G1 X239.633 Y108.051 E4.43458
G1 X240.223 Y108.733 E4.45762
G1 X240.75 Y109.464 E4.48063
G1 X241.21 Y110.239 E4.50366
G1 X241.6 Y111.052 E4.52669
G1 X241.916 Y111.896 E4.54971
G1 X242.156 Y112.765 E4.57274
G1 X242.318 Y113.651 E4.59574
G1 X242.401 Y114.549 E4.61878
G1 X242.404 Y115.45 E4.6418
G1 X242.289 Y116.618 E4.67178
G1 X242.18 Y117.298 E4.68937
G1 X241.942 Y118.627 E4.72385
G1 X241.619 Y120.292 E4.76718
G1 X241.385 Y121.407 E4.79628
G1 X241.047 Y122.913 E4.83571
G1 X240.758 Y124.112 E4.86721
G1 X240.361 Y125.658 E4.90798
G1 X240.069 Y126.729 E4.93634
G1 X239.603 Y128.343 E4.97925
G1 X239.284 Y129.393 E5.00728
G1 X238.763 Y131.019 E5.05089
G1 X238.415 Y132.049 E5.07867
G1 X237.872 Y133.585 E5.12028
G1 X237.453 Y134.714 E5.15104
G1 X236.897 Y136.147 E5.1903
G1 X236.442 Y137.274 E5.22135
G1 X235.818 Y138.75 E5.26228
G1 X235.358 Y139.795 E5.29145
G1 X234.686 Y141.264 E5.33271
G1 X234.191 Y142.305 E5.36216
G1 X233.474 Y143.758 E5.40354
G1 X232.948 Y144.785 E5.43302
G1 X232.176 Y146.238 E5.47505
G1 X231.611 Y147.263 E5.50494
G1 X230.826 Y148.637 E5.54537
G1 X230.271 Y149.579 E5.57329
G1 X229.39 Y151.024 E5.61652
G1 X228.776 Y151.998 E5.64593
G1 X227.901 Y153.342 E5.6869
G1 X227.234 Y154.335 E5.71746
G1 X226.319 Y155.65 E5.75838
G1 X225.676 Y156.546 E5.78655
G1 X224.661 Y157.919 E5.83016
G1 X224.008 Y158.776 E5.85768
G1 X222.974 Y160.089 E5.90037
G1 X222.276 Y160.95 E5.92869
G1 X221.211 Y162.225 E5.97112
G1 X220.449 Y163.11 E6.00095
G1 X219.389 Y164.303 E6.04172
G1 X218.626 Y165.137 E6.07059
G1 X217.494 Y166.34 E6.11279
G1 X216.735 Y167.124 E6.14066
G1 X215.52 Y168.339 E6.18455
G1 X214.734 Y169.103 E6.21255
G1 X213.539 Y170.228 E6.25447
G1 X212.684 Y171.011 E6.28409
G1 X211.499 Y172.063 E6.32456
G1 X210.622 Y172.82 E6.35416
G1 X209.345 Y173.888 E6.39668
G1 X208.468 Y174.599 E6.42552
G1 X207.191 Y175.604 E6.46703
G1 X206.266 Y176.309 E6.49674
G1 X204.992 Y177.252 E6.53723
G1 X204.056 Y177.924 E6.56666
G1 X202.694 Y178.872 E6.60905
G1 X201.763 Y179.499 E6.63772
G1 X200.399 Y180.39 E6.67934
G1 X199.405 Y181.017 E6.70936
G1 X198.035 Y181.852 E6.75034
G1 X197.045 Y182.437 E6.77971
G1 X195.637 Y183.241 E6.82113
G1 X194.671 Y183.773 E6.8493
G1 X193.146 Y184.585 E6.89343
G1 X192.179 Y185.08 E6.92118
G1 X190.732 Y185.796 E6.96242
G1 X189.602 Y186.333 E6.99438
G1 X188.094 Y187.022 E7.03673
G1 X187.072 Y187.47 E7.06523
G1 X185.577 Y188.102 E7.10669
G1 X184.532 Y188.524 E7.13548
G1 X183.057 Y189.096 E7.17589
G1 X181.948 Y189.507 E7.2061
G1 X180.441 Y190.04 E7.24693
G1 X179.35 Y190.408 E7.27634
G1 X177.78 Y190.912 E7.31846
G1 X176.766 Y191.221 E7.34554
G1 X175.121 Y191.696 E7.38927
G1 X174.098 Y191.975 E7.41636
G1 X172.481 Y192.391 E7.45901
G1 X171.325 Y192.669 E7.48938
G1 X169.757 Y193.023 E7.53044
G1 X168.669 Y193.253 E7.55885
G1 X167.096 Y193.558 E7.59978
G1 X165.923 Y193.769 E7.63022
G1 X164.34 Y194.029 E7.6712
G1 X163.181 Y194.201 E7.70113
G1 X161.584 Y194.414 E7.74228
G1 X160.417 Y194.552 E7.7723
G1 X158.742 Y194.725 E7.81531
G1 X157.663 Y194.819 E7.84298
G1 X155.99 Y194.942 E7.88583
G1 X154.93 Y195.004 E7.91295
G1 X153.2 Y195.08 E7.95718
G1 X152.116 Y195.11 E7.98488
G1 X150.502 Y195.133 E8.02612
G1 X149.374 Y195.132 E8.05493
G1 X147.69 Y195.105 E8.09795
G1 X146.594 Y195.071 E8.12596
G1 X144.968 Y194.998 E8.16754
G1 X143.808 Y194.929 E8.19722
G1 X142.195 Y194.808 E8.23854
G1 X141.062 Y194.705 E8.2676
G1 X139.346 Y194.525 E8.31167
G1 X138.222 Y194.389 E8.34059
G1 X136.691 Y194.182 E8.38006
G1 X135.528 Y194.007 E8.4101
G1 X134.004 Y193.756 E8.44955
G1 X132.829 Y193.544 E8.48005
G1 X131.178 Y193.22 E8.52303
G1 X130.101 Y192.991 E8.55115
G1 X128.42 Y192.61 E8.59518
G1 X127.382 Y192.357 E8.62247
G1 X125.848 Y191.961 E8.66294
G1 X124.648 Y191.63 E8.69474
G1 X123.118 Y191.186 E8.73543
G1 X121.996 Y190.841 E8.76542
G1 X120.472 Y190.349 E8.80632
G1 X119.387 Y189.98 E8.8356
G1 X117.805 Y189.417 E8.87849
G1 X116.849 Y189.059 E8.90457
G1 X115.262 Y188.44 E8.94808
G1 X114.214 Y188.014 E8.97697
G1 X112.665 Y187.356 E9.01996
G1 X111.689 Y186.923 E9.04724
G1 X110.102 Y186.194 E9.09185
G1 X109.104 Y185.715 E9.12013
G1 X107.742 Y185.04 E9.15895
G1 X106.638 Y184.471 E9.19068
G1 X105.235 Y183.722 E9.2313
G1 X104.215 Y183.157 E9.26109
G1 X102.818 Y182.357 E9.30221
G1 X101.837 Y181.775 E9.33135
G1 X100.42 Y180.906 E9.37381
G1 X99.513 Y180.33 E9.40125
G1 X98.068 Y179.385 E9.44536
G1 X97.18 Y178.784 E9.47275
G1 X95.822 Y177.837 E9.51504
G1 X94.875 Y177.155 E9.54485
G1 X93.603 Y176.211 E9.58531
G1 X92.694 Y175.514 E9.61457
G1 X91.381 Y174.477 E9.6573
G1 X90.489 Y173.75 E9.6867
G1 X89.288 Y172.742 E9.72675
G1 X88.36 Y171.938 E9.75811
G1 X87.22 Y170.922 E9.79712
G1 X86.311 Y170.087 E9.82865
G1 X85.187 Y169.024 E9.86817
G1 X84.369 Y168.228 E9.89732
G1 X83.142 Y166.996 E9.94174
G1 X82.378 Y166.204 E9.96985
G1 X81.292 Y165.048 E10.01036
G1 X80.511 Y164.191 E10.03998
G1 X79.411 Y162.947 E10.0824
G1 X78.716 Y162.136 E10.10968
G1 X77.623 Y160.827 E10.15324
G1 X76.933 Y159.972 E10.1813
G1 X75.903 Y158.658 E10.22395
G1 X75.184 Y157.711 E10.25432
G1 X74.278 Y156.483 E10.2933
G1 X73.61 Y155.549 E10.32264
G1 X72.642 Y154.15 E10.36609
G1 X72.021 Y153.223 E10.39459
G1 X71.134 Y151.857 E10.4362
G1 X70.517 Y150.873 E10.46586
G1 X69.682 Y149.501 E10.50689
G1 X69.113 Y148.528 E10.53568
G1 X68.288 Y147.078 E10.5783
G1 X67.763 Y146.121 E10.60618
G1 X66.975 Y144.635 E10.64914
G1 X66.477 Y143.657 E10.67718
G1 X65.725 Y142.127 E10.72073
G1 X65.253 Y141.132 E10.74886
G1 X64.596 Y139.69 E10.78933
G1 X64.121 Y138.606 E10.81956
G1 X63.469 Y137.054 E10.86256
G1 X63.05 Y136.01 E10.8913
G1 X62.495 Y134.574 E10.93063
G1 X62.084 Y133.461 E10.96093
G1 X61.525 Y131.871 E11.00398
G1 X61.174 Y130.822 E11.03224
G1 X60.687 Y129.302 E11.07301
G1 X60.353 Y128.195 E11.10255
G1 X59.891 Y126.586 E11.14531
G1 X59.587 Y125.46 E11.1751
G1 X59.203 Y123.947 E11.21497
G1 X58.945 Y122.869 E11.24329
G1 X58.569 Y121.187 E11.28731
G1 X58.344 Y120.105 E11.31554
G1 X58.035 Y118.496 E11.35739
G1 X57.826 Y117.321 E11.38788
G1 X57.718 Y116.656 E11.40509
G1 X57.614 Y115.76 E11.42813
G1 X57.588 Y114.86 E11.45113
G1 X57.643 Y113.96 E11.47416
G1 X57.778 Y113.069 E11.49718
G1 X57.99 Y112.193 E11.5202
G1 X58.28 Y111.339 E11.54324
G1 X58.644 Y110.515 E11.56625
G1 X59.08 Y109.726 E11.58927
G1 X59.584 Y108.978 E11.61231
G1 X60.152 Y108.279 E11.63532
G1 X60.78 Y107.632 E11.65835
G1 X61.463 Y107.044 E11.68137
G1 X62.195 Y106.518 E11.7044
G1 X62.971 Y106.06 E11.72741
G1 X63.784 Y105.672 E11.75043
G1 X64.629 Y105.357 E11.77346
G1 X65.498 Y105.119 E11.79648
G1 X66.385 Y104.959 E11.8195
G1 X67.563 Y104.869 E11.84968
G1 X68.244 Y104.858 E11.86708
G1 X80.537 Y104.859 E12.18108
G1 X81.235 Y104.869 E12.19892
G0 F6000 X81.239 Y104.549
G1 F1200 X82.153 Y104.602 E12.2223
G1 X83.059 Y104.735 E12.24569
G1 X83.95 Y104.946 E12.26908
G1 X84.818 Y105.234 E12.29244
G1 X85.659 Y105.597 E12.31584
G1 X86.464 Y106.032 E12.33921
G1 X87.229 Y106.535 E12.3626
G1 X88.207 Y107.336 E12.39489
G1 X89.121 Y108.182 E12.4267
G1 X91.079 Y109.953 E12.49414
G1 X93.037 Y111.625 E12.55991
G1 X94.964 Y113.179 E12.62315
G1 X97.005 Y114.732 E12.68866
G1 X99.034 Y116.187 E12.75243
G1 X101.151 Y117.617 E12.81769
G1 X103.294 Y118.977 E12.88252
G1 X105.481 Y120.28 E12.94755
G1 X107.657 Y121.494 E13.0112
G1 X109.917 Y122.672 E13.0763
G1 X112.211 Y123.787 E13.14145
G1 X114.515 Y124.827 E13.20603
G1 X116.818 Y125.79 E13.26979
G1 X119.224 Y126.717 E13.33565
G1 X121.605 Y127.556 E13.40014
G1 X123.98 Y128.318 E13.46385
G1 X126.434 Y129.031 E13.52912
G1 X128.904 Y129.674 E13.59432
G1 X131.34 Y130.234 E13.65817
G1 X133.869 Y130.742 E13.72406
G1 X136.312 Y131.159 E13.78737
G1 X138.846 Y131.519 E13.85274
G1 X141.328 Y131.801 E13.91655
G1 X143.9 Y132.019 E13.98248
G1 X146.391 Y132.16 E14.04622
G1 X148.936 Y132.231 E14.11125
G1 X151.455 Y132.231 E14.1756
G1 X154.013 Y132.158 E14.24096
G1 X156.525 Y132.015 E14.30523
G1 X159.027 Y131.802 E14.36937
G1 X161.582 Y131.511 E14.43506
G1 X164.07 Y131.157 E14.49925
G1 X166.56 Y130.73 E14.56379
G1 X169.008 Y130.238 E14.62757
G1 X171.532 Y129.657 E14.69373
G1 X173.962 Y129.024 E14.75787
G1 X176.396 Y128.316 E14.82262
G1 X178.801 Y127.542 E14.88716
G1 X181.2 Y126.695 E14.95214
G1 X183.53 Y125.797 E15.01593
G1 X185.867 Y124.821 E15.08062
G1 X188.204 Y123.764 E15.14614
G1 X190.474 Y122.661 E15.2106
G1 X192.721 Y121.488 E15.27535
G1 X194.936 Y120.25 E15.34017
G1 X197.095 Y118.964 E15.40436
G1 X199.255 Y117.592 E15.46972
G1 X201.328 Y116.192 E15.53362
G1 X203.409 Y114.698 E15.59906
G1 X205.422 Y113.165 E15.66369
G1 X207.371 Y111.593 E15.72765
G1 X209.277 Y109.962 E15.79173
G1 X212.152 Y107.328 E15.89133
G1 X212.854 Y106.739 E15.91474
G1 X213.604 Y106.214 E15.93812
G1 X214.396 Y105.757 E15.96148
G1 X215.226 Y105.37 E15.98487
G1 X216.087 Y105.057 E16.00827
G1 X216.971 Y104.821 E16.03164
G1 X217.873 Y104.663 E16.05504
G1 X218.932 Y104.578 E16.08217
G1 X220.277 Y104.544 E16.11654
G1 X231.709 Y104.545 E16.40856
G1 X232.404 Y104.555 E16.42631
G1 X233.318 Y104.608 E16.4497
G1 X234.223 Y104.741 E16.47306
G1 X235.114 Y104.952 E16.49645
G1 X235.983 Y105.24 E16.51984
G1 X236.823 Y105.603 E16.54321
G1 X237.629 Y106.038 E16.56661
G1 X238.394 Y106.541 E16.58999
G1 X239.111 Y107.11 E16.61338
G1 X239.777 Y107.738 E16.63676
G1 X240.385 Y108.423 E16.66015
G1 X240.93 Y109.158 E16.68353
G1 X241.41 Y109.937 E16.7069
G1 X241.82 Y110.756 E16.73029
G1 X242.157 Y111.607 E16.75367
G1 X242.418 Y112.484 E16.77705
G1 X242.602 Y113.381 E16.80044
G1 X242.707 Y114.291 E16.82384
G1 X242.732 Y115.206 E16.84722
G1 X242.677 Y116.119 E16.87058
G1 X242.605 Y116.667 E16.8847
G1 X242.495 Y117.354 E16.90247
G1 X242.257 Y118.687 E16.93706
G1 X241.933 Y120.358 E16.98054
G1 X241.697 Y121.477 E17.00975
G1 X241.358 Y122.988 E17.04931
G1 X241.068 Y124.191 E17.08092
G1 X240.67 Y125.742 E17.12182
G1 X240.376 Y126.818 E17.15031
G1 X239.91 Y128.436 E17.19332
G1 X239.589 Y129.491 E17.22149
G1 X239.066 Y131.121 E17.26522
G1 X238.717 Y132.155 E17.29309
G1 X238.172 Y133.696 E17.33485
G1 X237.752 Y134.83 E17.36573
G1 X237.194 Y136.267 E17.40511
G1 X236.737 Y137.398 E17.43627
G1 X236.111 Y138.878 E17.47732
G1 X235.649 Y139.928 E17.50662
G1 X234.975 Y141.401 E17.548
G1 X234.478 Y142.447 E17.57758
G1 X233.759 Y143.904 E17.61908
G1 X233.231 Y144.935 E17.64867
G1 X232.457 Y146.392 E17.69081
G1 X231.889 Y147.422 E17.72086
G1 X231.102 Y148.799 E17.76137
G1 X230.544 Y149.745 E17.78943
G1 X229.661 Y151.194 E17.83277
G1 X229.044 Y152.173 E17.86233
G1 X228.167 Y153.52 E17.90339
G1 X227.496 Y154.518 E17.93411
G1 X226.579 Y155.837 E17.97514
G1 X225.933 Y156.736 E18.00342
G1 X224.916 Y158.113 E18.04715
G1 X224.259 Y158.973 E18.07479
G1 X223.223 Y160.29 E18.11759
G1 X222.522 Y161.155 E18.14603
G1 X221.453 Y162.434 E18.18861
G1 X220.688 Y163.322 E18.21855
G1 X219.626 Y164.519 E18.25943
G1 X218.859 Y165.356 E18.28843
G1 X217.724 Y166.563 E18.33075
G1 X216.961 Y167.35 E18.35875
G1 X215.743 Y168.568 E18.40275
G1 X214.953 Y169.335 E18.43087
G1 X213.756 Y170.464 E18.4729
G1 X212.897 Y171.25 E18.50265
G1 X211.708 Y172.306 E18.54327
G1 X210.828 Y173.065 E18.57295
G1 X209.547 Y174.136 E18.6156
G1 X208.666 Y174.85 E18.64457
G1 X207.385 Y175.858 E18.68621
G1 X206.457 Y176.566 E18.71602
G1 X205.179 Y177.512 E18.75664
G1 X204.239 Y178.187 E18.7862
G1 X202.873 Y179.137 E18.8287
G1 X201.938 Y179.767 E18.8575
G1 X200.57 Y180.66 E18.89923
G1 X199.572 Y181.29 E18.92938
G1 X198.198 Y182.128 E18.97048
G1 X197.204 Y182.715 E18.99997
G1 X195.792 Y183.521 E19.0415
G1 X194.822 Y184.055 E19.06979
G1 X193.292 Y184.87 E19.11407
G1 X192.321 Y185.366 E19.14192
G1 X190.869 Y186.085 E19.18331
G1 X189.735 Y186.624 E19.21538
G1 X188.223 Y187.315 E19.25784
G1 X187.197 Y187.765 E19.28646
G1 X185.697 Y188.398 E19.32805
G1 X184.648 Y188.822 E19.35695
G1 X183.169 Y189.396 E19.39748
G1 X182.055 Y189.808 E19.42781
G1 X180.544 Y190.344 E19.46877
G1 X179.448 Y190.713 E19.49831
G1 X177.873 Y191.218 E19.54056
G1 X176.855 Y191.528 E19.56774
G1 X175.205 Y192.005 E19.61161
G1 X174.178 Y192.285 E19.6388
G1 X172.556 Y192.702 E19.68158
G1 X171.395 Y192.981 E19.71208
G1 X169.824 Y193.336 E19.75322
G1 X168.73 Y193.567 E19.78179
G1 X167.153 Y193.873 E19.82282
G1 X165.975 Y194.085 E19.85339
G1 X164.387 Y194.345 E19.8945
G1 X163.223 Y194.518 E19.92456
G1 X161.622 Y194.732 E19.96582
G1 X160.451 Y194.87 E19.99593
G1 X158.77 Y195.043 E20.0391
G1 X157.686 Y195.138 E20.0669
G1 X156.009 Y195.262 E20.10985
G1 X154.945 Y195.324 E20.13707
G1 X153.209 Y195.4 E20.18146
G1 X152.121 Y195.43 E20.20926
G1 X150.502 Y195.453 E20.25062
G1 X149.369 Y195.452 E20.27956
G1 X147.681 Y195.425 E20.32269
G1 X146.58 Y195.391 E20.35082
G1 X144.95 Y195.317 E20.3925
G1 X143.784 Y195.248 E20.42234
G1 X142.167 Y195.126 E20.46376
