;FLAVOR:Marlin
;TIME:1728
;Filament used: 0.728899m
;Layer height: 0.16
;MINX:122.368
;MINY:133.139
;MINZ:0.16
;MAXX:177.632
;MAXY:166.861
;MAXZ:18.24
;Generated with Cura_SteamEngine 4.6.1
M140 S60
M105
M190 S60
M104 S220
M105
M109 S220
M82 ;absolute extrusion mode
M201 X500.00 Y500.00 Z100.00 E5000.00 ;Setup machine max acceleration
M203 X500.00 Y500.00 Z10.00 E50.00 ;Setup machine max feedrate
M204 P500.00 R1000.00 T500.00 ;Setup Print/Retract/Travel acceleration
M205 X8.00 Y8.00 Z0.40 E5.00 ;Setup Jerk
M220 S100 ;Reset Feedrate
M221 S100 ;Reset Flowrate

G28 ;Home

G92 E0 ;Reset Extruder
G1 Z2.0 F3000 ;Move Z Axis up
G1 X10.1 Y20 Z0.28 F5000.0 ;Move to start position
G1 X10.1 Y200.0 Z0.28 F1500.0 E15 ;Draw the first line
G1 X10.4 Y200.0 Z0.28 F5000.0 ;Move to side a little
G1 X10.4 Y20 Z0.28 F1500.0 E30 ;Draw the second line
G92 E0 ;Reset Extruder
G1 Z2.0 F3000 ;Move Z Axis up

G92 E0
G92 E0
G1 F2700 E-5
;LAYER_COUNT:113
;LAYER:0
M107
G0 F6000 X163.131 Y133.793 Z0.16
;TYPE:SKIRT
G1 F2700 E0
G1 F1200 X164.03 Y133.847 E0.02301
G1 X165.319 Y134.066 E0.0564
G1 X165.627 Y134.139 E0.06449
G1 X166.494 Y134.385 E0.08751
G1 X167.336 Y134.708 E0.11055
G1 X168.524 Y135.32 E0.14468
G1 X168.828 Y135.503 E0.15374
G1 X169.579 Y136.002 E0.17678
G1 X170.282 Y136.565 E0.19978
G1 X170.933 Y137.189 E0.22282
G1 X171.426 Y137.743 E0.24176
G1 X171.605 Y137.96 E0.24895
G1 X172.147 Y138.68 E0.27197
G1 X172.48 Y139.2 E0.28774
G1 X172.937 Y139.963 E0.31046
G1 X175.269 Y144.012 E0.42981
G1 X175.604 Y144.612 E0.44737
G1 X176.008 Y145.418 E0.4704
G1 X176.339 Y146.256 E0.49341
G1 X176.491 Y146.734 E0.50622
G1 X176.576 Y147.027 E0.51402
G1 X176.788 Y147.903 E0.53704
G1 X176.953 Y149.144 E0.56902
G1 X176.968 Y149.357 E0.57447
G1 X176.991 Y150.258 E0.59749
G1 X176.935 Y151.158 E0.62053
G1 X176.799 Y152.049 E0.64355
G1 X176.698 Y152.502 E0.65541
G1 X176.63 Y152.778 E0.66267
G1 X176.376 Y153.642 E0.68567
G1 X175.933 Y154.725 E0.71556
G1 X175.795 Y155.014 E0.72374
G1 X175.431 Y155.707 E0.74373
G1 X172.86 Y160.169 E0.87528
G1 X172.508 Y160.759 E0.89283
G1 X171.916 Y161.642 E0.91998
G1 X171.782 Y161.821 E0.92569
G1 X171.211 Y162.518 E0.94871
G1 X170.58 Y163.161 E0.97172
G1 X169.966 Y163.689 E0.99241
G1 X169.738 Y163.87 E0.99984
G1 X169.008 Y164.399 E1.02287
G1 X168.234 Y164.861 E1.0459
G1 X167.437 Y165.246 E1.06851
G1 X167.193 Y165.351 E1.07529
G1 X166.35 Y165.67 E1.09831
G1 X165.482 Y165.913 E1.12134
G1 X164.348 Y166.11 E1.15074
G1 X164.029 Y166.147 E1.15894
G1 X162.964 Y166.214 E1.1862
G1 X162.276 Y166.221 E1.20378
G1 X157.524 Y166.217 E1.32516
G1 X156.813 Y166.206 E1.34332
G1 X156.398 Y166.191 E1.35393
G1 X153.932 Y166.052 E1.41702
G1 X151.38 Y165.979 E1.48224
G1 X148.842 Y165.977 E1.54707
G1 X146.268 Y166.049 E1.61284
G1 X144.495 Y166.141 E1.65819
G1 X143.613 Y166.193 E1.68076
G1 X143.265 Y166.207 E1.68966
G1 X142.963 Y166.214 E1.69737
G1 X142.275 Y166.221 E1.71495
G1 X137.518 Y166.217 E1.83646
G1 X136.831 Y166.206 E1.85401
G1 X135.932 Y166.151 E1.87702
G1 X134.974 Y166.004 E1.90178
G1 X134.767 Y165.962 E1.90717
G1 X133.892 Y165.744 E1.93021
G1 X133.04 Y165.449 E1.95324
G1 X132.218 Y165.08 E1.97625
G1 X131.761 Y164.835 E1.9895
G1 X131.385 Y164.621 E2.00055
G1 X130.623 Y164.141 E2.02355
G1 X129.905 Y163.595 E2.04659
G1 X129.239 Y162.988 E2.06961
G1 X128.573 Y162.256 E2.09489
G1 X128.394 Y162.039 E2.10208
G1 X127.852 Y161.319 E2.1251
G1 X127.515 Y160.793 E2.14105
G1 X127.047 Y160.008 E2.1644
G1 X124.713 Y155.956 E2.28384
G1 X124.392 Y155.38 E2.30069
G1 X123.989 Y154.574 E2.32371
G1 X123.658 Y153.735 E2.34674
G1 X123.494 Y153.212 E2.36075
G1 X123.409 Y152.913 E2.36869
G1 X123.201 Y152.036 E2.39171
G1 X123.049 Y150.873 E2.42167
G1 X123.034 Y150.667 E2.42695
G1 X123.008 Y149.766 E2.44997
G1 X123.063 Y148.866 E2.473
G1 X123.197 Y147.975 E2.49602
G1 X123.302 Y147.498 E2.50849
G1 X123.37 Y147.222 E2.51575
G1 X123.624 Y146.358 E2.53876
G1 X124.075 Y145.258 E2.56913
G1 X124.217 Y144.962 E2.57751
G1 X124.517 Y144.384 E2.59415
G1 X124.784 Y143.911 E2.60802
G1 X127.108 Y139.886 E2.72674
G1 X127.387 Y139.415 E2.74073
G1 X127.835 Y138.723 E2.76178
G1 X128.087 Y138.367 E2.77292
G1 X128.64 Y137.655 E2.79595
G1 X129.254 Y136.995 E2.81898
G1 X130.264 Y136.124 E2.85305
G1 X130.463 Y135.974 E2.85941
G1 X131.207 Y135.464 E2.88245
G1 X131.992 Y135.021 E2.90548
G1 X132.563 Y134.754 E2.92158
G1 X132.807 Y134.649 E2.92836
G1 X133.65 Y134.33 E2.95139
G1 X134.518 Y134.087 E2.97441
G1 X135.652 Y133.89 E3.00381
G1 X135.971 Y133.853 E3.01202
G1 X137.036 Y133.786 E3.03927
G1 X137.724 Y133.779 E3.05685
G1 X142.476 Y133.783 E3.17823
G1 X143.187 Y133.794 E3.1964
G1 X143.602 Y133.809 E3.207
G1 X146.068 Y133.948 E3.2701
G1 X148.62 Y134.021 E3.33531
G1 X151.158 Y134.023 E3.40014
G1 X153.732 Y133.951 E3.46592
G1 X155.505 Y133.859 E3.51127
G1 X156.387 Y133.807 E3.53383
G1 X156.735 Y133.793 E3.54273
G1 X157.037 Y133.786 E3.55045
G1 X157.725 Y133.779 E3.56802
G1 X162.326 Y133.782 E3.68555
G1 X163.131 Y133.793 E3.70611
G0 F6000 X163.135 Y133.473
G1 F1200 X164.049 Y133.527 E3.7295
G1 X165.393 Y133.755 E3.76432
G1 X165.701 Y133.828 E3.77241
G1 X166.582 Y134.077 E3.79579
G1 X167.437 Y134.403 E3.81917
G1 X168.261 Y134.802 E3.84255
G1 X168.689 Y135.046 E3.85514
G1 X168.993 Y135.229 E3.8642
G1 X169.756 Y135.735 E3.88759
G1 X170.472 Y136.306 E3.91098
G1 X171.135 Y136.937 E3.93436
G1 X171.672 Y137.539 E3.95497
G1 X171.851 Y137.756 E3.96215
G1 X172.403 Y138.487 E3.98555
G1 X172.755 Y139.035 E4.00219
G1 X173.214 Y139.804 E4.02506
G1 X175.548 Y143.856 E4.14451
G1 X175.883 Y144.456 E4.16206
G1 X176.294 Y145.274 E4.18545
G1 X176.632 Y146.125 E4.20884
G1 X176.798 Y146.645 E4.22278
G1 X176.883 Y146.938 E4.23057
G1 X177.099 Y147.828 E4.25397
G1 X177.272 Y149.122 E4.28731
G1 X177.287 Y149.335 E4.29277
G1 X177.311 Y150.25 E4.31615
G1 X177.256 Y151.164 E4.33954
G1 X177.121 Y152.069 E4.36291
G1 X177.009 Y152.578 E4.37622
G1 X176.941 Y152.854 E4.38349
G1 X176.683 Y153.732 E4.40686
G1 X176.222 Y154.863 E4.43806
G1 X176.084 Y155.152 E4.44624
G1 X175.709 Y155.866 E4.46684
G1 X173.135 Y160.332 E4.59851
G1 X172.783 Y160.922 E4.61606
G1 X172.173 Y161.833 E4.64406
G1 X172.039 Y162.012 E4.64978
G1 X171.459 Y162.721 E4.67317
G1 X170.819 Y163.376 E4.69657
G1 X170.165 Y163.94 E4.71863
G1 X169.937 Y164.121 E4.72606
G1 X169.196 Y164.658 E4.74944
G1 X168.411 Y165.129 E4.77282
G1 X167.564 Y165.54 E4.79687
G1 X167.32 Y165.645 E4.80366
G1 X166.464 Y165.969 E4.82704
G1 X165.583 Y166.218 E4.85042
G1 X164.384 Y166.428 E4.88151
G1 X164.065 Y166.465 E4.88972
G1 X162.967 Y166.534 E4.91782
G1 X162.276 Y166.541 E4.93547
G1 X157.519 Y166.537 E5.05698
G1 X156.808 Y166.526 E5.07515
G1 X156.38 Y166.51 E5.08609
G1 X153.941 Y166.373 E5.14849
G1 X151.371 Y166.299 E5.21416
G1 X148.851 Y166.297 E5.27853
G1 X146.292 Y166.369 E5.34392
G1 X144.448 Y166.464 E5.39109
G1 X143.626 Y166.513 E5.41212
G1 X143.278 Y166.527 E5.42102
G1 X142.966 Y166.534 E5.42899
G1 X142.275 Y166.541 E5.44664
G1 X137.513 Y166.537 E5.56828
G1 X136.826 Y166.526 E5.58583
G1 X135.912 Y166.471 E5.60922
G1 X134.91 Y166.318 E5.63511
G1 X134.703 Y166.276 E5.64051
G1 X133.815 Y166.055 E5.66388
G1 X132.949 Y165.757 E5.68728
G1 X132.113 Y165.385 E5.71065
G1 X131.603 Y165.113 E5.72542
G1 X131.227 Y164.899 E5.73647
G1 X130.452 Y164.412 E5.75985
G1 X129.722 Y163.859 E5.78324
G1 X129.044 Y163.245 E5.80661
G1 X128.327 Y162.46 E5.83376
G1 X128.148 Y162.243 E5.84095
G1 X127.596 Y161.512 E5.86435
G1 X127.241 Y160.958 E5.88115
G1 X126.769 Y160.168 E5.90466
G1 X124.434 Y156.112 E6.02421
G1 X124.113 Y155.536 E6.04105
G1 X123.702 Y154.717 E6.06446
G1 X123.365 Y153.866 E6.08784
G1 X123.186 Y153.3 E6.103
G1 X123.101 Y153.001 E6.11094
G1 X122.89 Y152.11 E6.13433
G1 X122.73 Y150.896 E6.16561
G1 X122.715 Y150.69 E6.17089
G1 X122.688 Y149.775 E6.19427
G1 X122.742 Y148.861 E6.21766
G1 X122.874 Y147.955 E6.24104
G1 X122.991 Y147.422 E6.25498
G1 X123.059 Y147.146 E6.26224
G1 X123.317 Y146.268 E6.28562
G1 X123.786 Y145.12 E6.3173
G1 X123.928 Y144.824 E6.32568
G1 X124.238 Y144.227 E6.34287
G1 X124.506 Y143.751 E6.35682
G1 X126.832 Y139.723 E6.47563
G1 X127.111 Y139.252 E6.48962
G1 X127.574 Y138.538 E6.51135
G1 X127.826 Y138.182 E6.52249
G1 X128.387 Y137.459 E6.54587
G1 X129.009 Y136.787 E6.56926
G1 X129.687 Y136.172 E6.59264
G1 X130.072 Y135.868 E6.60517
G1 X130.271 Y135.718 E6.61154
G1 X131.025 Y135.2 E6.63491
G1 X131.822 Y134.749 E6.6583
G1 X132.436 Y134.46 E6.67563
G1 X132.68 Y134.355 E6.68242
G1 X133.536 Y134.031 E6.7058
G1 X134.417 Y133.782 E6.72918
G1 X135.616 Y133.572 E6.76027
G1 X135.935 Y133.535 E6.76848
G1 X137.033 Y133.466 E6.79658
G1 X137.724 Y133.459 E6.81423
G1 X142.481 Y133.463 E6.93574
G1 X143.192 Y133.474 E6.95391
G1 X143.62 Y133.49 E6.96485
G1 X146.059 Y133.627 E7.02725
G1 X148.629 Y133.701 E7.09292
G1 X151.149 Y133.703 E7.15729
G1 X153.708 Y133.631 E7.22269
G1 X155.552 Y133.536 E7.26985
G1 X156.374 Y133.487 E7.29088
G1 X156.722 Y133.473 E7.29978
G1 X157.034 Y133.466 E7.30775
G1 X157.725 Y133.459 E7.3254
G1 X162.326 Y133.462 E7.44293
G1 X163.135 Y133.473 E7.4636
G0 F6000 X163.14 Y133.153
G1 F1200 X164.068 Y133.207 E7.48734
G1 X164.988 Y133.341 E7.51109
G1 X165.467 Y133.443 E7.5236
G1 X165.775 Y133.516 E7.53169
G1 X166.669 Y133.769 E7.55542
G1 X167.538 Y134.098 E7.57915
G1 X168.376 Y134.501 E7.60291
G1 X168.854 Y134.772 E7.61694
G1 X169.158 Y134.955 E7.62601
G1 X169.933 Y135.468 E7.64975
G1 X170.661 Y136.046 E7.67349
G1 X171.336 Y136.684 E7.69722
G1 X171.919 Y137.336 E7.71956
G1 X172.098 Y137.553 E7.72674
G1 X172.658 Y138.294 E7.75047
G1 X173.029 Y138.871 E7.76799
G1 X173.491 Y139.644 E7.79099
G1 X175.828 Y143.7 E7.91057
G1 X176.163 Y144.3 E7.92812
G1 X176.58 Y145.13 E7.95185
G1 X176.925 Y145.993 E7.97559
G1 X177.105 Y146.556 E7.99069
G1 X177.19 Y146.849 E7.99848
G1 X177.411 Y147.752 E8.02223
G1 X177.591 Y149.099 E8.05694
G1 X177.606 Y149.312 E8.06239
G1 X177.632 Y150.241 E8.08613
G1 X177.577 Y151.169 E8.10988
G1 X177.443 Y152.089 E8.13363
G1 X177.319 Y152.655 E8.14843
G1 X177.251 Y152.931 E8.15569
G1 X176.99 Y153.823 E8.17943
G1 X176.511 Y155.001 E8.21191
G1 X176.373 Y155.29 E8.22009
G1 X175.986 Y156.026 E8.24133
G1 X173.41 Y160.496 E8.37312
G1 X173.058 Y161.086 E8.39067
G1 X172.429 Y162.025 E8.41954
G1 X172.295 Y162.204 E8.42525
G1 X171.706 Y162.924 E8.44901
G1 X171.058 Y163.59 E8.47275
G1 X170.364 Y164.191 E8.4962
G1 X170.136 Y164.372 E8.50363
G1 X169.384 Y164.918 E8.52737
G1 X168.588 Y165.397 E8.5511
G1 X167.69 Y165.833 E8.5766
G1 X167.446 Y165.938 E8.58339
G1 X166.577 Y166.269 E8.60714
G1 X165.684 Y166.523 E8.63085
G1 X164.421 Y166.746 E8.66361
G1 X164.102 Y166.783 E8.67182
G1 X162.971 Y166.854 E8.70076
G1 X162.276 Y166.861 E8.71852
G1 X157.514 Y166.857 E8.84016
G1 X156.803 Y166.846 E8.85832
G1 X156.362 Y166.83 E8.86959
G1 X153.914 Y166.692 E8.93222
G1 X151.362 Y166.619 E8.99744
G1 X148.86 Y166.617 E9.06135
G1 X146.319 Y166.688 E9.12628
G1 X144.483 Y166.783 E9.17324
G1 X143.639 Y166.832 E9.19484
G1 X142.97 Y166.854 E9.21194
G1 X142.275 Y166.861 E9.22969
G1 X137.508 Y166.857 E9.35146
G1 X136.821 Y166.846 E9.36901
G1 X135.893 Y166.791 E9.39275
G1 X134.846 Y166.631 E9.41981
G1 X134.639 Y166.589 E9.4252
G1 X133.738 Y166.366 E9.44891
G1 X132.858 Y166.065 E9.47267
G1 X132.008 Y165.69 E9.4964
G1 X131.445 Y165.391 E9.51269
G1 X131.069 Y165.177 E9.52374
G1 X130.282 Y164.683 E9.54747
G1 X129.54 Y164.123 E9.57122
G1 X128.849 Y163.502 E9.59495
G1 X128.08 Y162.663 E9.62402
G1 X127.901 Y162.446 E9.63121
G1 X127.341 Y161.705 E9.65493
G1 X126.966 Y161.122 E9.67264
G1 X126.492 Y160.328 E9.69626
G1 X124.154 Y156.267 E9.81595
G1 X123.833 Y155.691 E9.8328
G1 X123.416 Y154.861 E9.85653
G1 X123.072 Y153.998 E9.88026
G1 X122.879 Y153.387 E9.89662
G1 X122.794 Y153.088 E9.90456
G1 X122.578 Y152.184 E9.92831
G1 X122.411 Y150.919 E9.9609
G1 X122.396 Y150.713 E9.96617
G1 X122.368 Y149.784 E9.98992
G1 X122.42 Y148.857 E10.01363
G1 X122.552 Y147.937 E10.03737
G1 X122.681 Y147.345 E10.05285
G1 X122.749 Y147.069 E10.06011
G1 X123.01 Y146.177 E10.08385
G1 X123.498 Y144.982 E10.11682
G1 X123.64 Y144.686 E10.12521
G1 X123.959 Y144.071 E10.14291
G1 X124.229 Y143.591 E10.15697
G1 X126.557 Y139.56 E10.27588
G1 X126.836 Y139.089 E10.28986
G1 X127.313 Y138.353 E10.31227
G1 X127.565 Y137.997 E10.32341
G1 X128.134 Y137.262 E10.34715
G1 X128.764 Y136.579 E10.37088
G1 X129.451 Y135.953 E10.39463
G1 X129.879 Y135.613 E10.40859
G1 X130.078 Y135.463 E10.41495
G1 X130.844 Y134.936 E10.4387
G1 X131.652 Y134.477 E10.46244
G1 X132.31 Y134.167 E10.48102
G1 X132.554 Y134.062 E10.48781
G1 X133.423 Y133.731 E10.51156
G1 X134.316 Y133.477 E10.53527
G1 X135.579 Y133.254 E10.56804
G1 X135.898 Y133.217 E10.57624
G1 X137.029 Y133.146 E10.60519
G1 X137.724 Y133.139 E10.62294
G1 X142.486 Y133.143 E10.74458
G1 X143.197 Y133.154 E10.76274
G1 X143.638 Y133.17 E10.77402
G1 X146.086 Y133.308 E10.83665
G1 X148.638 Y133.381 E10.90186
G1 X151.14 Y133.383 E10.96577
G1 X153.681 Y133.312 E11.0307
G1 X155.517 Y133.217 E11.07766
G1 X156.361 Y133.168 E11.09926
G1 X157.03 Y133.146 E11.11636
G1 X157.725 Y133.139 E11.13411
G1 X162.326 Y133.142 E11.25164
G1 X163.14 Y133.153 E11.27243
G1 F2700 E6.27243
;MESH:Bolt_Stand.stl(1)
G0 F6000 X147.496 Y150.226
G0 X146.274 Y150.258
G0 X143.044 Y155.219
;TYPE:WALL-INNER
G1 F2700 E11.27243
G1 F1200 X142.993 Y155.247 E11.27392
G1 X142.936 Y155.26 E11.27541
G1 X142.902 Y155.262 E11.27628
G1 X137.023 Y155.253 E11.42645
G1 X136.985 Y155.238 E11.4275
G1 X136.96 Y155.221 E11.42827
G1 X136.931 Y155.194 E11.42928
G1 X136.886 Y155.132 E11.43124
G1 X133.975 Y150.08 E11.58018
G1 X133.958 Y150.012 E11.58197
G1 X133.958 Y149.962 E11.58324
G1 X133.974 Y149.917 E11.58446
G1 X133.993 Y149.881 E11.5855
G1 X136.803 Y145.012 E11.7291
G1 X136.927 Y144.81 E11.73516
G1 X136.952 Y144.785 E11.73606
G1 X136.992 Y144.759 E11.73728
G1 X137.056 Y144.74 E11.73898
G1 X137.098 Y144.738 E11.74006
G1 X142.949 Y144.743 E11.88951
G1 X142.998 Y144.754 E11.8908
G1 X143.028 Y144.769 E11.89165
G1 X143.055 Y144.791 E11.89254
G1 X143.085 Y144.824 E11.89368
G1 X143.113 Y144.867 E11.89499
G1 X146.034 Y149.944 E12.04461
G1 X146.044 Y150.014 E12.04642
G1 X146.041 Y150.035 E12.04696
G1 X146.014 Y150.107 E12.04892
G1 X143.086 Y155.173 E12.19839
G1 X143.044 Y155.219 E12.19998
G0 F6000 X143.21 Y155.494
G1 F1200 X143.124 Y155.54 E12.20247
G1 X143.069 Y155.559 E12.20396
G1 X142.974 Y155.579 E12.20644
G1 X142.919 Y155.582 E12.20784
G1 X136.981 Y155.573 E12.35952
G1 X136.933 Y155.562 E12.36078
G1 X136.839 Y155.524 E12.36337
G1 X136.765 Y155.477 E12.36561
G1 X136.687 Y155.405 E12.36832
G1 X136.62 Y155.311 E12.37127
G1 X133.68 Y150.209 E12.52168
G1 X133.652 Y150.121 E12.52404
G1 X133.637 Y150.034 E12.5263
G1 X133.639 Y149.928 E12.52901
G1 X133.645 Y149.897 E12.52981
G1 X133.663 Y149.832 E12.53154
G1 X133.683 Y149.782 E12.53291
G1 X133.71 Y149.731 E12.53438
G1 X136.53 Y144.844 E12.67851
G1 X136.672 Y144.613 E12.68544
G1 X136.751 Y144.534 E12.68829
G1 X136.837 Y144.478 E12.69091
G1 X136.875 Y144.46 E12.69199
G1 X136.987 Y144.427 E12.69497
G1 X137.026 Y144.421 E12.69598
G1 X137.081 Y144.418 E12.69738
G1 X142.986 Y144.423 E12.84822
G1 X143.103 Y144.45 E12.85129
G1 X143.198 Y144.496 E12.85398
G1 X143.278 Y144.559 E12.85658
G1 X143.34 Y144.629 E12.85897
G1 X143.381 Y144.692 E12.86089
G1 X146.32 Y149.791 E13.01123
G1 X146.344 Y149.859 E13.01307
G1 X146.363 Y149.965 E13.01582
G1 X146.365 Y150.032 E13.01753
G1 X146.355 Y150.103 E13.01936
G1 X146.321 Y150.211 E13.02226
G1 X146.291 Y150.267 E13.02388
G1 X143.345 Y155.364 E13.17426
G1 X143.257 Y155.46 E13.17758
G1 X143.21 Y155.494 E13.17907
G0 F6000 X143.505 Y155.668
;TYPE:WALL-OUTER
G1 F1200 X143.451 Y155.715 E13.18089
G1 X143.383 Y155.764 E13.18304
G1 X143.309 Y155.807 E13.18522
G1 X143.245 Y155.837 E13.18703
G1 X143.163 Y155.866 E13.18925
G1 X143.081 Y155.886 E13.1914
G1 X143.008 Y155.897 E13.19329
G1 X142.919 Y155.902 E13.19557
G1 X136.994 Y155.897 E13.34691
G1 X136.919 Y155.887 E13.34885
G1 X136.845 Y155.871 E13.35078
G1 X136.777 Y155.847 E13.35262
G1 X136.694 Y155.809 E13.35495
G1 X136.629 Y155.773 E13.35685
G1 X136.564 Y155.727 E13.35889
G1 X136.5 Y155.672 E13.36104
G1 X136.442 Y155.611 E13.36319
